AlexPazzaglia/SalamandraSNN/experimental_data/salamander_kinematics_karakasiliotis/swimming/data_karakasiliotis.csv
time,Axis 1,Axis 2,Axis 3,Axis 4,Axis 5,Axis 6,Axis 7,Axis 8
0.0,8.918173987109457,-3.6653466977572746,-9.519995653545116,-13.10932967644298,-20.105671641386063,-4.143234002507402,21.003505384921553,34.04208954698985
0.001,8.942095736666865,-3.5806034553668966,-9.454418596247782,-13.08822002734144,-20.13631669068565,-4.31556665830885,20.848744199434197,33.989050243965735
0.002,8.966017486224274,-3.4958602129765186,-9.38884153895045,-13.067110378239903,-20.16696173998524,-4.4878993141102965,20.693983013946838,33.936010940941614
0.003,8.989939235781682,-3.4111169705861406,-9.323264481653116,-13.046000729138363,-20.197606789284826,-4.660231969911744,20.539221828459482,33.8829716379175
0.004,9.013860985339091,-3.3263737281957626,-9.257687424355783,-13.024891080036825,-20.228251838584416,-4.832564625713191,20.384460642972126,33.829932334893385
0.005,9.0377827348965,-3.2416304858053846,-9.192110367058449,-13.003781430935286,-20.258896887884003,-5.004897281514639,20.229699457484767,33.776893031869264
0.006,9.061704484453909,-3.1568872434150066,-9.126533309761115,-12.982671781833748,-20.289541937183593,-5.177229937316086,20.07493827199741,33.72385372884515
0.007,9.085626234011317,-3.0721440010246286,-9.060956252463782,-12.961562132732208,-20.32018698648318,-5.3495625931175335,19.920177086510055,33.67081442582103
0.008,9.109547983568726,-2.9874007586342506,-8.995379195166448,-12.940452483630668,-20.35083203578277,-5.52189524891898,19.765415901022696,33.617775122796914
0.009000000000000001,9.133469733126134,-2.902657516243872,-8.929802137869114,-12.91934283452913,-20.381477085082356,-5.694227904720428,19.61065471553534,33.5647358197728
0.01,9.157391482683543,-2.8179142738534946,-8.864225080571781,-12.898233185427591,-20.412122134381946,-5.866560560521875,19.455893530047984,33.51169651674868
0.011,9.181313232240951,-2.7331710314631166,-8.798648023274447,-12.877123536326053,-20.442767183681532,-6.038893216323322,19.301132344560624,33.458657213724564
0.012,9.20523498179836,-2.6484277890727386,-8.733070965977113,-12.856013887224513,-20.473412232981122,-6.2112258721247695,19.14637115907327,33.40561791070045
0.013000000000000001,9.229156731355769,-2.56368454668236,-8.66749390867978,-12.834904238122975,-20.50405728228071,-6.383558527926217,18.991609973585913,33.35257860767633
0.014,9.253078480913178,-2.4789413042919826,-8.601916851382446,-12.813794589021436,-20.534702331580295,-6.555891183727665,18.836848788098553,33.299539304652214
0.015,9.277000230470586,-2.394198061901604,-8.536339794085114,-12.792684939919898,-20.565347380879885,-6.728223839529111,18.682087602611197,33.2465000016281
0.016,9.300921980027995,-2.3094548195112266,-8.47076273678778,-12.771575290818358,-20.59599243017947,-6.900556495330559,18.52732641712384,33.19346069860398
0.017,9.324843729585403,-2.224711577120848,-8.405185679490446,-12.750465641716819,-20.62663747947906,-7.0728891511320064,18.372565231636482,33.140421395579864
0.018000000000000002,9.348765479142813,-2.13996833473047,-8.339608622193113,-12.72935599261528,-20.657282528778648,-7.245221806933454,18.217804046149126,33.08738209255574
0.019,9.37268722870022,-2.055225092340092,-8.274031564895779,-12.708246343513741,-20.687927578078238,-7.417554462734901,18.06304286066177,33.03434278953163
0.02,9.39660897825763,-1.9704818499497143,-8.208454507598447,-12.687136694412203,-20.718572627377824,-7.589887118536348,17.90828167517441,32.981303486507514
0.021,9.420530727815038,-1.885738607559336,-8.142877450301112,-12.666027045310663,-20.749217676677414,-7.762219774337796,17.753520489687055,32.92826418348339
0.022,9.444452477372446,-1.8009953651689583,-8.077300393003778,-12.644917396209125,-20.779862725977,-7.9345524301392425,17.5987593041997,32.87522488045928
0.023,9.468374226929855,-1.7162521227785803,-8.011723335706446,-12.623807747107586,-20.81050777527659,-8.10688508594069,17.443998118712344,32.822185577435164
0.024,9.492295976487263,-1.631508880388202,-7.9461462784091115,-12.602698098006048,-20.841152824576177,-8.279217741742137,17.289236933224984,32.76914627441104
0.025,9.516217726044673,-1.546765637997824,-7.880569221111778,-12.581588448904508,-20.871797873875764,-8.451550397543585,17.13447574773763,32.71610697138693
0.026000000000000002,9.54013947560208,-1.462022395607446,-7.814992163814445,-12.560478799802969,-20.902442923175354,-8.623883053345033,16.97971456225027,32.663067668362814
0.027,9.56406122515949,-1.377279153217068,-7.749415106517111,-12.53936915070143,-20.93308797247494,-8.79621570914648,16.824953376762913,32.61002836533869
0.028,9.587982974716898,-1.29253591082669,-7.683838049219777,-12.518259501599891,-20.96373302177453,-8.968548364947928,16.670192191275557,32.55698906231458
0.029,9.611904724274307,-1.207792668436312,-7.618260991922444,-12.497149852498353,-20.994378071074117,-9.140881020749374,16.5154310057882,32.503949759290464
0.03,9.635826473831715,-1.123049426045934,-7.552683934625111,-12.476040203396813,-21.025023120373707,-9.31321367655082,16.360669820300842,32.45091045626634
0.031,9.659748223389125,-1.038306183655556,-7.487106877327777,-12.454930554295276,-21.055668169673293,-9.485546332352268,16.205908634813486,32.39787115324223
0.032,9.683669972946532,-0.953562941265178,-7.421529820030443,-12.433820905193736,-21.086313218972883,-9.657878988153715,16.05114744932613,32.34483185021811
0.033,9.707591722503942,-0.8688196988748,-7.355952762733109,-12.412711256092196,-21.11695826827247,-9.830211643955163,15.896386263838771,32.29179254719399
0.034,9.73151347206135,-0.784076456484422,-7.2903757054357765,-12.391601606990658,-21.14760331757206,-10.002544299756611,15.741625078351415,32.23875324416988
0.035,9.75543522161876,-0.699333214094044,-7.224798648138442,-12.370491957889119,-21.178248366871646,-10.174876955558059,15.586863892864056,32.18571394114576
0.036000000000000004,9.779356971176167,-0.6145899717036656,-7.159221590841109,-12.34938230878758,-21.208893416171236,-10.347209611359506,15.4321027073767,32.13267463812164
0.037,9.803278720733577,-0.529846729313288,-7.093644533543776,-12.328272659686041,-21.239538465470822,-10.519542267160952,15.277341521889344,32.07963533509753
0.038,9.827200470290984,-0.44510348692291,-7.0280674762464415,-12.307163010584503,-21.27018351477041,-10.6918749229624,15.122580336401986,32.02659603207341
0.039,9.851122219848394,-0.360360244532532,-6.962490418949109,-12.286053361482963,-21.30082856407,-10.864207578763846,14.967819150914629,31.973556729049292
0.04,9.875043969405802,-0.275617002142154,-6.896913361651775,-12.264943712381424,-21.331473613369585,-11.036540234565294,14.813057965427273,31.920517426025175
0.041,9.898965718963211,-0.190873759751776,-6.831336304354441,-12.243834063279886,-21.362118662669175,-11.208872890366742,14.658296779939915,31.867478123001057
0.042,9.922887468520619,-0.10613051736139756,-6.765759247057108,-12.222724414178346,-21.39276371196876,-11.38120554616819,14.503535594452558,31.814438819976942
0.043000000000000003,9.946809218078027,-0.021387274971019554,-6.700182189759774,-12.201614765076808,-21.42340876126835,-11.553538201969637,14.348774408965202,31.761399516952824
0.044,9.970730967635436,0.063355967419358,-6.6346051324624415,-12.180505115975269,-21.454053810567938,-11.725870857771083,14.194013223477846,31.708360213928707
0.045,9.994652717192844,0.148099209809736,-6.569028075165107,-12.15939546687373,-21.484698859867528,-11.89820351357253,14.039252037990487,31.655320910904592
0.046,10.018574466750254,0.23284245220011401,-6.503451017867773,-12.138285817772191,-21.515343909167115,-12.070536169373979,13.88449085250313,31.602281607880474
0.047,10.042496216307661,0.317585694590492,-6.437873960570441,-12.117176168670653,-21.545988958466705,-12.242868825175426,13.729729667015773,31.549242304856357
0.048,10.066417965865071,0.40232893698087047,-6.3722969032731065,-12.096066519569113,-21.57663400776629,-12.415201480976874,13.574968481528416,31.49620300183224
0.049,10.090339715422479,0.487072179371248,-6.306719845975772,-12.074956870467574,-21.60727905706588,-12.58753413677832,13.42020729604106,31.443163698808124
0.05,10.114261464979888,0.5718154217616265,-6.24114278867844,-12.053847221366036,-21.637924106365467,-12.759866792579768,13.265446110553702,31.390124395784007
0.051000000000000004,10.138183214537296,0.656558664152004,-6.175565731381106,-12.032737572264496,-21.668569155665054,-12.932199448381215,13.110684925066344,31.33708509275989
0.052000000000000005,10.162104964094706,0.7413019065423825,-6.109988674083772,-12.011627923162958,-21.699214204964644,-13.104532104182663,12.955923739578987,31.28404578973577
0.053,10.180180463318433,0.8201607620833208,-6.040327826901383,-11.983581806357291,-21.717726377493868,-13.281521110331092,12.78887949311037,31.206049683482718
0.054,10.18823381911299,0.8889320973109363,-5.963666197058897,-11.943644602058832,-21.71543933270247,-13.466492431360066,12.600778570673876,31.085270485980057
0.055,10.196287174907546,0.9577034325385518,-5.887004567216412,-11.903707397760373,-21.713152287911072,-13.65146375238904,12.41267764823738,30.964491288477397
0.056,10.204340530702103,1.0264747677661674,-5.8103429373739255,-11.863770193461914,-21.710865243119674,-13.836435073418013,12.224576725800885,30.843712090974737
0.057,10.212393886496661,1.095246102993783,-5.73368130753144,-11.823832989163455,-21.708578198328276,-14.021406394446986,12.03647580336439,30.722932893472077
0.058,10.220447242291218,1.1640174382213986,-5.657019677688954,-11.783895784864997,-21.706291153536878,-14.20637771547596,11.848374880927896,30.602153695969417
0.059000000000000004,10.228500598085775,1.2327887734490142,-5.5803580478464685,-11.743958580566538,-21.70400410874548,-14.391349036504934,11.6602739584914,30.481374498466757
0.06,10.236553953880334,1.3015601086766293,-5.503696418003983,-11.704021376268079,-21.701717063954078,-14.576320357533906,11.472173036054906,30.3605953009641
0.061,10.24460730967489,1.3703314439042449,-5.427034788161497,-11.66408417196962,-21.69943001916268,-14.761291678562879,11.28407211361841,30.23981610346144
0.062,10.252660665469447,1.4391027791318605,-5.350373158319011,-11.62414696767116,-21.697142974371282,-14.946262999591852,11.095971191181917,30.11903690595878
0.063,10.260714021264006,1.507874114359476,-5.273711528476525,-11.584209763372703,-21.694855929579884,-15.131234320620827,10.907870268745421,29.99825770845612
0.064,10.268767377058563,1.5766454495870916,-5.197049898634039,-11.544272559074244,-21.692568884788486,-15.3162056416498,10.719769346308926,29.87747851095346
0.065,10.27682073285312,1.6454167848147072,-5.120388268791554,-11.504335354775785,-21.690281839997088,-15.501176962678773,10.531668423872432,29.7566993134508
0.066,10.284874088647676,1.7141881200423228,-5.043726638949067,-11.464398150477326,-21.68799479520569,-15.686148283707746,10.343567501435937,29.63592011594814
0.067,10.292927444442235,1.7829594552699386,-4.967065009106582,-11.424460946178867,-21.68570775041429,-15.87111960473672,10.155466578999441,29.51514091844548
0.068,10.300980800236792,1.851730790497554,-4.890403379264096,-11.384523741880407,-21.683420705622893,-16.056090925765695,9.967365656562947,29.39436172094282
0.069,10.309034156031348,1.9205021257251698,-4.8137417494216095,-11.34458653758195,-21.681133660831495,-16.241062246794666,9.779264734126452,29.273582523440158
0.07,10.317087511825907,1.9892734609527851,-4.737080119579124,-11.304649333283491,-21.678846616040097,-16.42603356782364,9.591163811689956,29.152803325937498
0.07100000000000001,10.325140867620464,2.058044796180401,-4.660418489736639,-11.264712128985032,-21.6765595712487,-16.611004888852616,9.40306288925346,29.032024128434838
0.07200000000000001,10.33319422341502,2.1268161314080163,-4.5837568598941525,-11.224774924686573,-21.6742725264573,-16.795976209881587,9.214961966816967,28.911244930932178
0.073,10.341247579209577,2.195587466635631,-4.507095230051668,-11.184837720388114,-21.671985481665903,-16.98094753091056,9.026861044380475,28.790465733429517
0.074,10.349300935004136,2.2643588018632466,-4.430433600209182,-11.144900516089656,-21.6696984368745,-17.165918851939534,8.838760121943977,28.669686535926857
0.075,10.357354290798693,2.3331301370908624,-4.3537719703666955,-11.104963311791197,-21.667411392083103,-17.350890172968505,8.650659199507484,28.548907338424197
0.076,10.36540764659325,2.4019014723184777,-4.27711034052421,-11.065026107492738,-21.665124347291705,-17.53586149399748,8.46255827707099,28.428128140921537
0.077,10.373461002387808,2.4706728075460935,-4.200448710681724,-11.025088903194279,-21.662837302500307,-17.720832815026455,8.274457354634492,28.307348943418877
0.078,10.381514358182365,2.539444142773709,-4.1237870808392385,-10.98515169889582,-21.66055025770891,-17.905804136055426,8.086356432197999,28.186569745916216
0.079,10.389567713976922,2.6082154780013247,-4.047125450996752,-10.945214494597362,-21.65826321291751,-18.0907754570844,7.898255509761503,28.065790548413556
0.08,10.39762106977148,2.67698681322894,-3.9704638211542664,-10.905277290298903,-21.655976168126113,-18.275746778113373,7.710154587325008,27.945011350910896
0.081,10.405674425566037,2.745758148456556,-3.8938021913117806,-10.865340086000444,-21.653689123334715,-18.460718099142348,7.522053664888514,27.824232153408236
0.082,10.413727781360594,2.814529483684171,-3.817140561469295,-10.825402881701985,-21.651402078543317,-18.645689420171323,7.333952742452018,27.703452955905576
0.083,10.42178113715515,2.883300818911787,-3.740478931626809,-10.785465677403526,-21.64911503375192,-18.830660741200294,7.145851820015523,27.582673758402915
0.084,10.429834492949709,2.9520721541394024,-3.663817301784323,-10.745528473105066,-21.64682798896052,-19.01563206222927,6.957750897579028,27.461894560900255
0.085,10.437887848744266,3.020843489367018,-3.5871556719418374,-10.705591268806607,-21.644540944169123,-19.20060338325824,6.769649975142533,27.341115363397595
0.08600000000000001,10.445941204538823,3.0896148245946335,-3.5104940420993516,-10.66565406450815,-21.642253899377724,-19.385574704287215,6.5815490527060385,27.220336165894935
0.08700000000000001,10.453994560333381,3.1583861598222494,-3.4338324122568653,-10.62571686020969,-21.639966854586323,-19.57054602531619,6.393448130269543,27.099556968392278
0.088,10.462047916127938,3.227157495049864,-3.357170782414381,-10.585779655911232,-21.637679809794925,-19.755517346345158,6.205347207833051,26.978777770889618
0.089,10.470101271922495,3.2959288302774796,-3.280509152571895,-10.545842451612772,-21.635392765003527,-19.940488667374133,6.017246285396555,26.857998573386958
0.09,10.478154627717052,3.364700165505095,-3.203847522729409,-10.505905247314315,-21.63310572021213,-20.125459988403108,5.829145362960061,26.737219375884298
0.091,10.48620798351161,3.433471500732711,-3.127185892886923,-10.465968043015856,-21.63081867542073,-20.31043130943208,5.641044440523566,26.616440178381637
0.092,10.494261339306167,3.502242835960326,-3.050524263044437,-10.426030838717397,-21.628531630629332,-20.495402630461054,5.4529435180870705,26.495660980878977
0.093,10.502314695100724,3.571014171187942,-2.9738626332019513,-10.386093634418938,-21.626244585837934,-20.680373951490026,5.264842595650576,26.374881783376317
0.094,10.510368050895282,3.6397855064155573,-2.8972010033594655,-10.346156430120478,-21.623957541046536,-20.865345272519,5.07674167321408,26.254102585873657
0.095,10.51842140668984,3.708556841643173,-2.8205393735169797,-10.30621922582202,-21.62167049625514,-21.050316593547976,4.8886407507775855,26.133323388370997
0.096,10.526474762484396,3.7773281768707885,-2.743877743674494,-10.266282021523562,-21.61938345146374,-21.235287914576947,4.700539828341091,26.012544190868336
0.097,10.534528118278955,3.8460995120984043,-2.667216113832008,-10.226344817225103,-21.617096406672342,-21.42025923560592,4.512438905904595,25.891764993365676
0.098,10.542581474073511,3.9148708473260196,-2.5905544839895223,-10.186407612926644,-21.614809361880944,-21.605230556634893,4.3243379834681,25.770985795863016
0.099,10.550634829868068,3.9836421825536354,-2.513892854147036,-10.146470408628185,-21.612522317089546,-21.79020187766387,4.136237061031606,25.650206598360356
0.1,10.558688185662625,4.05241351778125,-2.43723122430455,-10.106533204329725,-21.610235272298144,-21.975173198692843,3.9481361385951104,25.529427400857696
0.101,10.566741541457183,4.121184853008867,-2.3605695944620644,-10.066596000031266,-21.607948227506746,-22.160144519721815,3.760035216158615,25.408648203355035
0.10200000000000001,10.57479489725174,4.189956188236482,-2.2839079646195786,-10.026658795732807,-21.605661182715348,-22.345115840750786,3.571934293722121,25.287869005852375
0.10300000000000001,10.582848253046297,4.258727523464097,-2.2072463347770928,-9.98672159143435,-21.60337413792395,-22.53008716177976,3.3838333712856254,25.167089808349715
0.10400000000000001,10.590901608840856,4.327498858691713,-2.130584704934607,-9.94678438713589,-21.601087093132552,-22.715058482808736,3.19573244884913,25.046310610847055
0.105,10.598954964635412,4.396270193919328,-2.053923075092122,-9.906847182837431,-21.598800048341154,-22.900029803837707,3.007631526412638,24.925531413344398
0.106,10.602358057906304,4.467849520475162,-1.9746493268059482,-9.838455302687857,-21.56781312790232,-23.02677695279813,2.8247654791303454,24.77080409999905
0.107,10.604100343133029,4.5404317010767885,-1.8944426790756,-9.759901038305738,-21.526576251875117,-23.132729754591217,2.643769030117411,24.603952459567033
0.108,10.605842628359754,4.613013881678415,-1.8142360313452517,-9.681346773923622,-21.48533937584791,-23.2386825563843,2.4627725811044767,24.43710081913501
0.109,10.60758491358648,4.685596062280042,-1.7340293836149034,-9.602792509541503,-21.44410249982071,-23.34463535817739,2.2817761320915424,24.270249178702993
0.11,10.609327198813206,4.758178242881669,-1.653822735884555,-9.524238245159387,-21.402865623793502,-23.450588159970472,2.100779683078608,24.103397538270976
0.111,10.61106948403993,4.830760423483295,-1.5736160881542067,-9.44568398077727,-21.361628747766296,-23.55654096176356,1.9197832340656735,23.936545897838954
0.112,10.612811769266656,4.903342604084922,-1.4934094404238585,-9.367129716395151,-21.320391871739094,-23.662493763556643,1.7387867850527392,23.769694257406936
0.113,10.614554054493382,4.975924784686548,-1.41320279269351,-9.288575452013035,-21.279154995711888,-23.76844656534973,1.5577903360398049,23.602842616974915
0.114,10.616296339720106,5.048506965288174,-1.3329961449631618,-9.210021187630916,-21.237918119684686,-23.874399367142814,1.3767938870268706,23.435990976542897
0.115,10.618038624946832,5.121089145889801,-1.2527894972328135,-9.1314669232488,-21.19668124365748,-23.9803521689359,1.1957974380139362,23.26913933611088
0.116,10.619780910173558,5.193671326491428,-1.172582849502465,-9.052912658866681,-21.155444367630277,-24.086304970728985,1.014800989001002,23.102287695678857
0.117,10.621523195400282,5.2662535070930545,-1.092376201772117,-8.974358394484565,-21.11420749160307,-24.192257772522073,0.8338045399880674,22.93543605524684
0.11800000000000001,10.623265480627008,5.338835687694681,-1.0121695540417686,-8.895804130102448,-21.072970615575866,-24.298210574315156,0.652808090975133,22.76858441481482
0.11900000000000001,10.625007765853734,5.411417868296308,-0.9319629063114203,-8.81724986572033,-21.031733739548663,-24.404163376108244,0.4718116419621987,22.6017327743828
0.12,10.62675005108046,5.484000048897933,-0.8517562585810732,-8.738695601338215,-20.990496863521457,-24.510116177901327,0.29081519294926705,22.434881133950782
0.121,10.628492336307184,5.5565822294995595,-0.7715496108507247,-8.660141336956096,-20.949259987494255,-24.616068979694415,0.10981874393633273,22.268029493518764
0.122,10.63023462153391,5.629164410101186,-0.6913429631203765,-8.58158707257398,-20.90802311146705,-24.7220217814875,-0.0711777050766016,22.101177853086746
0.123,10.631976906760636,5.701746590702813,-0.6111363153900282,-8.503032808191861,-20.866786235439847,-24.827974583280586,-0.2521741540895359,21.934326212654724
0.124,10.63371919198736,5.77432877130444,-0.5309296676596797,-8.424478543809744,-20.82554935941264,-24.93392738507367,-0.43317060310247024,21.767474572222707
0.125,10.635461477214086,5.846910951906066,-0.4507230199293315,-8.345924279427626,-20.78431248338544,-25.039880186866757,-0.614167052115405,21.60062293179069
0.126,10.637203762440812,5.919493132507693,-0.37051637219898326,-8.26737001504551,-20.743075607358232,-25.14583298865984,-0.7951635011283393,21.433771291358667
0.127,10.638946047667538,5.99207531310932,-0.290309724468635,-8.188815750663391,-20.70183873133103,-25.251785790452928,-0.9761599501412737,21.26691965092665
0.128,10.640688332894262,6.064657493710946,-0.21010307673828654,-8.110261486281274,-20.660601855303824,-25.35773859224601,-1.1571563991542075,21.10006801049463
0.129,10.642430618120988,6.137239674312573,-0.1298964290079383,-8.031707221899158,-20.619364979276618,-25.4636913940391,-1.3381528481671423,20.93321637006261
0.13,10.644172903347714,6.2098218549142,-0.04968978127759005,-7.953152957517039,-20.578128103249416,-25.569644195832183,-1.5191492971800762,20.76636472963059
0.131,10.645915188574438,6.282404035515826,0.030516866452758418,-7.8745986931349226,-20.53689122722221,-25.67559699762527,-1.700145746193011,20.599513089198574
0.132,10.647657473801164,6.354986216117452,0.11072351418310644,-7.796044428752805,-20.495654351195007,-25.781549799418354,-1.8811421952059457,20.432661448766552
0.133,10.64939975902789,6.427568396719079,0.1909301619134549,-7.7174901643706875,-20.4544174751678,-25.88750260121144,-2.0621386442188796,20.265809808334534
0.134,10.651142044254614,6.500150577320706,0.2711368096438034,-7.638935899988571,-20.4131805991406,-25.993455403004525,-2.2431350932318144,20.098958167902516
0.135,10.65288432948134,6.572732757922332,0.3513434573741514,-7.560381635606452,-20.371943723113393,-26.099408204797612,-2.4241315422447482,19.932106527470495
0.136,10.654626614708066,6.645314938523959,0.43155010510449987,-7.481827371224336,-20.33070684708619,-26.205361006590696,-2.605127991257683,19.765254887038477
0.137,10.656368899934792,6.717897119125586,0.5117567528348483,-7.403273106842218,-20.289469971058985,-26.311313808383783,-2.786124440270617,19.59840324660646
0.138,10.658111185161516,6.790479299727211,0.5919634005651964,-7.324718842460101,-20.24823309503178,-26.417266610176867,-2.9671208892835517,19.431551606174438
0.139,10.659853470388242,6.863061480328838,0.6721700482955448,-7.246164578077983,-20.206996219004576,-26.523219411969954,-3.1481173382964855,19.26469996574242
0.14,10.661595755614968,6.935643660930465,0.7523766960258933,-7.1676103136958655,-20.16575934297737,-26.62917221376304,-3.3291137873094203,19.097848325310398
0.14100000000000001,10.663338040841692,7.0082258415320915,0.8325833437562413,-7.089056049313749,-20.124522466950168,-26.735125015556125,-3.510110236322354,18.93099668487838
0.14200000000000002,10.665080326068418,7.080808022133718,0.9127899914865898,-7.0105017849316305,-20.083285590922962,-26.84107781734921,-3.691106685335289,18.76414504444636
0.14300000000000002,10.666822611295144,7.153390202735345,0.9929966392169378,-6.931947520549514,-20.042048714895756,-26.947030619142296,-3.872103134348223,18.59729340401434
0.14400000000000002,10.66856489652187,7.225972383336972,1.0732032869472863,-6.853393256167396,-20.000811838868554,-27.052983420935384,-4.053099583361158,18.430441763582323
0.145,10.670307181748594,7.2985545639385965,1.1534099346776325,-6.7748389917852805,-19.95957496284135,-27.158936222728464,-4.234096032374087,18.26359012315031
0.146,10.67204946697532,7.371136744540223,1.2336165824079806,-6.696284727403164,-19.918338086814146,-27.26488902452155,-4.4150924813870205,18.096738482718287
0.147,10.673791752202046,7.44371892514185,1.313823230138329,-6.617730463021046,-19.877101210786943,-27.370841826314635,-4.596088930399956,17.92988684228627
0.148,10.67553403742877,7.5163011057434765,1.3940298778686775,-6.539176198638929,-19.835864334759737,-27.476794628107722,-4.77708537941289,17.76303520185425
0.149,10.677276322655496,7.588883286345103,1.4742365255990255,-6.460621934256812,-19.79462745873253,-27.582747429900806,-4.958081828425824,17.59618356142223
0.15,10.679018607882222,7.661465466946729,1.554443173329374,-6.382067669874694,-19.75339058270533,-27.688700231693893,-5.139078277438758,17.42933192099021
0.151,10.680760893108946,7.734047647548356,1.6346498210597225,-6.303513405492577,-19.712153706678123,-27.794653033486977,-5.320074726451692,17.262480280558194
0.152,10.682503178335672,7.806629828149982,1.7148564687900705,-6.2249591411104594,-19.67091683065092,-27.900605835280064,-5.501071175464627,17.095628640126172
0.153,10.684245463562398,7.879212008751609,1.795063116520419,-6.146404876728342,-19.629679954623715,-28.006558637073148,-5.682067624477561,16.928776999694154
0.154,10.685987748789124,7.951794189353236,1.8752697642507674,-6.067850612346224,-19.588443078596512,-28.112511438866235,-5.863064073490495,16.761925359262136
0.155,10.687730034015848,8.024376369954862,1.9554764119811154,-5.989296347964107,-19.547206202569306,-28.218464240659323,-6.044060522503431,16.595073718830115
0.156,10.689472319242574,8.096958550556488,2.035683059711464,-5.91074208358199,-19.5059693265421,-28.324417042452406,-6.225056971516365,16.428222078398097
0.157,10.6912146044693,8.169540731158115,2.115889707441812,-5.832187819199873,-19.464732450514898,-28.43036984424549,-6.4060534205292985,16.26137043796608
0.158,10.688915069924857,8.23972614655269,2.1934996333551045,-5.75295188216586,-19.42069884872975,-28.529808935438165,-6.584964001092333,16.090749482581813
0.159,10.652260067325482,8.289539057687309,2.2490374238234274,-5.667921727590733,-19.35289307800209,-28.573881486527327,-6.746144699831205,15.888089350103483
0.16,10.61560506472611,8.339351968821928,2.3045752142917504,-5.582891573015607,-19.28508730727443,-28.61795403761649,-6.907325398570077,15.685429217625153
0.161,10.578950062126735,8.389164879956548,2.360113004760074,-5.497861418440481,-19.21728153654677,-28.662026588705654,-7.068506097308949,15.482769085146822
0.162,10.542295059527362,8.438977791091167,2.4156507952283968,-5.412831263865354,-19.149475765819112,-28.706099139794816,-7.229686796047821,15.280108952668492
0.163,10.505640056927987,8.488790702225788,2.4711885856967197,-5.327801109290228,-19.081669995091453,-28.750171690883978,-7.390867494786692,15.077448820190162
0.164,10.468985054328614,8.538603613360408,2.5267263761650427,-5.242770954715102,-19.013864224363797,-28.794244241973143,-7.552048193525564,14.874788687711831
0.165,10.43233005172924,8.588416524495027,2.5822641666333657,-5.157740800139976,-18.946058453636137,-28.838316793062305,-7.713228892264436,14.6721285552335
0.166,10.395675049129867,8.638229435629647,2.6378019571016886,-5.072710645564849,-18.878252682908478,-28.882389344151466,-7.874409591003308,14.46946842275517
0.167,10.359020046530492,8.688042346764268,2.6933397475700116,-4.987680490989723,-18.81044691218082,-28.92646189524063,-8.03559028974218,14.26680829027684
0.168,10.32236504393112,8.737855257898888,2.7488775380383346,-4.902650336414597,-18.74264114145316,-28.970534446329793,-8.196770988481052,14.06414815779851
0.169,10.285710041331747,8.787668169033507,2.8044153285066575,-4.81762018183947,-18.6748353707255,-29.014606997418955,-8.357951687219924,13.86148802532018
0.17,10.249055038732372,8.837481080168127,2.8599531189749805,-4.732590027264345,-18.60702959999784,-29.05867954850812,-8.519132385958795,13.658827892841849
0.171,10.212400036133,8.887293991302748,2.9154909094433035,-4.647559872689218,-18.53922382927018,-29.102752099597282,-8.680313084697667,13.456167760363519
0.17200000000000001,10.175745033533625,8.937106902437367,2.9710286999116264,-4.562529718114092,-18.471418058542522,-29.146824650686444,-8.841493783436539,13.253507627885188
0.17300000000000001,10.139090030934252,8.986919813571987,3.0265664903799494,-4.477499563538966,-18.403612287814862,-29.19089720177561,-9.002674482175411,13.050847495406858
0.17400000000000002,10.102435028334877,9.036732724706606,3.0821042808482724,-4.392469408963839,-18.335806517087203,-29.23496975286477,-9.163855180914283,12.848187362928527
0.17500000000000002,10.065780025735505,9.086545635841226,3.1376420713165953,-4.307439254388713,-18.268000746359544,-29.279042303953933,-9.325035879653155,12.645527230450197
0.176,10.029125023136132,9.136358546975845,3.193179861784917,-4.222409099813589,-18.200194975631888,-29.323114855043094,-9.486216578392021,12.442867097971872
0.177,9.992470020536757,9.186171458110465,3.24871765225324,-4.1373789452384635,-18.13238920490423,-29.36718740613226,-9.647397277130894,12.240206965493542
0.178,9.955815017937384,9.235984369245084,3.304255442721563,-4.052348790663337,-18.06458343417657,-29.41125995722142,-9.808577975869767,12.037546833015213
0.179,9.919160015338012,9.285797280379704,3.359793233189886,-3.9673186360882107,-17.99677766344891,-29.455332508310583,-9.969758674608638,11.834886700536881
0.18,9.882505012738637,9.335610191514325,3.415331023658209,-3.8822884815130845,-17.92897189272125,-29.49940505939975,-10.130939373347509,11.632226568058552
0.181,9.845850010139264,9.385423102648945,3.470868814126532,-3.797258326937958,-17.86116612199359,-29.54347761048891,-10.292120072086382,11.42956643558022
0.182,9.80919500753989,9.435236013783564,3.5264066045948548,-3.7122281723628316,-17.79336035126593,-29.587550161578072,-10.453300770825253,11.226906303101892
0.183,9.772540004940517,9.485048924918184,3.5819443950631777,-3.6271980177877055,-17.725554580538272,-29.631622712667237,-10.614481469564126,11.02424617062356
0.184,9.735885002341142,9.534861836052805,3.6374821855315007,-3.5421678632125793,-17.657748809810613,-29.6756952637564,-10.775662168302997,10.821586038145231
0.185,9.69922999974177,9.584674747187425,3.6930199759998237,-3.457137708637453,-17.589943039082954,-29.71976781484556,-10.936842867041868,10.618925905666899
0.186,9.662574997142395,9.634487658322044,3.7485577664681466,-3.372107554062327,-17.522137268355294,-29.763840365934726,-11.098023565780741,10.41626577318857
0.187,9.625919994543022,9.684300569456664,3.8040955569364696,-3.2870773994872007,-17.454331497627635,-29.807912917023888,-11.259204264519614,10.213605640710238
0.188,9.589264991943647,9.734113480591283,3.8596333474047926,-3.2020472449120745,-17.386525726899976,-29.85198546811305,-11.420384963258485,10.01094550823191
0.189,9.552609989344274,9.783926391725904,3.9151711378731155,-3.117017090336948,-17.318719956172316,-29.896058019202215,-11.581565661997356,9.808285375753577
0.19,9.5159549867449,9.833739302860524,3.9707089283414385,-3.0319869357618217,-17.250914185444657,-29.940130570291377,-11.742746360736229,9.605625243275249
0.191,9.479299984145527,9.883552213995143,4.0262467188097615,-2.9469567811866955,-17.183108414716997,-29.98420312138054,-11.903927059475102,9.402965110796917
0.192,9.442644981546152,9.933365125129765,4.0817845092780844,-2.8619266266115693,-17.115302643989338,-30.028275672469704,-12.065107758213973,9.200304978318588
0.193,9.40598997894678,9.983178036264384,4.137322299746407,-2.776896472036443,-17.04749687326168,-30.072348223558865,-12.226288456952844,8.997644845840256
0.194,9.369334976347407,10.032990947399004,4.19286009021473,-2.691866317461317,-16.97969110253402,-30.116420774648027,-12.387469155691715,8.794984713361927
0.195,9.332679973748032,10.082803858533623,4.248397880683053,-2.6068361628861907,-16.91188533180636,-30.160493325737193,-12.548649854430588,8.592324580883595
0.196,9.29602497114866,10.132616769668243,4.303935671151376,-2.5218060083110645,-16.8440795610787,-30.204565876826354,-12.70983055316946,8.389664448405266
0.197,9.259369968549285,10.182429680802864,4.359473461619699,-2.436775853735938,-16.77627379035104,-30.248638427915516,-12.871011251908332,8.187004315926934
0.198,9.222714965949912,10.232242591937483,4.415011252088022,-2.3517456991608117,-16.708468019623382,-30.29271097900468,-13.032191950647203,7.984344183448604
0.199,9.186059963350537,10.282055503072103,4.470549042556345,-2.2667155445856855,-16.640662248895726,-30.336783530093843,-13.193372649386076,7.781684050970274
0.2,9.149404960751164,10.331868414206722,4.526086833024668,-2.1816853900105593,-16.572856478168067,-30.380856081183005,-13.354553348124949,7.579023918491943
0.201,9.11274995815179,10.381681325341344,4.581624623492991,-2.096655235435433,-16.505050707440407,-30.42492863227217,-13.51573404686382,7.376363786013613
0.202,9.076094955552417,10.431494236475963,4.637162413961314,-2.011625080860307,-16.437244936712748,-30.469001183361332,-13.67691474560269,7.1737036535352825
0.203,9.039439952953042,10.481307147610583,4.692700204429637,-1.9265949262851807,-16.36943916598509,-30.513073734450494,-13.838095444341562,6.971043521056952
0.20400000000000001,9.00278495035367,10.531120058745202,4.74823799489796,-1.8415647717100545,-16.30163339525743,-30.55714628553966,-13.999276143080435,6.768383388578622
0.20500000000000002,8.966129947754297,10.580932969879822,4.803775785366283,-1.7565346171349283,-16.23382762452977,-30.60121883662882,-14.160456841819308,6.565723256100291
0.20600000000000002,8.929474945154922,10.630745881014441,4.859313575834606,-1.6715044625598017,-16.16602185380211,-30.645291387717982,-14.321637540558179,6.363063123621961
0.20700000000000002,8.892819942555548,10.680558792149062,4.914851366302929,-1.586474307984676,-16.09821608307445,-30.689363938807148,-14.48281823929705,6.160402991143631
0.20800000000000002,8.856164939956175,10.730371703283682,4.970389156771253,-1.5014441534095493,-16.030410312346792,-30.73343648989631,-14.64399893803592,5.9577428586653
0.209,8.819509937356802,10.7801846144183,5.025926947239574,-1.4164139988344253,-15.962604541619134,-30.77750904098547,-14.805179636774788,5.755082726186977
0.21,8.78285493475743,10.82999752555292,5.081464737707897,-1.3313838442592996,-15.894798770891475,-30.821581592074633,-14.966360335513663,5.552422593708647
0.211,8.742424044142052,10.867261720552742,5.13244907055898,-1.2455031400360332,-15.814170092233601,-30.84916583498645,-15.110977455889916,5.352509452077181
0.212,8.697797722397784,10.890582897625013,5.178374006057576,-1.1586773806481676,-15.719293738097713,-30.85842973547899,-15.237190600307706,5.155648522497793
0.213,8.653171400653516,10.913904074697284,5.224298941556172,-1.071851621260302,-15.624417383961825,-30.86769363597153,-15.363403744725497,4.958787592918403
0.214,8.608545078909248,10.937225251769553,5.270223877054767,-0.9850258618724361,-15.529541029825937,-30.876957536464072,-15.489616889143287,4.761926663339014
0.215,8.56391875716498,10.960546428841823,5.316148812553363,-0.8982001024845705,-15.43466467569005,-30.88622143695661,-15.615830033561076,4.565065733759624
0.216,8.519292435420713,10.983867605914094,5.362073748051959,-0.8113743430967046,-15.339788321554161,-30.895485337449152,-15.742043177978866,4.368204804180236
0.217,8.474666113676445,11.007188782986363,5.407998683550554,-0.724548583708839,-15.244911967418272,-30.904749237941694,-15.868256322396658,4.171343874600846
0.218,8.430039791932177,11.030509960058634,5.45392361904915,-0.6377228243209733,-15.150035613282384,-30.914013138434232,-15.994469466814447,3.974482945021457
0.219,8.38541347018791,11.053831137130903,5.499848554547746,-0.5508970649331075,-15.055159259146496,-30.923277038926773,-16.120682611232237,3.777622015442068
0.22,8.340787148443642,11.077152314203174,5.545773490046342,-0.4640713055452418,-14.960282905010608,-30.932540939419315,-16.246895755650026,3.5807610858626786
0.221,8.296160826699372,11.100473491275444,5.591698425544937,-0.37724554615737604,-14.86540655087472,-30.941804839911853,-16.373108900067816,3.3839001562832896
0.222,8.251534504955105,11.123794668347713,5.6376233610435325,-0.2904197867695104,-14.770530196738832,-30.951068740404395,-16.499322044485606,3.1870392267039
0.223,8.206908183210837,11.147115845419984,5.683548296542129,-0.20359402738164456,-14.675653842602944,-30.960332640896937,-16.6255351889034,2.990178297124511
0.224,8.16228186146657,11.170437022492253,5.729473232040724,-0.11676826799377893,-14.580777488467055,-30.969596541389475,-16.75174833332119,2.793317367545122
0.225,8.117655539722302,11.193758199564524,5.77539816753932,-0.0299425086059133,-14.485901134331167,-30.978860441882016,-16.877961477738978,2.5964564379657324
0.226,8.073029217978034,11.217079376636795,5.821323103037916,0.056883250781952555,-14.391024780195279,-30.988124342374558,-17.004174622156768,2.3995955083863434
0.227,8.028402896233766,11.240400553709064,5.867248038536511,0.14370901016981819,-14.296148426059391,-30.9973882428671,-17.130387766574557,2.202734578806954
0.228,7.9837765744894975,11.263721730781334,5.913172974035107,0.23053476955768404,-14.201272071923503,-31.006652143359638,-17.256600910992347,2.005873649227565
0.229,7.93915025274523,11.287042907853603,5.959097909533702,0.31736052894554967,-14.106395717787613,-31.01591604385218,-17.382814055410137,1.8090127196481758
0.23,7.894523931000962,11.310364084925874,6.005022845032299,0.4041862883334155,-14.011519363651725,-31.02517994434472,-17.509027199827926,1.6121517900687863
0.231,7.849897609256694,11.333685261998145,6.050947780530894,0.49101204772128115,-13.916643009515838,-31.03444384483726,-17.635240344245716,1.4152908604893968
0.232,7.805271287512426,11.357006439070414,6.096872716029489,0.5778378071091468,-13.82176665537995,-31.0437077453298,-17.76145348866351,1.2184299309100082
0.233,7.760644965768158,11.380327616142685,6.1427976515280855,0.6646635664970126,-13.726890301244062,-31.052971645822343,-17.8876666330813,1.0215690013306187
0.234,7.71601864402389,11.403648793214956,6.188722587026681,0.7514893258848785,-13.632013947108174,-31.06223554631488,-18.01387977749909,0.8247080717512292
0.23500000000000001,7.6713923222796225,11.426969970287224,6.234647522525277,0.8383150852727441,-13.537137592972286,-31.071499446807422,-18.140092921916878,0.6278471421718406
0.23600000000000002,7.626766000535355,11.450291147359495,6.280572458023872,0.9251408446606098,-13.442261238836396,-31.080763347299964,-18.266306066334668,0.43098621259245107
0.23700000000000002,7.582139678791087,11.473612324431764,6.326497393522468,1.0119666040484754,-13.347384884700508,-31.090027247792502,-18.392519210752457,0.23412528301306157
0.23800000000000002,7.5375133570468185,11.496933501504035,6.372422329021064,1.098792363436341,-13.25250853056462,-31.099291148285044,-18.51873235517025,0.03726435343367296
0.23900000000000002,7.492887035302551,11.520254678576306,6.41834726451966,1.185618122824207,-13.157632176428733,-31.108555048777585,-18.64494549958804,-0.15959657614571654
0.24,7.448260713558284,11.543575855648575,6.464272200018254,1.27244388221207,-13.062755822292846,-31.117818949270124,-18.771158644005826,-0.3564575057251007
0.241,7.403634391814016,11.566897032720844,6.51019713551685,1.3592696415999361,-12.967879468156958,-31.127082849762665,-18.897371788423616,-0.5533184353044893
0.242,7.359008070069748,11.590218209793115,6.556122071015445,1.4460954009878018,-12.87300311402107,-31.136346750255207,-19.023584932841406,-0.7501793648838788
0.243,7.314381748325481,11.613539386865385,6.6020470065140415,1.5329211603756674,-12.778126759885183,-31.145610650747745,-19.149798077259195,-0.9470402944632683
0.244,7.269755426581212,11.636860563937654,6.647971942012637,1.619746919763533,-12.683250405749295,-31.154874551240287,-19.276011221676985,-1.143901224042657
0.245,7.225129104836944,11.660181741009925,6.693896877511232,1.7065726791513987,-12.588374051613405,-31.16413845173283,-19.402224366094774,-1.3407621536220464
0.246,7.180502783092677,11.683502918082194,6.739821813009828,1.7933984385392647,-12.493497697477517,-31.17340235222537,-19.528437510512568,-1.537623083201436
0.247,7.135876461348409,11.706824095154465,6.785746748508424,1.8802241979271304,-12.39862134334163,-31.182666252717908,-19.654650654930357,-1.7344840127808245
0.248,7.09125013960414,11.730145272226736,6.83167168400702,1.967049957314996,-12.303744989205741,-31.19193015321045,-19.780863799348147,-1.931344942360214
0.249,7.046623817859873,11.753466449299005,6.877596619505615,2.0538757167028616,-12.208868635069852,-31.20119405370299,-19.907076943765937,-2.1282058719396035
0.25,7.001997496115605,11.776787626371275,6.923521555004211,2.1407014760907273,-12.113992280933964,-31.21045795419553,-20.033290088183726,-2.325066801518993
0.251,6.957371174371337,11.800108803443546,6.969446490502807,2.2275272354785933,-12.019115926798076,-31.21972185468807,-20.159503232601516,-2.5219277310983816
0.252,6.912744852627069,11.823429980515815,7.015371426001403,2.314352994866459,-11.924239572662188,-31.228985755180613,-20.285716377019305,-2.7187886606777703
0.253,6.868118530882802,11.846751157588086,7.061296361499998,2.4011787542543246,-11.8293632185263,-31.23824965567315,-20.411929521437095,-2.9156495902571606
0.254,6.823492209138533,11.870072334660355,7.107221296998594,2.48800451364219,-11.734486864390412,-31.247513556165693,-20.538142665854885,-3.1125105198365492
0.255,6.778865887394265,11.893393511732626,7.153146232497189,2.574830273030056,-11.639610510254524,-31.256777456658234,-20.664355810272678,-3.3093714494159396
0.256,6.734239565649998,11.916714688804896,7.199071167995785,2.661656032417922,-11.544734156118636,-31.266041357150772,-20.790568954690468,-3.5062323789953282
0.257,6.689613243905729,11.940035865877165,7.2449961034943815,2.748481791805787,-11.449857801982748,-31.275305257643314,-20.916782099108257,-3.703093308574717
0.258,6.644986922161461,11.963357042949436,7.290921038992977,2.8353075511936536,-11.354981447846859,-31.284569158135856,-21.042995243526047,-3.8999542381541072
0.259,6.6003606004171935,11.986678220021705,7.336845974491572,2.9221333105815193,-11.26010509371097,-31.293833058628394,-21.169208387943836,-4.096815167733496
0.26,6.555734278672926,12.009999397093976,7.3827709099901675,3.008959069969385,-11.165228739575083,-31.303096959120936,-21.295421532361626,-4.2936760973128845
0.261,6.511107956928658,12.033320574166247,7.428695845488764,3.0957848293572505,-11.070352385439193,-31.312360859613477,-21.42163467677942,-4.490537026892275
0.262,6.46648163518439,12.056641751238516,7.47462078098736,3.182610588745116,-10.975476031303305,-31.32162476010602,-21.54784782119721,-4.6873979564716635
0.263,6.421855313440123,12.079962928310787,7.520545716485955,3.269436348132982,-10.880599677167417,-31.330888660598557,-21.674060965615,-4.884258886051052
0.264,6.37487183400897,12.100675898666925,7.565392271385878,3.3364518828070144,-10.753312852415704,-31.300916843010835,-21.74852351180921,-5.093148192879485
0.265,6.327446387511529,12.120899830263788,7.61003662992355,3.3997530003472036,-10.619949064423524,-31.263588328283067,-21.81328282083651,-5.304292820442113
0.266,6.280020941014087,12.141123761860651,7.654680988461222,3.463054117887393,-10.486585276431343,-31.2262598135553,-21.878042129863804,-5.51543744800474
0.267,6.232595494516644,12.161347693457515,7.699325346998894,3.526355235427582,-10.353221488439164,-31.18893129882753,-21.9428014388911,-5.726582075567368
0.268,6.185170048019202,12.181571625054378,7.743969705536566,3.589656352967771,-10.219857700446983,-31.15160278409976,-22.007560747918397,-5.937726703129996
0.269,6.13774460152176,12.201795556651241,7.788614064074237,3.65295747050796,-10.086493912454804,-31.114274269371993,-22.072320056945692,-6.148871330692623
0.27,6.090319155024318,12.222019488248105,7.833258422611909,3.716258588048149,-9.953130124462623,-31.07694575464422,-22.137079365972987,-6.36001595825525
0.271,6.042893708526876,12.242243419844968,7.877902781149581,3.7795597055883383,-9.819766336470444,-31.039617239916453,-22.201838675000285,-6.571160585817878
0.272,5.9954682620294335,12.262467351441833,7.922547139687253,3.8428608231285275,-9.686402548478263,-31.002288725188684,-22.26659798402758,-6.782305213380505
0.273,5.948042815531991,12.282691283038696,7.967191498224925,3.9061619406687162,-9.553038760486084,-30.964960210460916,-22.331357293054875,-6.993449840943133
0.274,5.900617369034549,12.30291521463556,8.011835856762596,3.9694630582089054,-9.419674972493903,-30.927631695733147,-22.396116602082174,-7.204594468505761
0.275,5.853191922537107,12.323139146232423,8.056480215300269,4.032764175749095,-9.286311184501724,-30.89030318100538,-22.46087591110947,-7.415739096068388
0.276,5.805766476039665,12.343363077829286,8.101124573837941,4.096065293289284,-9.152947396509543,-30.852974666277607,-22.525635220136763,-7.626883723631016
0.277,5.758341029542223,12.36358700942615,8.145768932375612,4.159366410829473,-9.019583608517362,-30.81564615154984,-22.59039452916406,-7.838028351193643
0.278,5.71091558304478,12.383810941023013,8.190413290913284,4.222667528369662,-8.886219820525183,-30.77831763682207,-22.655153838191357,-8.049172978756271
0.279,5.663490136547338,12.404034872619876,8.235057649450956,4.2859686459098505,-8.752856032533003,-30.7409891220943,-22.71991314721865,-8.260317606318898
0.28,5.616064690049897,12.42425880421674,8.279702007988629,4.349269763450041,-8.619492244540822,-30.703660607366533,-22.78467245624595,-8.471462233881525
0.281,5.568639243552455,12.444482735813603,8.3243463665263,4.412570880990229,-8.486128456548641,-30.666332092638765,-22.849431765273245,-8.682606861444153
0.28200000000000003,5.521213797055013,12.464706667410466,8.368990725063972,4.475871998530418,-8.352764668556462,-30.629003577910993,-22.91419107430054,-8.893751489006782
0.28300000000000003,5.47378835055757,12.48493059900733,8.413635083601644,4.539173116070607,-8.219400880564281,-30.591675063183224,-22.978950383327838,-9.104896116569408
0.28400000000000003,5.426362904060128,12.505154530604194,8.458279442139316,4.602474233610796,-8.086037092572102,-30.554346548455456,-23.043709692355133,-9.316040744132035
0.28500000000000003,5.378937457562686,12.525378462201058,8.502923800676987,4.665775351150986,-7.952673304579921,-30.517018033727688,-23.108469001382428,-9.527185371694664
0.28600000000000003,5.331512011065244,12.545602393797921,8.54756815921466,4.729076468691175,-7.819309516587742,-30.47968951899992,-23.173228310409726,-9.73832999925729
0.28700000000000003,5.284086564567802,12.565826325394784,8.592212517752332,4.792377586231364,-7.685945728595561,-30.44236100427215,-23.23798761943702,-9.949474626819917
0.28800000000000003,5.2366611180703595,12.586050256991648,8.636856876290004,4.855678703771553,-7.552581940603382,-30.40503248954438,-23.302746928464316,-10.160619254382546
0.289,5.18923567157292,12.60627418858851,8.681501234827673,4.918979821311739,-7.419218152611208,-30.367703974816614,-23.36750623749161,-10.371763881945162
0.29,5.141810225075478,12.626498120185373,8.726145593365345,4.982280938851927,-7.285854364619029,-30.330375460088845,-23.432265546518906,-10.582908509507789
0.291,5.094384778578036,12.646722051782238,8.770789951903016,5.045582056392117,-7.152490576626848,-30.293046945361077,-23.4970248555462,-10.794053137070417
0.292,5.046959332080593,12.666945983379101,8.815434310440688,5.1088831739323055,-7.019126788634669,-30.255718430633305,-23.561784164573496,-11.005197764633044
0.293,4.999533885583151,12.687169914975964,8.86007866897836,5.172184291472495,-6.885763000642488,-30.218389915905536,-23.626543473600794,-11.21634239219567
0.294,4.952108439085709,12.707393846572828,8.904723027516031,5.235485409012684,-6.7523992126503085,-30.181061401177768,-23.69130278262809,-11.4274870197583
0.295,4.904682992588268,12.72761777816969,8.949367386053703,5.298786526552873,-6.6190354246581276,-30.14373288645,-23.756062091655387,-11.638631647320928
0.296,4.857257546090826,12.747841709766554,8.994011744591376,5.362087644093062,-6.4856716366659475,-30.10640437172223,-23.820821400682682,-11.849776274883554
0.297,4.809832099593383,12.768065641363417,9.038656103129048,5.4253887616332515,-6.352307848673767,-30.06907585699446,-23.885580709709977,-12.060920902446181
0.298,4.762406653095941,12.78828957296028,9.083300461666719,5.488689879173441,-6.218944060681587,-30.03174734226669,-23.950340018737272,-12.27206553000881
0.299,4.714981206598499,12.808513504557144,9.127944820204391,5.551990996713629,-6.085580272689407,-29.994418827538922,-24.01509932776457,-12.483210157571436
0.3,4.667555760101057,12.828737436154007,9.172589178742063,5.615292114253819,-5.952216484697227,-29.957090312811154,-24.079858636791865,-12.694354785134063
0.301,4.620130313603615,12.84896136775087,9.217233537279736,5.678593231794007,-5.818852696705047,-29.919761798083385,-24.144617945819164,-12.905499412696692
0.302,4.5727048671061725,12.869185299347734,9.261877895817406,5.7418943493341965,-5.685488908712867,-29.882433283355617,-24.20937725484646,-13.11664404025932
0.303,4.52527942060873,12.889409230944597,9.306522254355079,5.805195466874386,-5.552125120720687,-29.84510476862785,-24.274136563873753,-13.327788667821945
0.304,4.477853974111288,12.909633162541462,9.35116661289275,5.868496584414575,-5.418761332728507,-29.807776253900077,-24.33889587290105,-13.538933295384574
0.305,4.430428527613847,12.929857094138326,9.395810971430423,5.931797701954764,-5.285397544736327,-29.770447739172308,-24.403655181928347,-13.750077922947202
0.306,4.383003081116405,12.950081025735189,9.440455329968094,5.995098819494953,-5.152033756744147,-29.73311922444454,-24.46841449095564,-13.96122255050983
0.307,4.3355776346189625,12.970304957332052,9.485099688505766,6.0583999370351425,-5.018669968751967,-29.69579070971677,-24.533173799982936,-14.172367178072456
0.308,4.28815218812152,12.990528888928916,9.529744047043438,6.121701054575331,-4.885306180759787,-29.658462194989003,-24.597933109010235,-14.383511805635084
0.309,4.240726741624078,13.010752820525779,9.57438840558111,6.185002172115521,-4.7519423927676065,-29.621133680261234,-24.66269241803753,-14.594656433197713
0.31,4.193301295126636,13.030976752122642,9.619032764118781,6.248303289655709,-4.6185786047754265,-29.583805165533462,-24.727451727064825,-14.805801060760338
0.311,4.145875848629194,13.051200683719506,9.663677122656454,6.311604407195899,-4.485214816783246,-29.546476650805694,-24.792211036092123,-15.016945688322966
0.312,4.098450402131752,13.071424615316369,9.708321481194126,6.3749055247360875,-4.351851028791066,-29.509148136077926,-24.856970345119418,-15.228090315885595
0.313,4.051024955634309,13.091648546913232,9.752965839731797,6.438206642276277,-4.218487240798886,-29.471819621350157,-24.921729654146713,-15.439234943448223
0.314,4.003599509136867,13.111872478510096,9.797610198269469,6.501507759816466,-4.085123452806706,-29.43449110662239,-24.98648896317401,-15.650379571010848
0.315,3.956174062639425,13.13209641010696,9.842254556807141,6.564808877356655,-3.951759664814526,-29.39716259189462,-25.051248272201306,-15.861524198573477
0.316,3.90255904132326,13.148374402874042,9.88498589171273,6.627742005488774,-3.8157052940288176,-29.346629862066703,-25.116256222464063,-16.057820367455292
0.317,3.8257331144368845,13.149855125029443,9.920543387998018,6.689295173340632,-3.6695612377673807,-29.24658132561325,-25.1821965773598,-16.19843481628406
0.318,3.7489071875505093,13.151335847184846,9.956100884283304,6.75084834119249,-3.5234171815059443,-29.146532789159796,-25.248136932255537,-16.339049265112827
0.319,3.6720812606641338,13.152816569340247,9.99165838056859,6.8124015090443475,-3.3772731252445074,-29.046484252706342,-25.31407728715127,-16.479663713941598
0.32,3.5952553337777586,13.15429729149565,10.027215876853875,6.873954676896205,-3.2311290689830705,-28.94643571625289,-25.380017642047008,-16.620278162770365
0.321,3.518429406891383,13.155778013651052,10.06277337313916,6.935507844748063,-3.084985012721634,-28.846387179799436,-25.445957996942745,-16.760892611599136
0.322,3.441603480005008,13.157258735806455,10.098330869424446,6.9970610125999215,-2.938840956460197,-28.746338643345982,-25.51189835183848,-16.901507060427903
0.323,3.364777553118633,13.158739457961856,10.133888365709733,7.058614180451779,-2.7926969001987603,-28.646290106892526,-25.577838706734216,-17.04212150925667
0.324,3.2879516262322572,13.160220180117259,10.169445861995019,7.120167348303637,-2.6465528439373234,-28.546241570439072,-25.643779061629953,-17.18273595808544
0.325,3.211125699345882,13.161700902272662,10.205003358280305,7.181720516155495,-2.5004087876758865,-28.44619303398562,-25.70971941652569,-17.32335040691421
0.326,3.1342997724595065,13.163181624428063,10.24056085456559,7.243273684007352,-2.3542647314144496,-28.346144497532165,-25.775659771421424,-17.463964855742976
0.327,3.0574738455731314,13.164662346583466,10.276118350850876,7.30482685185921,-2.208120675153013,-28.246095961078712,-25.84160012631716,-17.604579304571747
0.328,2.9806479186867563,13.166143068738867,10.311675847136161,7.366380019711068,-2.0619766188915767,-28.14604742462526,-25.907540481212898,-17.745193753400514
0.329,2.9038219918003807,13.16762379089427,10.347233343421447,7.4279331875629255,-1.9158325626301396,-28.045998888171805,-25.973480836108635,-17.885808202229285
0.33,2.8269960649140056,13.169104513049671,10.382790839706734,7.489486355414783,-1.769688506368703,-27.94595035171835,-26.03942119100437,-18.026422651058052
0.331,2.75017013802763,13.170585235205074,10.41834833599202,7.551039523266641,-1.623544450107266,-27.845901815264895,-26.105361545900106,-18.16703709988682
0.332,2.673344211141255,13.172065957360475,10.453905832277306,7.612592691118499,-1.477400393845829,-27.745853278811442,-26.171301900795843,-18.30765154871559
0.333,2.5965182842548797,13.173546679515878,10.489463328562591,7.674145858970357,-1.3312563375843927,-27.64580474235799,-26.237242255691577,-18.448265997544357
0.334,2.519692357368504,13.17502740167128,10.525020824847877,7.735699026822214,-1.1851122813229558,-27.545756205904535,-26.303182610587314,-18.588880446373125
0.335,2.442866430482129,13.176508123826682,10.560578321133162,7.797252194674073,-1.0389682250615189,-27.44570766945108,-26.36912296548305,-18.729494895201896
0.336,2.3660405035957535,13.177988845982084,10.59613581741845,7.85880536252593,-0.892824168800082,-27.34565913299763,-26.435063320378788,-18.870109344030663
0.337,2.2892145767093783,13.179469568137486,10.631693313703735,7.920358530377788,-0.7466801125386455,-27.245610596544175,-26.50100367527452,-19.010723792859434
0.338,2.212388649823003,13.18095029029289,10.66725080998902,7.981911698229646,-0.6005360562772086,-27.145562060090718,-26.56694403017026,-19.1513382416882
0.339,2.1355627229366276,13.18243101244829,10.702808306274306,8.043464866081504,-0.45439200001577174,-27.045513523637265,-26.632884385065996,-19.29195269051697
0.34,2.058736796050252,13.183911734603694,10.738365802559592,8.105018033933362,-0.30824794375433484,-26.94546498718381,-26.698824739961733,-19.43256713934574
0.341,1.9819108691638772,13.185392456759095,10.773923298844878,8.166571201785219,-0.1621038874928984,-26.845416450730358,-26.764765094857466,-19.573181588174506
0.342,1.9050849422775018,13.186873178914498,10.809480795130163,8.228124369637078,-0.015959831231461497,-26.745367914276905,-26.830705449753204,-19.713796037003277
0.343,1.8282590153911262,13.188353901069899,10.84503829141545,8.289677537488934,0.1301842250299754,-26.64531937782345,-26.89664580464894,-19.854410485832044
0.34400000000000003,1.751433088504751,13.189834623225302,10.880595787700736,8.351230705340793,0.27632828129141185,-26.545270841369998,-26.962586159544674,-19.99502493466081
0.34500000000000003,1.674607161618376,13.191315345380703,10.916153283986022,8.41278387319265,0.42247233755284874,-26.44522230491654,-27.02852651444041,-20.135639383489583
0.34600000000000003,1.5977812347320004,13.192796067536106,10.951710780271307,8.474337041044508,0.5686163938142856,-26.345173768463088,-27.09446686933615,-20.27625383231835
0.34700000000000003,1.5209553078456253,13.194276789691507,10.987268276556593,8.535890208896365,0.7147604500757225,-26.245125232009634,-27.160407224231886,-20.416868281147117
0.34800000000000003,1.4441293809592497,13.19575751184691,11.022825772841879,8.597443376748224,0.8609045063371594,-26.14507669555618,-27.22634757912762,-20.557482729975888
0.34900000000000003,1.3673034540728746,13.197238234002313,11.058383269127166,8.658996544600083,1.0070485625985963,-26.045028159102728,-27.292287934023356,-20.698097178804655
0.35000000000000003,1.2904775271864994,13.198718956157714,11.093940765412452,8.72054971245194,1.1531926188600323,-25.944979622649274,-27.358228288919094,-20.838711627633423
0.35100000000000003,1.2136516003001239,13.200199678313117,11.129498261697737,8.782102880303796,1.2993366751214692,-25.844931086195817,-27.42416864381483,-20.979326076462193
0.352,1.1368256734137527,13.201680400468518,11.165055757983021,8.843656048155651,1.4454807313828981,-25.74488254974237,-27.49010899871056,-21.119940525290954
0.353,1.0599997465273776,13.203161122623921,11.200613254268307,8.90520921600751,1.591624787644335,-25.644834013288918,-27.556049353606298,-21.26055497411972
0.354,0.9831738196410025,13.204641844779323,11.236170750553592,8.966762383859367,1.737768843905772,-25.544785476835465,-27.621989708502035,-21.40116942294849
0.355,0.9063478927546269,13.206122566934726,11.271728246838878,9.028315551711225,1.8839129001672088,-25.444736940382008,-27.687930063397772,-21.54178387177726
0.356,0.8295219658682518,13.207603289090127,11.307285743124165,9.089868719563082,2.030056956428645,-25.344688403928554,-27.753870418293506,-21.682398320606026
0.357,0.7526960389818762,13.20908401124553,11.34284323940945,9.15142188741494,2.1762010126900817,-25.2446398674751,-27.819810773189243,-21.823012769434797
0.358,0.6758701120955011,13.21056473340093,11.378400735694736,9.2129750552668,2.3223450689515186,-25.144591331021648,-27.88575112808498,-21.963627218263564
0.359,0.599044185209126,13.212045455556334,11.413958231980022,9.274528223118656,2.4684891252129555,-25.044542794568194,-27.951691482980713,-22.104241667092335
0.36,0.5222182583227504,13.213526177711735,11.449515728265308,9.336081390970513,2.6146331814743924,-24.94449425811474,-28.01763183787645,-22.244856115921102
0.361,0.44539233143637524,13.215006899867138,11.485073224550593,9.397634558822372,2.7607772377358293,-24.844445721661288,-28.083572192772188,-22.385470564749873
0.362,0.36856640454999967,13.21648762202254,11.520630720835879,9.45918772667423,2.906921293997266,-24.74439718520783,-28.149512547667925,-22.52608501357864
0.363,0.29174047766362454,13.217968344177942,11.556188217121164,9.520740894526087,3.053065350258703,-24.644348648754377,-28.21545290256366,-22.666699462407408
0.364,0.21491455077724897,13.219449066333345,11.591745713406452,9.582294062377946,3.199209406520139,-24.544300112300924,-28.281393257459396,-22.80731391123618
0.365,0.13808862389087384,13.220929788488746,11.627303209691737,9.643847230229802,3.345353462781576,-24.44425157584747,-28.347333612355133,-22.947928360064946
0.366,0.06126269700449871,13.22241051064415,11.662860705977023,9.705400398081661,3.491497519043013,-24.344203039394017,-28.413273967250866,-23.088542808893713
0.367,-0.015563229881876861,13.22389123279955,11.698418202262308,9.766953565933518,3.6376415753044498,-24.244154502940564,-28.479214322146603,-23.229157257722484
0.368,-0.09238915676825199,13.225371954954953,11.733975698547594,9.828506733785376,3.7837856315658867,-24.14410596648711,-28.54515467704234,-23.36977170655125
0.369,-0.1688849244669355,13.201773600294015,11.761434346350786,9.876773831999676,3.927043519164846,-24.000020242144597,-28.610303191935323,-23.45611021466802
0.37,-0.245140576392751,13.159935917039375,11.783002922530637,9.915378334113933,4.068202375009278,-23.823907472064587,-28.674875823189936,-23.502975311357876
0.371,-0.32139622831856646,13.118098233784735,11.804571498710485,9.95398283622819,4.20936123085371,-23.647794701984576,-28.739448454444553,-23.549840408047736
0.372,-0.39765188024438197,13.076260550530096,11.826140074890336,9.99258733834245,4.350520086698142,-23.471681931904566,-28.80402108569917,-23.596705504737592
0.373,-0.47390753217019743,13.034422867275456,11.847708651070185,10.031191840456707,4.491678942542575,-23.29556916182456,-28.868593716953782,-23.64357060142745
0.374,-0.5501631840960128,12.992585184020816,11.869277227250036,10.069796342570966,4.632837798387007,-23.11945639174455,-28.9331663482084,-23.69043569811731
0.375,-0.6264188360218284,12.950747500766177,11.890845803429885,10.108400844685223,4.773996654231439,-22.94334362166454,-28.997738979463012,-23.737300794807165
0.376,-0.7026744879476439,12.908909817511537,11.912414379609736,10.14700534679948,4.915155510075871,-22.767230851584532,-29.06231161071763,-23.784165891497025
0.377,-0.7789301398734594,12.867072134256897,11.933982955789586,10.185609848913739,5.056314365920303,-22.591118081504522,-29.126884241972245,-23.831030988186882
0.378,-0.8551857917992748,12.825234451002258,11.955551531969435,10.224214351027996,5.197473221764735,-22.415005311424512,-29.19145687322686,-23.877896084876742
0.379,-0.9314414437250903,12.783396767747618,11.977120108149286,10.262818853142255,5.338632077609168,-22.238892541344505,-29.256029504481475,-23.9247611815666
0.38,-1.0076970956509057,12.741559084492977,11.998688684329135,10.301423355256512,5.4797909334536,-22.062779771264495,-29.320602135736088,-23.97162627825646
0.381,-1.0839527475767214,12.699721401238337,12.020257260508986,10.34002785737077,5.620949789298032,-21.886667001184485,-29.385174766990705,-24.018491374946315
0.382,-1.1602083995025367,12.657883717983697,12.041825836688835,10.378632359485028,5.762108645142464,-21.710554231104474,-29.44974739824532,-24.065356471636175
0.383,-1.2364640514283523,12.616046034729058,12.063394412868686,10.417236861599285,5.903267500986896,-21.534441461024468,-29.514320029499935,-24.11222156832603
0.384,-1.3127197033541678,12.574208351474418,12.084962989048536,10.455841363713544,6.044426356831329,-21.358328690944457,-29.57889266075455,-24.15908666501589
0.385,-1.3889753552799833,12.532370668219778,12.106531565228385,10.494445865827801,6.185585212675761,-21.182215920864447,-29.643465292009164,-24.205951761705748
0.386,-1.4652310072057988,12.490532984965139,12.128100141408236,10.533050367942058,6.326744068520193,-21.00610315078444,-29.70803792326378,-24.252816858395608
0.387,-1.541486659131614,12.448695301710499,12.149668717588085,10.571654870056317,6.467902924364624,-20.82999038070443,-29.772610554518394,-24.299681955085465
0.388,-1.6177423110574296,12.40685761845586,12.171237293767936,10.610259372170574,6.609061780209057,-20.65387761062442,-29.83718318577301,-24.346547051775325
0.389,-1.6939979629832451,12.36501993520122,12.192805869947785,10.648863874284833,6.7502206360534895,-20.47776484054441,-29.901755817027627,-24.39341214846518
0.39,-1.7702536149090606,12.32318225194658,12.214374446127636,10.68746837639909,6.891379491897922,-20.301652070464403,-29.96632844828224,-24.440277245155038
0.391,-1.8465092668348762,12.28134456869194,12.235943022307486,10.726072878513348,7.032538347742354,-20.125539300384393,-30.030901079536857,-24.487142341844898
0.392,-1.9227649187606917,12.2395068854373,12.257511598487335,10.764677380627607,7.173697203586785,-19.949426530304386,-30.09547371079147,-24.534007438534754
0.393,-1.999020570686507,12.197669202182661,12.279080174667186,10.803281882741864,7.314856059431218,-19.773313760224376,-30.160046342046087,-24.580872535224614
0.394,-2.0752762226123225,12.155831518928021,12.300648750847035,10.841886384856123,7.4560149152756505,-19.597200990144366,-30.224618973300704,-24.62773763191447
0.395,-2.151531874538138,12.113993835673382,12.322217327026886,10.88049088697038,7.597173771120083,-19.421088220064355,-30.289191604555317,-24.67460272860433
0.396,-2.2277875264639535,12.072156152418742,12.343785903206735,10.919095389084637,7.738332626964515,-19.244975449984345,-30.353764235809933,-24.721467825294187
0.397,-2.304043178389769,12.030318469164103,12.365354479386585,10.957699891198896,7.879491482808946,-19.06886267990434,-30.418336867064546,-24.768332921984047
0.398,-2.3802988303155845,11.988480785909463,12.386923055566436,10.996304393313153,8.020650338653379,-18.892749909824328,-30.482909498319163,-24.815198018673904
0.399,-2.4565544822414,11.946643102654823,12.408491631746285,11.034908895427412,8.161809194497812,-18.71663713974432,-30.54748212957378,-24.862063115363764
0.4,-2.5328101341672156,11.904805419400184,12.430060207926136,11.073513397541669,8.302968050342244,-18.54052436966431,-30.612054760828393,-24.90892821205362
0.401,-2.609065786093031,11.862967736145544,12.451628784105985,11.112117899655926,8.444126906186675,-18.3644115995843,-30.67662739208301,-24.95579330874348
0.402,-2.6853214380188466,11.821130052890904,12.473197360285836,11.150722401770185,8.585285762031107,-18.18829882950429,-30.741200023337623,-25.002658405433337
0.403,-2.761577089944662,11.779292369636265,12.494765936465686,11.189326903884442,8.72644461787554,-18.012186059424284,-30.80577265459224,-25.049523502123197
0.404,-2.837832741870477,11.737454686381625,12.516334512645535,11.2279314059987,8.867603473719972,-17.836073289344274,-30.870345285846852,-25.096388598813054
0.405,-2.914088393796293,11.695617003126985,12.537903088825386,11.266535908112958,9.008762329564405,-17.659960519264263,-30.93491791710147,-25.143253695502914
0.406,-2.990344045722108,11.653779319872346,12.559471665005235,11.305140410227215,9.149921185408836,-17.483847749184257,-30.999490548356086,-25.19011879219277
0.40700000000000003,-3.066599697647924,11.611941636617706,12.581040241185086,11.343744912341474,9.291080041253268,-17.307734979104247,-31.0640631796107,-25.236983888882627
0.40800000000000003,-3.1428553495737392,11.570103953363066,12.602608817364935,11.382349414455732,9.432238897097701,-17.131622209024236,-31.128635810865315,-25.283848985572487
0.40900000000000003,-3.219111001499555,11.528266270108427,12.624177393544786,11.420953916569989,9.573397752942133,-16.955509438944226,-31.193208442119932,-25.330714082262343
0.41000000000000003,-3.2953666534253703,11.486428586853787,12.645745969724636,11.459558418684248,9.714556608786566,-16.77939666886422,-31.257781073374545,-25.377579178952203
0.41100000000000003,-3.3716223053511856,11.444590903599147,12.667314545904485,11.498162920798505,9.855715464630997,-16.60328389878421,-31.322353704629162,-25.42444427564206
0.41200000000000003,-3.4478779572770013,11.402753220344508,12.688883122084336,11.536767422912764,9.99687432047543,-16.427171128704202,-31.386926335883775,-25.47130937233192
0.41300000000000003,-3.5241336092028166,11.360915537089866,12.710451698264185,11.57537192502702,10.138033176319862,-16.251058358624192,-31.45149896713839,-25.518174469021776
0.41400000000000003,-3.6003892611286323,11.319077853835228,12.732020274444036,11.613976427141278,10.279192032164294,-16.074945588544182,-31.516071598393005,-25.565039565711636
0.41500000000000004,-3.6766449130544476,11.277240170580587,12.753588850623885,11.652580929255537,10.420350888008725,-15.898832818464173,-31.58064422964762,-25.611904662401493
0.41600000000000004,-3.752900564980263,11.235402487325949,12.775157426803736,11.691185431369794,10.561509743853158,-15.722720048384163,-31.645216860902238,-25.658769759091353
0.417,-3.829156216906074,11.193564804071311,12.796726002983585,11.72978993348405,10.702668599697583,-15.546607278304164,-31.709789492156848,-25.705634855781206
0.418,-3.90541186883189,11.151727120816672,12.818294579163434,11.768394435598308,10.843827455542014,-15.370494508224155,-31.774362123411464,-25.752499952471066
0.419,-3.9816675207577052,11.109889437562032,12.839863155343284,11.806998937712565,10.984986311386447,-15.194381738144147,-31.838934754666077,-25.799365049160922
0.42,-4.057923172683521,11.068051754307392,12.861431731523135,11.845603439826824,11.126145167230879,-15.018268968064136,-31.903507385920694,-25.846230145850782
0.421,-4.134178824609337,11.026214071052753,12.883000307702984,11.884207941941082,11.267304023075312,-14.842156197984128,-31.96808001717531,-25.89309524254064
0.422,-4.194447564387411,10.947505531366577,12.875670828215206,11.901122769564054,11.37413664041482,-14.648058827604226,-31.927765393191788,-25.943475988743533
0.423,-4.253828142379501,10.866748610767537,12.866735901190339,11.916832615270845,11.479062244504055,-14.452962312763221,-31.881623699472815,-25.994052048808257
0.424,-4.313208720371589,10.7859916901685,12.85780097416547,11.932542460977636,11.58398784859329,-14.257865797922216,-31.835482005753846,-26.044628108872985
0.425,-4.372589298363679,10.705234769569461,12.848866047140602,11.948252306684427,11.688913452682526,-14.062769283081211,-31.789340312034874,-26.095204168937713
0.426,-4.431969876355769,10.624477848970422,12.839931120115732,11.963962152391217,11.79383905677176,-13.867672768240206,-31.7431986183159,-26.145780229002437
0.427,-4.491350454347858,10.543720928371384,12.830996193090865,11.979671998098008,11.898764660860994,-13.672576253399201,-31.69705692459693,-26.196356289067165
0.428,-4.5507310323399475,10.462964007772346,12.822061266065996,11.995381843804799,12.00369026495023,-13.477479738558195,-31.650915230877956,-26.246932349131892
0.429,-4.610111610332036,10.382207087173306,12.813126339041128,12.01109168951159,12.108615869039465,-13.28238322371719,-31.604773537158984,-26.29750840919662
0.43,-4.669492188324126,10.301450166574268,12.804191412016259,12.02680153521838,12.2135414731287,-13.087286708876185,-31.558631843440015,-26.348084469261345
0.431,-4.728872766316215,10.220693245975228,12.795256484991391,12.04251138092517,12.318467077217935,-12.89219019403518,-31.512490149721042,-26.398660529326072
0.432,-4.788253344308305,10.13993632537619,12.786321557966524,12.05822122663196,12.42339268130717,-12.697093679194175,-31.46634845600207,-26.4492365893908
0.433,-4.8476339223003935,10.059179404777153,12.777386630941654,12.073931072338752,12.528318285396406,-12.50199716435317,-31.420206762283097,-26.499812649455524
0.434,-4.907014500292483,9.978422484178113,12.768451703916787,12.089640918045543,12.633243889485641,-12.306900649512166,-31.374065068564125,-26.550388709520252
0.435,-4.966395078284572,9.897665563579075,12.759516776891918,12.105350763752334,12.738169493574876,-12.11180413467116,-31.327923374845152,-26.60096476958498
0.436,-5.025775656276662,9.816908642980037,12.75058184986705,12.121060609459123,12.843095097664111,-11.916707619830154,-31.281781681126184,-26.651540829649704
0.437,-5.0851562342687515,9.736151722380997,12.74164692284218,12.136770455165914,12.948020701753347,-11.72161110498915,-31.23563998740721,-26.702116889714432
0.438,-5.14453681226084,9.65539480178196,12.732711995817313,12.152480300872705,13.052946305842582,-11.526514590148144,-31.18949829368824,-26.75269294977916
0.439,-5.20391739025293,9.574637881182921,12.723777068792444,12.168190146579496,13.157871909931817,-11.33141807530714,-31.143356599969266,-26.803269009843884
0.44,-5.263297968245019,9.493880960583882,12.714842141767576,12.183899992286285,13.262797514021052,-11.136321560466135,-31.097214906250294,-26.853845069908612
0.441,-5.322678546237109,9.413124039984844,12.705907214742709,12.199609837993076,13.367723118110288,-10.941225045625128,-31.05107321253132,-26.90442112997334
0.442,-5.3820591242291975,9.332367119385806,12.69697228771784,12.215319683699867,13.472648722199521,-10.746128530784123,-31.004931518812352,-26.954997190038064
0.443,-5.441439702221287,9.251610198786766,12.688037360692972,12.231029529406658,13.577574326288756,-10.551032015943118,-30.95878982509338,-27.005573250102792
0.444,-5.500820280213377,9.170853278187728,12.679102433668103,12.24673937511345,13.682499930377992,-10.355935501102113,-30.912648131374407,-27.05614931016752
0.445,-5.560200858205466,9.09009635758869,12.670167506643235,12.262449220820239,13.787425534467227,-10.160838986261108,-30.866506437655435,-27.106725370232244
0.446,-5.619581436197556,9.00933943698965,12.661232579618366,12.27815906652703,13.892351138556462,-9.965742471420103,-30.820364743936462,-27.15730143029697
0.447,-5.678962014189644,8.928582516390613,12.652297652593498,12.29386891223382,13.997276742645697,-9.770645956579099,-30.77422305021749,-27.2078774903617
0.448,-5.738342592181734,8.847825595791573,12.643362725568629,12.309578757940612,14.102202346734932,-9.575549441738094,-30.72808135649852,-27.258453550426424
0.449,-5.797723170173823,8.767068675192535,12.634427798543761,12.325288603647403,14.207127950824168,-9.380452926897089,-30.68193966277955,-27.30902961049115
0.45,-5.857103748165913,8.686311754593497,12.625492871518894,12.340998449354192,14.312053554913403,-9.185356412056084,-30.635797969060576,-27.35960567055588
0.451,-5.9164843261580025,8.605554833994457,12.616557944494025,12.356708295060983,14.416979159002638,-8.990259897215077,-30.589656275341603,-27.410181730620607
0.452,-5.975864904150091,8.52479791339542,12.607623017469157,12.372418140767774,14.521904763091872,-8.795163382374072,-30.54351458162263,-27.46075779068533
0.453,-6.035245482142181,8.444040992796381,12.598688090444288,12.388127986474565,14.626830367181107,-8.600066867533068,-30.49737288790366,-27.51133385075006
0.454,-6.09462606013427,8.363284072197342,12.58975316341942,12.403837832181356,14.731755971270342,-8.404970352692061,-30.45123119418469,-27.561909910814787
0.455,-6.15400663812636,8.282527151598304,12.58081823639455,12.419547677888145,14.836681575359577,-8.209873837851056,-30.405089500465717,-27.61248597087951
0.456,-6.2133872161184485,8.201770230999266,12.571883309369683,12.435257523594936,14.941607179448813,-8.014777323010051,-30.358947806746745,-27.66306203094424
0.457,-6.272767794110538,8.121013310400226,12.562948382344816,12.450967369301727,15.046532783538048,-7.819680808169047,-30.312806113027772,-27.713638091008967
0.458,-6.332148372102628,8.040256389801188,12.554013455319947,12.466677215008518,15.151458387627283,-7.624584293328041,-30.2666644193088,-27.76421415107369
0.459,-6.391528950094717,7.95949946920215,12.545078528295079,12.48238706071531,15.256383991716518,-7.429487778487037,-30.22052272558983,-27.81479021113842
0.46,-6.450909528086806,7.878742548603111,12.53614360127021,12.498096906422099,15.361309595805754,-7.234391263646032,-30.17438103187086,-27.865366271203147
0.461,-6.510290106078895,7.7979856280040725,12.527208674245342,12.51380675212889,15.466235199894989,-7.039294748805026,-30.128239338151886,-27.91594233126787
0.462,-6.569670684070985,7.7172287074050345,12.518273747220473,12.52951659783568,15.571160803984224,-6.844198233964021,-30.082097644432913,-27.9665183913326
0.463,-6.629051262063074,7.636471786805996,12.509338820195605,12.545226443542472,15.67608640807346,-6.649101719123015,-30.03595595071394,-28.017094451397327
0.464,-6.688431840055164,7.555714866206957,12.500403893170736,12.560936289249263,15.781012012162694,-6.45400520428201,-29.98981425699497,-28.067670511462055
0.465,-6.747812418047253,7.474957945607919,12.491468966145868,12.576646134956052,15.88593761625193,-6.2589086894410055,-29.943672563275996,-28.11824657152678
0.466,-6.807192996039342,7.39420102500888,12.482534039121001,12.592355980662843,15.990863220341165,-6.063812174600001,-29.897530869557027,-28.168822631591507
0.467,-6.866573574031431,7.313444104409841,12.473599112096132,12.608065826369634,16.0957888244304,-5.868715659758996,-29.851389175838055,-28.21939869165623
0.468,-6.925954152023521,7.232687183810803,12.464664185071264,12.623775672076425,16.200714428519635,-5.673619144917991,-29.805247482119082,-28.26997475172096
0.46900000000000003,-6.985334730015611,7.151930263211764,12.455729258046395,12.639485517783216,16.30564003260887,-5.478522630076986,-29.75910578840011,-28.320550811785687
0.47000000000000003,-7.044715308007699,7.071173342612726,12.446794331021527,12.655195363490005,16.410565636698102,-5.283426115235979,-29.712964094681137,-28.371126871850414
0.47100000000000003,-7.104095885999789,6.990416422013687,12.437859403996658,12.670905209196796,16.51549124078734,-5.0883296003949745,-29.666822400962168,-28.42170293191514
0.47200000000000003,-7.163476463991879,6.909659501414649,12.42892447697179,12.686615054903587,16.620416844876573,-4.89323308555397,-29.620680707243196,-28.472278991979866
0.47300000000000003,-7.222857041983968,6.82890258081561,12.419989549946923,12.702324900610378,16.72534244896581,-4.698136570712965,-29.574539013524223,-28.522855052044594
0.47400000000000003,-7.2779031732423265,6.75413827575714,12.399834254073227,12.712180457507946,16.81815680554297,-4.498125927385362,-29.50112979049968,-28.568002655947765
0.47500000000000003,-7.323558003244273,6.692357971036565,12.355368159027083,12.709351721985538,16.884730125843976,-4.287468005670133,-29.368640920646403,-28.601388604834234
0.47600000000000003,-7.369212833246219,6.6305776663159905,12.310902063980938,12.70652298646313,16.95130344614498,-4.0768100839549035,-29.23615205079313,-28.634774553720703
0.47700000000000004,-7.414867663248164,6.568797361595416,12.266435968934793,12.703694250940721,17.017876766445987,-3.8661521622396746,-29.103663180939858,-28.668160502607176
0.47800000000000004,-7.46052249325011,6.507017056874841,12.221969873888648,12.700865515418313,17.08445008674699,-3.6554942405244457,-28.971174311086585,-28.701546451493645
0.47900000000000004,-7.506177323252056,6.445236752154266,12.177503778842505,12.698036779895903,17.151023407047997,-3.4448363188092164,-28.838685441233313,-28.734932400380114
0.48,-7.551832153254,6.383456447433695,12.133037683796362,12.695208044373494,17.217596727348997,-3.234178397093999,-28.706196571380048,-28.768318349266583
0.481,-7.597486983255946,6.3216761427131205,12.088571588750217,12.692379308851086,17.284170047650004,-3.0235204753787697,-28.57370770152677,-28.801704298153055
0.482,-7.643141813257891,6.259895837992546,12.044105493704073,12.689550573328678,17.350743367951008,-2.8128625536635408,-28.4412188316735,-28.835090247039524
0.483,-7.688796643259837,6.198115533271971,11.999639398657928,12.68672183780627,17.417316688252015,-2.6022046319483114,-28.308729961820227,-28.868476195925993
0.484,-7.7344514732617835,6.136335228551396,11.955173303611783,12.68389310228386,17.48389000855302,-2.391546710233082,-28.176241091966954,-28.901862144812466
0.485,-7.78010630326373,6.074554923830822,11.910707208565638,12.68106436676145,17.550463328854025,-2.180888788517853,-28.04375222211368,-28.935248093698934
0.486,-7.825761133265675,6.012774619110247,11.866241113519495,12.678235631239042,17.61703664915503,-1.9702308668026238,-27.911263352260406,-28.968634042585403
0.487,-7.871415963267621,5.950994314389671,11.82177501847335,12.675406895716634,17.683609969456036,-1.759572945087395,-27.778774482407133,-29.002019991471876
0.488,-7.917070793269567,5.889214009669097,11.777308923427205,12.672578160194226,17.75018328975704,-1.5489150233721656,-27.64628561255386,-29.035405940358345
0.489,-7.962725623271513,5.827433704948522,11.73284282838106,12.669749424671817,17.816756610058047,-1.3382571016569362,-27.51379674270059,-29.068791889244814
0.49,-8.008380453273459,5.765653400227947,11.688376733334914,12.666920689149409,17.88332993035905,-1.1275991799417073,-27.381307872847316,-29.102177838131286
0.491,-8.054035283275406,5.703873095507372,11.643910638288771,12.664091953626999,17.949903250660057,-0.916941258226478,-27.24881900299404,-29.135563787017755
0.492,-8.099690113277351,5.642092790786798,11.599444543242626,12.66126321810459,18.01647657096106,-0.7062833365112491,-27.116330133140767,-29.168949735904224
0.493,-8.145344943279296,5.580312486066223,11.554978448196481,12.658434482582182,18.083049891262068,-0.4956254147960202,-26.983841263287495,-29.202335684790697
0.494,-8.190999773281243,5.518532181345648,11.510512353150336,12.655605747059774,18.14962321156307,-0.2849674930807904,-26.851352393434222,-29.235721633677166
0.495,-8.236654603283188,5.4567518766250735,11.466046258104193,12.652777011537365,18.216196531864078,-0.07430957136556149,-26.71886352358095,-29.269107582563635
0.496,-8.282309433285134,5.394971571904499,11.421580163058048,12.649948276014957,18.28276985216508,0.1363483503496674,-26.586374653727677,-29.302493531450107
0.497,-8.32796426328708,5.333191267183924,11.377114068011903,12.647119540492547,18.34934317246609,0.3470062720648972,-26.453885783874405,-29.335879480336576
0.498,-8.373619093289026,5.271410962463349,11.332647972965757,12.644290804970138,18.415916492767092,0.5576641937801261,-26.32139691402113,-29.36926542922305
0.499,-8.419273923290973,5.209630657742775,11.288181877919612,12.64146206944773,18.4824898130681,0.768322115495355,-26.188908044167857,-29.402651378109518
0.5,-8.464928753292918,5.1478503530222,11.243715782873469,12.638633333925322,18.549063133369103,0.9789800372105848,-26.056419174314584,-29.436037326995987
0.501,-8.510583583294864,5.086070048301625,11.199249687827324,12.635804598402913,18.61563645367011,1.1896379589258137,-25.92393030446131,-29.46942327588246
0.502,-8.55623841329681,5.0242897435810505,11.154783592781179,12.632975862880505,18.682209773971117,1.4002958806410426,-25.79144143460804,-29.502809224768928
0.503,-8.601893243298756,4.962509438860476,11.110317497735036,12.630147127358095,18.74878309427212,1.6109538023562715,-25.658952564754763,-29.536195173655397
0.504,-8.647548073300701,4.900729134139901,11.06585140268889,12.627318391835686,18.815356414573124,1.8216117240715013,-25.52646369490149,-29.56958112254187
0.505,-8.693202903302648,4.838948829419326,11.021385307642745,12.624489656313278,18.88192973487413,2.03226964578673,-25.39397482504822,-29.60296707142834
0.506,-8.738857733304593,4.777168524698752,10.9769192125966,12.62166092079087,18.948503055175138,2.242927567501959,-25.261485955194946,-29.636353020314807
0.507,-8.784512563306539,4.715388219978177,10.932453117550455,12.618832185268461,19.01507637547614,2.453585489217189,-25.128997085341673,-29.66973896920128
0.508,-8.830167393308486,4.653607915257602,10.887987022504312,12.616003449746053,19.08164969577715,2.664243410932418,-24.996508215488397,-29.70312491808775
0.509,-8.875822223310431,4.5918276105370275,10.843520927458167,12.613174714223643,19.148223016078152,2.8749013326476467,-24.864019345635125,-29.736510866974218
0.51,-8.921477053312378,4.530047305816453,10.799054832412022,12.610345978701234,19.21479633637916,3.0855592543628765,-24.731530475781852,-29.76989681586069
0.511,-8.967131883314323,4.468267001095878,10.754588737365877,12.607517243178826,19.281369656680162,3.2962171760781054,-24.59904160592858,-29.80328276474716
0.512,-9.012786713316268,4.406486696375303,10.710122642319732,12.604688507656418,19.34794297698117,3.5068750977933343,-24.466552736075307,-29.836668713633628
0.513,-9.058441543318215,4.344706391654729,10.665656547273588,12.60185977213401,19.414516297282173,3.717533019508564,-24.334063866222035,-29.8700546625201
0.514,-9.10409637332016,4.282926086934154,10.621190452227443,12.599031036611601,19.48108961758318,3.928190941223792,-24.201574996368763,-29.90344061140657
0.515,-9.149751203322108,4.221145782213579,10.576724357181298,12.59620230108919,19.547662937884184,4.138848862939022,-24.069086126515487,-29.936826560293042
0.516,-9.195406033324053,4.1593654774930044,10.532258262135155,12.593373565566782,19.61423625818519,4.349506784654252,-23.936597256662214,-29.97021250917951
0.517,-9.241060863325998,4.09758517277243,10.48779216708901,12.590544830044374,19.680809578486194,4.56016470636948,-23.80410838680894,-30.00359845806598
0.518,-9.286715693327945,4.035804868051855,10.443326072042865,12.587716094521966,19.7473828987872,4.7708226280847095,-23.67161951695567,-30.036984406952453
0.519,-9.33237052332989,3.97402456333128,10.39885997699672,12.584887358999557,19.813956219088205,4.981480549799939,-23.539130647102397,-30.07037035583892
0.52,-9.378025353331836,3.912244258610705,10.354393881950575,12.582058623477149,19.88052953938921,5.192138471515167,-23.40664177724912,-30.10375630472539
0.521,-9.423680183333783,3.8504639538901304,10.309927786904431,12.579229887954739,19.947102859690215,5.402796393230397,-23.274152907395848,-30.137142253611863
0.522,-9.469335013335728,3.7886836491695552,10.265461691858286,12.57640115243233,20.013676179991222,5.613454314945627,-23.141664037542576,-30.170528202498332
0.523,-9.514989843337673,3.7269033444489805,10.220995596812141,12.573572416909922,20.080249500292226,5.824112236660855,-23.009175167689303,-30.2039141513848
0.524,-9.56064467333962,3.665123039728406,10.176529501765996,12.570743681387514,20.146822820593233,6.034770158376085,-22.87668629783603,-30.237300100271273
0.525,-9.606299503341566,3.603342735007831,10.132063406719851,12.567914945865105,20.213396140894236,6.2454280800913144,-22.744197427982755,-30.270686049157742
0.526,-9.651954333343513,3.5415624302872564,10.087597311673708,12.565086210342697,20.279969461195243,6.4560860018065425,-22.611708558129482,-30.30407199804421
0.527,-9.68222509754399,3.4741719341846413,10.034121283746291,12.542572061742476,20.336188342467306,6.649818599846866,-22.43303084021541,-30.320120973745194
0.528,-9.705395523682254,3.404192118982624,9.97648682525829,12.510972337875577,20.387628251879857,6.835739510037236,-22.233035192427124,-30.32816826951441
0.529,-9.728565949820517,3.334212303780606,9.918852366770288,12.479372614008676,20.439068161292408,7.021660420227605,-22.033039544638843,-30.336215565283627
0.53,-9.751736375958782,3.264232488578588,9.861217908282287,12.447772890141778,20.49050807070496,7.207581330417976,-21.83304389685056,-30.344262861052844
0.531,-9.774906802097044,3.1942526733765706,9.803583449794285,12.416173166274877,20.54194798011751,7.3935022406083455,-21.633048249062274,-30.35231015682206
0.532,-9.798077228235309,3.1242728581745527,9.745948991306282,12.384573442407978,20.59338788953006,7.579423150798716,-21.43305260127399,-30.360357452591277
0.533,-9.821247654373572,3.0542930429725352,9.68831453281828,12.35297371854108,20.644827798942615,7.765344060989086,-21.233056953485704,-30.368404748360494
0.534,-9.844418080511836,2.9843132277705173,9.630680074330279,12.321373994674179,20.696267708355165,7.951264971179455,-21.03306130569742,-30.37645204412971
0.535,-9.867588506650101,2.9143334125684994,9.573045615842277,12.28977427080728,20.747707617767716,8.137185881369826,-20.833065657909135,-30.384499339898927
0.536,-9.890758932788364,2.844353597366482,9.515411157354276,12.25817454694038,20.799147527180267,8.323106791560194,-20.63307001012085,-30.392546635668147
0.537,-9.913929358926628,2.7743737821644645,9.457776698866274,12.22657482307348,20.850587436592818,8.509027701750565,-20.43307436233257,-30.400593931437363
0.538,-9.937099785064891,2.7043939669624466,9.400142240378273,12.19497509920658,20.90202734600537,8.694948611940934,-20.233078714544284,-30.40864122720658
0.539,-9.960270211203156,2.6344141517604287,9.34250778189027,12.163375375339681,20.953467255417923,8.880869522131304,-20.033083066756,-30.416688522975797
0.54,-9.983440637341419,2.5644343365584112,9.284873323402268,12.13177565147278,21.004907164830474,9.066790432321675,-19.833087418967715,-30.424735818745013
0.541,-10.006611063479683,2.4944545213563933,9.227238864914266,12.100175927605882,21.056347074243025,9.252711342512043,-19.63309177117943,-30.43278311451423
0.542,-10.029781489617946,2.424474706154376,9.169604406426265,12.068576203738981,21.107786983655576,9.438632252702414,-19.433096123391145,-30.440830410283446
0.543,-10.05295191575621,2.354494890952358,9.111969947938263,12.036976479872083,21.159226893068126,9.624553162892784,-19.23310047560286,-30.448877706052663
0.544,-10.076122341894473,2.28451507575034,9.054335489450262,12.005376756005182,21.210666802480677,9.810474073083153,-19.033104827814576,-30.45692500182188
0.545,-10.099292768032738,2.2145352605483226,8.99670103096226,11.973777032138283,21.262106711893228,9.996394983273523,-18.83310918002629,-30.4649722975911
0.546,-10.122463194171,2.144555445346305,8.939066572474257,11.942177308271383,21.313546621305782,10.182315893463894,-18.63311353223801,-30.473019593360316
0.547,-10.145633620309265,2.0745756301442873,8.881432113986255,11.910577584404484,21.364986530718333,10.368236803654263,-18.433117884449725,-30.481066889129533
0.548,-10.168804046447528,2.0045958149422693,8.823797655498254,11.878977860537583,21.416426440130884,10.554157713844633,-18.23312223666144,-30.48911418489875
0.549,-10.191974472585793,1.9346159997402517,8.766163197010252,11.847378136670685,21.467866349543435,10.740078624035004,-18.033126588873156,-30.497161480667966
0.55,-10.215144898724056,1.864636184538234,8.70852873852225,11.815778412803784,21.519306258955986,10.925999534225372,-17.83313094108487,-30.505208776437183
0.551,-10.23831532486232,1.7946563693362163,8.65089428003425,11.784178688936885,21.570746168368537,11.111920444415743,-17.633135293296586,-30.5132560722064
0.552,-10.261485751000583,1.7246765541341986,8.593259821546248,11.752578965069985,21.622186077781087,11.297841354606113,-17.433139645508305,-30.521303367975616
0.553,-10.284656177138848,1.654696738932181,8.535625363058244,11.720979241203086,21.673625987193642,11.483762264796482,-17.23314399772002,-30.529350663744832
0.554,-10.30782660327711,1.5847169237301633,8.477990904570243,11.689379517336185,21.725065896606193,11.669683174986853,-17.033148349931736,-30.53739795951405
0.555,-10.330997029415375,1.5147371085281454,8.420356446082241,11.657779793469286,21.776505806018744,11.855604085177223,-16.83315270214345,-30.54544525528327
0.556,-10.35416745555364,1.444757293326128,8.36272198759424,11.626180069602386,21.827945715431294,12.041524995367592,-16.633157054355166,-30.553492551052486
0.557,-10.377337881691902,1.37477747812411,8.305087529106238,11.594580345735487,21.879385624843845,12.227445905557962,-16.43316140656688,-30.561539846821702
0.558,-10.400508307830167,1.3047976629220925,8.247453070618237,11.562980621868586,21.930825534256396,12.413366815748333,-16.233165758778597,-30.56958714259092
0.559,-10.42367873396843,1.2348178477200746,8.189818612130233,11.531380898001688,21.982265443668947,12.599287725938701,-16.033170110990312,-30.577634438360136
0.56,-10.446849160106694,1.1648380325180567,8.132184153642232,11.499781174134787,22.0337053530815,12.785208636129072,-15.83317446320203,-30.585681734129352
0.561,-10.470019586244957,1.0948582173160393,8.07454969515423,11.468181450267888,22.085145262494052,12.971129546319442,-15.633178815413745,-30.59372902989857
0.562,-10.493190012383222,1.0248784021140214,8.016915236666229,11.436581726400988,22.136585171906603,13.157050456509811,-15.433183167625462,-30.601776325667785
0.5630000000000001,-10.516360438521485,0.9548985869120039,7.959280778178227,11.404982002534089,22.188025081319154,13.342971366700182,-15.233187519837177,-30.609823621437002
0.5640000000000001,-10.53953086465975,0.884918771709986,7.901646319690226,11.37338227866719,22.239464990731705,13.528892276890552,-15.033191872048892,-30.617870917206222
0.5650000000000001,-10.562701290798012,0.8149389565079685,7.844011861202223,11.34178255480029,22.290904900144255,13.714813187080921,-14.833196224260607,-30.62591821297544
0.5660000000000001,-10.585871716936277,0.7449591413059506,7.786377402714222,11.310182830933389,22.342344809556806,13.900734097271291,-14.633200576472323,-30.633965508744655
0.5670000000000001,-10.60904214307454,0.6749793261039332,7.728742944226219,11.27858310706649,22.39378471896936,14.086655007461662,-14.43320492868404,-30.64201280451387
0.5680000000000001,-10.632212569212804,0.6049995109019153,7.671108485738218,11.246983383199591,22.44522462838191,14.27257591765203,-14.233209280895755,-30.65006010028309
0.5690000000000001,-10.655382995351067,0.5350196956998974,7.613474027250216,11.21538365933269,22.496664537794462,14.458496827842401,-14.03321363310747,-30.658107396052305
0.5700000000000001,-10.678553421489331,0.4650398804978799,7.555839568762215,11.18378393546579,22.548104447207013,14.644417738032772,-13.833217985319186,-30.66615469182152
0.5710000000000001,-10.701723847627594,0.395060065295862,7.498205110274213,11.152184211598891,22.599544356619564,14.83033864822314,-13.633222337530903,-30.674201987590738
0.5720000000000001,-10.724894273765859,0.32508025009384456,7.440570651786211,11.120584487731993,22.650984266032115,15.01625955841351,-13.433226689742618,-30.682249283359955
0.5730000000000001,-10.748064699904123,0.25510043489182666,7.3829361932982085,11.088984763865092,22.70242417544467,15.20218046860388,-13.233231041954333,-30.690296579129175
0.5740000000000001,-10.771235126042386,0.1851206196898092,7.325301734810207,11.057385039998193,22.75386408485722,15.38810137879425,-13.033235394166049,-30.69834387489839
0.5750000000000001,-10.794405552180649,0.11514080448779129,7.267667276322205,11.025785316131293,22.80530399426977,15.57402228898462,-12.833239746377766,-30.706391170667608
0.5760000000000001,-10.817575978318914,0.04516098928577339,7.210032817834204,10.994185592264394,22.85674390368232,15.75994319917499,-12.633244098589481,-30.714438466436825
0.577,-10.840746404457175,-0.02481882591623652,7.152398359346208,10.962585868397497,22.908183813094865,15.945864109365338,-12.43324845080122,-30.72248576220604
0.578,-10.86391683059544,-0.09479864111825398,7.094763900858206,10.930986144530598,22.95962372250742,16.131785019555707,-12.233252803012935,-30.730533057975258
0.579,-10.886148639024286,-0.1641476588574586,7.035318905439862,10.898489965610084,23.007658789420116,16.315465175184148,-12.033073915255823,-30.73307590097231
0.58,-10.891485328683622,-0.22214232226601233,6.943284245275308,10.849857595724497,22.994406691335364,16.458811748697777,-11.829596708059823,-30.63653859407025
0.581,-10.896822018342958,-0.2801369856745661,6.851249585110753,10.801225225838913,22.98115459325061,16.60215832221141,-11.626119500863823,-30.540001287168188
0.582,-10.902158708002291,-0.33813164908311977,6.759214924946199,10.752592855953326,22.96790249516586,16.745504895725038,-11.422642293667822,-30.443463980266127
0.583,-10.907495397661627,-0.3961263124916735,6.667180264781644,10.703960486067741,22.954650397081107,16.888851469238666,-11.219165086471822,-30.346926673364067
0.584,-10.912832087320963,-0.45412097590022726,6.57514560461709,10.655328116182154,22.941398298996354,17.032198042752295,-11.01568787927582,-30.250389366462006
0.585,-10.918168776980298,-0.512115639308781,6.483110944452535,10.606695746296568,22.928146200911602,17.175544616265928,-10.81221067207982,-30.153852059559945
0.586,-10.923505466639634,-0.5701103027173348,6.391076284287981,10.558063376410983,22.91489410282685,17.318891189779556,-10.60873346488382,-30.057314752657884
0.587,-10.928842156298968,-0.6281049661258885,6.299041624123426,10.509431006525396,22.901642004742097,17.462237763293185,-10.40525625768782,-29.960777445755824
0.588,-10.934178845958304,-0.6860996295344423,6.207006963958872,10.460798636639812,22.888389906657345,17.605584336806817,-10.201779050491819,-29.864240138853763
0.589,-10.93951553561764,-0.744094292942996,6.114972303794317,10.412166266754225,22.875137808572592,17.748930910320446,-9.998301843295819,-29.767702831951702
0.59,-10.944852225276975,-0.8020889563515498,6.022937643629763,10.363533896868638,22.86188571048784,17.892277483834075,-9.794824636099818,-29.67116552504964
0.591,-10.95018891493631,-0.8600836197601035,5.930902983465208,10.314901526983054,22.848633612403088,18.035624057347704,-9.591347428903816,-29.57462821814758
0.592,-10.955525604595644,-0.9180782831686571,5.8388683233006535,10.266269157097467,22.835381514318335,18.178970630861336,-9.387870221707816,-29.47809091124552
0.593,-10.96086229425498,-0.9760729465772109,5.746833663136099,10.217636787211882,22.822129416233583,18.322317204374965,-9.184393014511816,-29.38155360434346
0.594,-10.966198983914316,-1.0340676099857646,5.6547990029715445,10.169004417326295,22.80887731814883,18.465663777888594,-8.980915807315816,-29.285016297441402
0.595,-10.971535673573651,-1.0920622733943184,5.5627643428069895,10.12037204744071,22.79562522006408,18.609010351402226,-8.777438600119815,-29.188478990539338
0.596,-10.976872363232987,-1.1500569368028721,5.470729682642435,10.071739677555124,22.782373121979326,18.752356924915855,-8.573961392923815,-29.09194168363728
0.597,-10.982209052892323,-1.2080516002114259,5.3786950224778804,10.023107307669537,22.769121023894574,18.895703498429484,-8.370484185727815,-28.99540437673522
0.598,-10.987545742551657,-1.2660462636199796,5.286660362313326,9.974474937783953,22.75586892580982,19.039050071943112,-8.167006978531813,-28.89886706983316
0.599,-10.992882432210992,-1.3240409270285334,5.194625702148771,9.925842567898366,22.74261682772507,19.182396645456745,-7.963529771335813,-28.802329762931098
0.6,-10.998219121870328,-1.3820355904370871,5.102591041984217,9.877210198012781,22.729364729640317,19.325743218970374,-7.760052564139812,-28.705792456029037
0.601,-11.003555811529663,-1.4400302538456409,5.010556381819663,9.828577828127194,22.716112631555564,19.469089792484002,-7.556575356943812,-28.609255149126977
0.602,-11.008892501188999,-1.4980249172541946,4.918521721655108,9.77994545824161,22.702860533470812,19.61243636599763,-7.353098149747812,-28.512717842224916
0.603,-11.014229190848333,-1.5560195806627484,4.826487061490553,9.731313088356023,22.68960843538606,19.755782939511263,-7.1496209425518105,-28.416180535322855
0.604,-11.019565880507669,-1.6140142440713021,4.734452401325999,9.682680718470436,22.676356337301307,19.899129513024892,-6.94614373535581,-28.319643228420794
0.605,-11.024902570167004,-1.6720089074798556,4.642417741161445,9.634048348584852,22.663104239216555,20.04247608653852,-6.74266652815981,-28.223105921518734
0.606,-11.03023925982634,-1.7300035708884094,4.55038308099689,9.585415978699265,22.649852141131802,20.185822660052153,-6.53918932096381,-28.126568614616673
0.607,-11.035575949485676,-1.7879982342969631,4.458348420832335,9.536783608813678,22.63660004304705,20.329169233565782,-6.3357121137678085,-28.030031307714612
0.608,-11.04091263914501,-1.8459928977055169,4.366313760667781,9.488151238928094,22.623347944962298,20.47251580707941,-6.132234906571808,-27.93349400081255
0.609,-11.046249328804345,-1.9039875611140706,4.274279100503227,9.439518869042507,22.610095846877545,20.61586238059304,-5.928757699375808,-27.83695669391049
0.61,-11.05158601846368,-1.9619822245226244,4.182244440338672,9.390886499156922,22.596843748792793,20.75920895410667,-5.725280492179808,-27.74041938700843
0.611,-11.056922708123016,-2.019976887931178,4.090209780174117,9.342254129271335,22.58359165070804,20.9025555276203,-5.521803284983807,-27.64388208010637
0.612,-11.062259397782352,-2.077971551339732,3.998175120009563,9.29362175938575,22.570339552623288,21.04590210113393,-5.318326077787806,-27.54734477320431
0.613,-11.067596087441686,-2.1359662147482856,3.9061404598450085,9.244989389500164,22.557087454538536,21.18924867464756,-5.114848870591806,-27.45080746630225
0.614,-11.072932777101022,-2.1939608781568394,3.814105799680454,9.196357019614577,22.543835356453783,21.33259524816119,-4.911371663395805,-27.354270159400187
0.615,-11.078269466760357,-2.251955541565393,3.7220711395158994,9.147724649728993,22.53058325836903,21.47594182167482,-4.707894456199805,-27.25773285249813
0.616,-11.083606156419693,-2.309950204973947,3.630036479351345,9.099092279843406,22.51733116028428,21.61928839518845,-4.504417249003804,-27.16119554559607
0.617,-11.088942846079028,-2.3679448683825006,3.5380018191867904,9.050459909957821,22.504079062199523,21.76263496870208,-4.300940041807804,-27.064658238694008
0.618,-11.094279535738364,-2.4259395317910544,3.445967159022236,9.001827540072235,22.49082696411477,21.90598154221571,-4.097462834611803,-26.968120931791947
0.619,-11.099616225397698,-2.483934195199608,3.3539324988576813,8.95319517018665,22.477574866030018,22.049328115729338,-3.893985627415802,-26.871583624889887
0.62,-11.104952915057034,-2.541928858608162,3.2618978386931268,8.904562800301063,22.464322767945266,22.192674689242967,-3.6905084202198015,-26.775046317987826
0.621,-11.11028960471637,-2.5999235220167156,3.1698631785285722,8.855930430415476,22.451070669860513,22.3360212627566,-3.4870312130238013,-26.678509011085765
0.622,-11.115626294375705,-2.6579181854252694,3.0778285183640177,8.807298060529892,22.43781857177576,22.479367836270228,-3.283554005827801,-26.581971704183704
0.623,-11.12096298403504,-2.715912848833823,2.9857938581994636,8.758665690644305,22.42456647369101,22.622714409783857,-3.0800767986318007,-26.485434397281644
0.624,-11.126299673694374,-2.773907512242377,2.8937591980349087,8.710033320758718,22.411314375606256,22.766060983297486,-2.8765995914358005,-26.388897090379583
