AlexPazzaglia/SalamandraSNN/experimental_data/salamander_kinematics_karakasiliotis/swimming/data_karakasiliotis_processed.csv
time,Axis 1,Axis 2,Axis 3,Axis 4,Axis 5,Axis 6,Axis 7,Axis 8
0.0,8.918173987109457,-3.6653466977572746,-9.519995653545116,-13.10932967644298,-20.105671641386063,-4.143234002507402,21.003505384921553,34.04208954698985
0.001,8.95812066094947,-3.5620357543692465,-9.459484834400543,-13.085671063047286,-20.148760097599926,-4.270713355005479,20.880429243180206,34.031581621439855
0.002,8.997291565548181,-3.4596459535327635,-9.39878474350815,-13.062332849441303,-20.191436329900394,-4.4006572542241775,20.755837346125837,34.01925116825697
0.003,9.035695886558434,-3.358165332097985,-9.3378949676493,-13.039301901737748,-20.233696203494794,-4.53302261776845,20.62974678214368,34.00510855841276
0.004,9.073342809633063,-3.2575819269150705,-9.276815093605357,-13.016565086049326,-20.275535583590454,-4.667766363243246,20.502174639618964,33.9891641628788
0.005,9.11024152042491,-3.15788377483418,-9.215544708157692,-12.99410926848875,-20.316950335394704,-4.804845408253514,20.373138006936912,33.97142835262668
0.006,9.146401204586816,-3.0590589127054724,-9.154083398087671,-12.971921315168732,-20.35793632411487,-4.944216670404201,20.242653972482753,33.951911498627986
0.007,9.181831047771624,-2.961095377379107,-9.092430750176655,-12.949988092201982,-20.398489414958274,-5.085837067300259,20.110739624641713,33.93062397185428
0.008,9.216540235632168,-2.863981205705243,-9.030586351206011,-12.928296465701214,-20.438605473132245,-5.229663516546638,19.977412051799035,33.90757614327714
0.009000000000000001,9.250537953821295,-2.767704434534041,-8.968549787957109,-12.906833301779132,-20.478280363844114,-5.375652935748285,19.842688342339923,33.882778383868164
0.01,9.28383338799184,-2.672253100715659,-8.90632064721131,-12.885585466548452,-20.5175099523012,-5.52376224251015,19.706585584649627,33.856241064598905
0.011,9.316435723796646,-2.5776152411002573,-8.843898515749979,-12.864539826121883,-20.556290103710833,-5.673948354437182,19.56912086711336,33.82797455644094
0.012,9.348354146888555,-2.4837788925379956,-8.781282980354487,-12.843683246612136,-20.594616683280346,-5.826168189134332,19.430311278116353,33.79798923036588
0.013000000000000001,9.379597842920406,-2.390732091879033,-8.718473627806196,-12.823002594131925,-20.632485556217063,-5.980378664206549,19.29017390604384,33.76629545734528
0.014,9.410175997545034,-2.2984628759735277,-8.655470044886473,-12.802484734793955,-20.669892587728302,-6.13653669725878,19.148725839281045,33.73290360835072
0.015,9.440097796415285,-2.206959281671641,-8.592271818376682,-12.78211653471094,-20.7068336430214,-6.2945992058959765,19.005984166213192,33.697824054353774
0.016,9.469372425184002,-2.116209345823531,-8.52887853505819,-12.761884859995595,-20.74330458730368,-6.454523107723088,18.861965975225523,33.661067166326035
0.017,9.498009069504018,-2.0262011052793585,-8.465289781712366,-12.741776576760623,-20.77930128578247,-6.616265320345064,18.716688354703248,33.62264331523906
0.018000000000000002,9.52601691502818,-1.9369225968892816,-8.40150514512057,-12.721778551118739,-20.814819603665097,-6.77978276136685,18.570168393031608,33.58256287206445
0.019,9.553405147409324,-1.8483618575034604,-8.337524212064169,-12.701877649182654,-20.84985540615888,-6.945032348393399,18.422423178595828,33.540836207773765
0.02,9.58018295230029,-1.7605069239720537,-8.273346569324532,-12.682060737065079,-20.88440455847116,-7.111970999029661,18.273469799781125,33.4974736933386
0.021,9.60635951535392,-1.6733458331452218,-8.208971803683024,-12.662314680878723,-20.918462925809255,-7.280555630880584,18.123325344972745,33.452485699730516
0.022,9.631944022223056,-1.5868666218731236,-8.144399501921008,-12.642626346736296,-20.95202637338049,-7.450743161551114,17.97200690255591,33.40588259792111
0.023,9.656945658560536,-1.5010573270059182,-8.07962925081985,-12.622982600750515,-20.9850907663922,-7.622490508646206,17.81953156091584,33.35767475888194
0.024,9.6813736100192,-1.4159059853937659,-8.014660637160922,-12.603370309034085,-21.01765197005171,-7.795754589770807,17.66591640843777,33.307872553584595
0.025,9.705237062251888,-1.3314006338868254,-7.949493247725582,-12.583776337699716,-21.049705849566337,-7.970492322529867,17.511178533506932,33.25648635300065
0.026000000000000002,9.728545200911444,-1.2475293093352566,-7.884126669295198,-12.564187552860124,-21.081248270143412,-8.146660624528334,17.35533502450854,33.203526528101705
0.027,9.751307211650706,-1.1642800485892186,-7.818560488651137,-12.544590820628018,-21.112275096990274,-8.324216413371154,17.198402969827836,33.14900344985931
0.028,9.773532280122513,-1.0816408884988709,-7.752794292574764,-12.524973007116106,-21.142782195314233,-8.503116606663285,17.040399457850043,33.09292748924504
0.029,9.795229591979705,-0.9995998659143732,-7.686827667847446,-12.505320978437101,-21.172765430322627,-8.68331812200967,16.881341576960388,33.035309017230496
0.03,9.816408332875126,-0.9181450176858846,-7.620660201250547,-12.485621600703714,-21.20222066722278,-8.864777877015257,16.7212464155441,32.97615840478725
0.031,9.837077688461612,-0.8372643806635647,-7.554291479565434,-12.465861740028656,-21.23114377122202,-9.047452789285002,16.560131061986407,32.91548602288687
0.032,9.857246844392005,-0.7569459916975725,-7.487721089573472,-12.446028262524639,-21.259530607527665,-9.231299776423848,16.39801260467254,32.85330224250094
0.033,9.876924986319148,-0.6771778876380683,-7.420948618056026,-12.42610803430437,-21.28737704134705,-9.416275756036747,16.23490813198772,32.78961743460104
0.034,9.896121299895878,-0.5979481053352104,-7.353973651794464,-12.406087921480562,-21.314678937887503,-9.602337645728651,16.07083473231718,32.72444197015875
0.035,9.914844970775036,-0.5192446816391589,-7.286795777570149,-12.385954790165929,-21.34143216235635,-9.789442363104504,15.905809494046148,32.657786220145645
0.036000000000000004,9.933105184609465,-0.4410556534000736,-7.2194145821644495,-12.365695506473179,-21.36763257996091,-9.977546825769258,15.73984950555985,32.5896605555333
0.037,9.950911127051999,-0.36336905746811377,-7.15182965235873,-12.34529693651502,-21.393276055908522,-10.16660795132786,15.57297185524352,32.5200753472933
0.038,9.968271983755486,-0.2861729306934378,-7.084040574934356,-12.324745946404164,-21.418358455406505,-10.356582657385262,15.405193631482375,32.44904096639723
0.039,9.985196940372758,-0.2094553099262059,-7.016046936672694,-12.30402940225333,-21.442875643662187,-10.547427861546415,15.236531922661651,32.37656778381664
0.04,10.001695182556663,-0.13320423201657788,-6.9478483243551095,-12.283134170175217,-21.466823485882895,-10.739100481416266,15.067003817166578,32.302666170523146
0.041,10.017775895960037,-0.05740773381471287,-6.879444324762967,-12.262047116282542,-21.490197847275958,-10.931557434599762,14.896626403382376,32.2273464974883
0.042,10.033448266235723,0.01794614782923007,-6.810834524677634,-12.240755106688015,-21.512994593048703,-11.124755638701858,14.725416769694279,32.15061913568368
0.043000000000000003,10.04872147903656,0.09286937606509194,-6.742018510880475,-12.21924500750435,-21.53520958840845,-11.318652011327497,14.553392004487515,32.07249445608088
0.044,10.063604720015386,0.1673739140427111,-6.672995870152857,-12.197503684844252,-21.556838698562533,-11.51320347008163,14.38056919614731,31.992982829651467
0.045,10.078107174825046,0.24147172491193042,-6.603766189276144,-12.175518004820432,-21.577877788718276,-11.708366932569213,14.206965433058892,31.912094627367022
0.046,10.092238029118377,0.31517477182259057,-6.534329055031705,-12.15327483354561,-21.598322724083005,-11.904099316395184,14.032597803607489,31.82984022019913
0.047,10.10600646854822,0.38849501792453023,-6.464684054200902,-12.130761037132485,-21.618169369864052,-12.100357539164502,13.85748339617833,31.74622997911936
0.048,10.119421678767415,0.46144442636759125,-6.394830773565103,-12.107963481693774,-21.637413591268743,-12.297098518482112,13.681639299156643,31.661274275099295
0.049,10.132492845428802,0.5340349603016139,-6.324768799905673,-12.084869033342189,-21.656051253504394,-12.494279171952963,13.505082600927654,31.574983479110507
0.05,10.145229154185223,0.6062785828764395,-6.254497720003976,-12.061464558190437,-21.674078221778345,-12.691856417182008,13.327830389876594,31.487367962124587
0.051000000000000004,10.157639790689519,0.6781872572419074,-6.184017120641381,-12.03773692235123,-21.691490361297912,-12.88978717177419,13.149899754388688,31.398438095113097
0.052000000000000005,10.169733940594526,0.7497729465478585,-6.113326588599254,-12.013672991937284,-21.708283537270436,-13.088028353334463,12.97130778284917,31.308204249047627
0.053,10.181520789553089,0.8210476139441332,-6.042425710658958,-11.989259633061302,-21.724453614903233,-13.286536879467773,12.792071563643262,31.216676794899755
0.054,10.193009523218045,0.8920232225805732,-5.97131407360186,-11.964483711836,-21.739996459403628,-13.485269667779075,12.612208185156193,31.123866103641053
0.055,10.204209327242237,0.9627117356070183,-5.8999912642093255,-11.939332094374084,-21.754907935978952,-13.684183635873314,12.431734735773192,31.029782546243105
0.056,10.215129387278504,1.033125116173309,-5.8284568692627206,-11.913791646788273,-21.76918390983654,-13.88323570135544,12.250668303879486,30.934436493677484
0.057,10.225778888979685,1.1032753274292861,-5.756710475543411,-11.887849235191268,-21.782820246183704,-14.082382781830402,12.069025977860306,30.837838316915775
0.058,10.236167017998621,1.17317433252479,-5.684751669832761,-11.861491725695787,-21.795812810227776,-14.28158179490315,11.886824846100875,30.73999838692955
0.059000000000000004,10.246302959988155,1.2428340946096614,-5.612580038912139,-11.834705984414539,-21.808157467176088,-14.480789658178635,11.704081996986428,30.64092707469039
0.06,10.256195900601124,1.3122665768337403,-5.54019516956291,-11.807478877460234,-21.819850082235963,-14.679963289261803,11.520814518902188,30.540634751169875
0.061,10.26585502549037,1.3814837423468684,-5.467596648566438,-11.779797270945583,-21.830886520614726,-14.879059605757602,11.337039500233384,30.439131787339576
0.062,10.275289520308734,1.4504975542988856,-5.39478406270409,-11.751648030983297,-21.84126264751971,-15.078035525270987,11.152774029365244,30.336428554171086
0.063,10.284508570709054,1.5193199758396325,-5.321756998757232,-11.723018023686087,-21.850974328158234,-15.276847965406905,10.968035194682995,30.232535422635966
0.064,10.29352136234417,1.5879629701189497,-5.24851504350723,-11.693894115166664,-21.860017427737624,-15.475453843770307,10.782840084571868,30.12746276370581
0.065,10.302337080866927,1.6564385002866777,-5.175057783735448,-11.664263171537739,-21.86838781146522,-15.673810077966134,10.597205787417085,30.02122094835218
0.066,10.310964911930162,1.7247585294926573,-5.101384806223255,-11.634112058912022,-21.87608134454834,-15.871873585599346,10.411149391603884,29.913820347546668
0.067,10.319414041186715,1.7929350208867287,-5.027495697752012,-11.603427643402226,-21.883093892194303,-16.06960128427489,10.224687985517484,29.805271332260848
0.068,10.327693654289424,1.860979937618733,-4.95339004510309,-11.572196791121058,-21.889421319610452,-16.266950091597703,10.037838657543116,29.695584273466295
0.069,10.335812936891134,1.9289052428385103,-4.879067435057851,-11.540406368181232,-21.895059492004105,-16.46387692517275,9.850618496066012,29.58476954213459
0.07,10.343781074644685,1.996722899695901,-4.804527454397663,-11.508043240695459,-21.90000427458258,-16.660338702604978,9.663044589471392,29.472837509237312
0.07100000000000001,10.351607253202914,2.0644448713407466,-4.729769689903891,-11.475094274776447,-21.904251532553225,-16.85629234149933,9.475134026144488,29.359798545746038
0.07200000000000001,10.359300658218663,2.1320831209228865,-4.654793728357899,-11.441546336536911,-21.90779713112335,-17.05169475946076,9.286903894470534,29.245663022632346
0.073,10.366870475344776,2.1996496115921613,-4.5795991565410565,-11.407386292089557,-21.91063693550029,-17.24650287409421,9.098371282834751,29.130441310867816
0.074,10.374325890234084,2.2671563064984133,-4.504185561234726,-11.3726010075471,-21.912766810891366,-17.440673603004644,8.909553279622369,29.014143781424025
0.075,10.381676088539436,2.3346151687914816,-4.428552529220273,-11.33717734902225,-21.914182622503912,-17.634163863797,8.720466973218612,28.896780805272556
0.076,10.388930255913671,2.402038161621207,-4.352699647279065,-11.301102182627716,-21.914880235545244,-17.826930574076222,8.531129452008713,28.77836275338498
0.077,10.396097578009625,2.4694372481374303,-4.276626502192468,-11.26436237447621,-21.914855515222698,-18.018930651447274,8.3415578043779,28.658899996732877
0.078,10.403187240480143,2.536824391489992,-4.200332680741847,-11.226944790680443,-21.9141043267436,-18.210121013515096,8.151769118711396,28.538402906287825
0.079,10.410208428978061,2.604211554828733,-4.123817769708568,-11.188836297353125,-21.912622535315272,-18.40045857788464,7.961780483394436,28.416881853021405
0.08,10.417170329156225,2.6716107013034924,-4.047081355873997,-11.150023760606969,-21.91040600614505,-18.589900262160857,7.771608986812246,28.294347207905194
0.081,10.424082126667468,2.739033794064113,-3.9701230260194986,-11.110494046554683,-21.90745060444025,-18.778402983948695,7.5812717173500515,28.170809341910775
0.082,10.430953007164636,2.8064927962604336,-3.892942366926439,-11.07023402130898,-21.903752195408202,-18.9659236608531,7.3907857633930805,28.046278626009716
0.083,10.437792156300569,2.8739996710422955,-3.8155389653761853,-11.02923055098257,-21.89930664425624,-19.152419210479025,7.200168213326563,27.920765431173603
0.084,10.444608759728105,2.9415663815595394,-3.7379124081501023,-10.987470501688163,-21.894109816191683,-19.337846550431415,7.009436155535727,27.79428012837401
0.085,10.451412003100083,3.0092048909620055,-3.6600622820295547,-10.94494073953847,-21.888157576421854,-19.522162598315226,6.8186066784058,27.66683308858252
0.08600000000000001,10.45821107206935,3.0769271623995342,-3.5819881737959096,-10.901628130646206,-21.881445790154096,-19.705324271735403,6.62769687032201,27.53843468277071
0.08700000000000001,10.465015152288737,3.144745159021966,-3.503689670230533,-10.857519541124075,-21.87397032259572,-19.887288488296896,6.436723819669584,27.409095281910155
0.088,10.471833429411092,3.2126708439791423,-3.4251663581147906,-10.812601837084795,-21.86572703895406,-20.06801216560465,6.245704614833755,27.27882525697244
0.089,10.47867508908925,3.2807161804209035,-3.346417824230047,-10.76686188464107,-21.856711804436443,-20.247452221263625,6.054656344199745,27.147634978929133
0.09,10.48554931697606,3.3488931314970896,-3.2674436553576687,-10.720286549905618,-21.84692048425019,-20.42556557287876,5.863596096152783,27.015534818751824
0.091,10.49246529872435,3.417213660357542,-3.18824343827902,-10.67286269899114,-21.836348943602633,-20.602309138055016,5.672540959078098,26.882535147412078
0.092,10.499432219986968,3.4856897301521004,-3.1088167597754697,-10.624577198010359,-21.824993047701103,-20.777639834397327,5.481508021360919,26.74864633588149
0.093,10.506459266416755,3.5543333040306058,-3.029163206628381,-10.575416913075975,-21.812848661752916,-20.951514579510654,5.290514371386473,26.613878755131623
0.094,10.513555623666546,3.623156345142899,-2.949282365619121,-10.525368710300706,-21.799911650965406,-21.12389029099994,5.099577097539988,26.478242776134064
0.095,10.520730477389186,3.6921708166388196,-2.8691738235290547,-10.47441945579726,-21.786177880545903,-21.29472388647014,4.908713288206693,26.341748769860384
0.096,10.527993013237516,3.7613886816682096,-2.788837167139548,-10.42255601567835,-21.771643215701726,-21.4639722835262,4.717940031771814,26.20440710728217
0.097,10.53535241686437,3.830821903380908,-2.7082719832319673,-10.36976525605668,-21.756303521640206,-21.631592399773066,4.527274416620582,26.066228159370997
0.098,10.542817873922594,3.9004824449267566,-2.6274778585876772,-10.31603404304497,-21.740154663568667,-21.797541152815697,4.336733531138221,25.92722229709844
0.099,10.550398570065026,3.970382269455596,-2.546454379988045,-10.261349242755925,-21.723192506694435,-21.96177546025903,4.146334463709964,25.78739989143608
0.1,10.55810369094451,4.040533340117266,-2.465201134214434,-10.20569772130226,-21.705412916224848,-22.124252239708024,3.9560943027210373,25.646771313355494
0.101,10.56594242221388,4.110947620061608,-2.3837177080482133,-10.14906634479668,-21.68681175736722,-22.284928408767616,3.7660301365566653,25.505346933828264
0.10200000000000001,10.57392394952598,4.181637072438461,-2.302003688270746,-10.091441979351899,-21.66738489532888,-22.443760885042774,3.5761590536020806,25.363137123825965
0.10300000000000001,10.582057458533653,4.252613660397667,-2.220058661663399,-10.032811491080633,-21.64712819531716,-22.600706586138433,3.386498142242508,25.220152254320173
0.10400000000000001,10.590352134889732,4.323889347089067,-2.137882215007538,-9.973161746095585,-21.626037522539384,-22.75572242965955,3.197064490863179,25.076402696282475
0.105,10.598817164247064,4.3954760956625005,-2.0554739350845295,-9.91247961050947,-21.604108742202875,-22.90876533321107,3.0078751878493213,24.93189882068444
0.106,10.607459437740344,4.467383940356155,-1.9728346628577085,-9.850754346734721,-21.58133850458524,-23.059796212641356,2.81894632623095,24.78664997874037
0.107,10.616264974249377,4.539605368919973,-1.8899766480499591,-9.787997015302375,-21.557730601414107,-23.208812354117285,2.63028494471543,24.640656245366653
0.108,10.625208651196337,4.612123502916259,-1.8069182302969153,-9.724230312420406,-21.533292636471156,-23.355830458016833,2.441893248878636,24.493912743859404
0.109,10.634265241479063,4.68492137603781,-1.7236778063671356,-9.659477043457674,-21.5080322493011,-23.5008674068537,2.253773398954095,24.346414551060796
0.11,10.643409517995392,4.757982021977415,-1.640273773029179,-9.593760013783044,-21.48195707944864,-23.6439400831416,2.0659275551753336,24.19815674381298
0.111,10.652616253643169,4.831288474427865,-1.5567245270516046,-9.527102028765377,-21.455074766458495,-23.785065369394236,1.8783578777758796,24.04913439895813
0.112,10.661860221320223,4.904823767081953,-1.4730484652029712,-9.45952589377353,-21.427392949875365,-23.92426014812531,1.6910665269892593,23.899342593338407
0.113,10.671116193924401,4.978570933632472,-1.3892639842518377,-9.391054414176365,-21.39891926924397,-24.061541301848532,1.5040556630490007,23.74877640379598
0.114,10.680358944353538,5.052513007772212,-1.305389480966763,-9.321710395342745,-21.369661364109014,-24.196925713077604,1.3173274461886304,23.597430907173003
0.115,10.689563245505472,5.126633023193964,-1.2214433521163053,-9.25151664264153,-21.339626874015213,-24.330430264326235,1.1308840366416757,23.44530118031165
0.116,10.698703870278047,5.2009140135905225,-1.1374439944690247,-9.180495961441583,-21.308823438507268,-24.462071838108127,0.9447275946416631,23.292382300054076
0.117,10.707755591569095,5.275339012654677,-1.0534098047934797,-9.108671157111761,-21.2772586971299,-24.59186731693699,0.7588602804221205,23.138669343242455
0.11800000000000001,10.716693182276458,5.3498910540792215,-0.9693591798582286,-9.036065035020933,-21.24494028942781,-24.71983358332653,0.5732842542165741,22.984157386718945
0.11900000000000001,10.725491415297979,5.424553171556945,-0.885310516431831,-8.96270040053795,-21.211875854945706,-24.845987519790448,0.38800167625855203,22.82884150732571
0.12,10.734125063531488,5.4993083987806415,-0.8012822112828468,-8.888600059031678,-21.178073033228316,-24.970346008842448,0.20301470678158298,22.672716781904914
0.121,10.74256889987483,5.574139769443101,-0.7172926611798324,-8.813786815870978,-21.143539463820332,-25.092925932996245,0.018325506019189648,22.515778287298723
0.122,10.750797697225842,5.649030317237117,-0.6333602628913477,-8.73828347642471,-21.108282786266468,-25.213744174765534,-0.1660637657950986,22.3580211003493
0.123,10.758786228482364,5.72396307585548,-0.5495034131859522,-8.662112846061737,-21.07231064011144,-25.33281761666403,-0.35015094842775524,22.199440297898807
0.124,10.766509266542236,5.7989210789909835,-0.4657405088322044,-8.585297730150916,-21.035630664899955,-25.45016314120543,-0.5339338816452521,22.040030956789412
0.125,10.77394158430329,5.8738873603364175,-0.3820899465986633,-8.507860934061114,-20.99825050017672,-25.565797630903447,-0.7174104052140627,21.879788153863277
0.126,10.781057954663373,5.948844953584574,-0.29857012325388743,-8.429825263161186,-20.96017778548645,-25.679737968271784,-0.9005783589006604,21.718706965962564
0.127,10.787833150520319,6.023776892428246,-0.21519943556643628,-8.351213522819998,-20.921420160373852,-25.792001035824146,-1.0834355824715172,21.55678246992944
0.128,10.794241944771969,6.098666210560224,-0.13199628030486849,-8.272048518406407,-20.881985264383633,-25.902603716074236,-1.2659799156931069,21.394009742606073
0.129,10.800259110316162,6.1734959416733,-0.04897905423774295,-8.19235305528928,-20.841880737060517,-26.011562891535764,-1.448209198331901,21.230383860834618
0.13,10.805859420050734,6.248249119460266,0.03383384586638168,-8.112149938837472,-20.801114217949195,-26.118895444722433,-1.6301212701543741,21.065899901457243
0.131,10.811017646873525,6.322908777613915,0.11642402323894582,-8.031461974419845,-20.75969334659439,-26.224618258147952,-1.8117139709269987,20.90055294131611
0.132,10.815708563682376,6.397457949827036,0.19877308111139144,-7.950311967405262,-20.717625762540806,-26.328748214326023,-1.9929851404162473,20.734338057253392
0.133,10.819906943375123,6.471879669792423,0.28086262271515916,-7.868722723162583,-20.67491910533316,-26.43130219577036,-2.173932618388592,20.56725032611124
0.134,10.823587558849608,6.546156971202867,0.36267425128168973,-7.7867170470606695,-20.631581014516154,-26.53229708499465,-2.354554244610507,20.399284824731833
0.135,10.826725183003669,6.620272887751161,0.44418957004242515,-7.704317744468383,-20.587619129634504,-26.631749764512616,-2.5348478588484658,20.230436629957318
0.136,10.829294588735142,6.694210453130095,0.525390182228806,-7.6215476207545825,-20.54304109023292,-26.72967711683796,-2.7148113008689387,20.060700818629872
0.137,10.831270548941868,6.767952701032462,0.6062576910722729,-7.538429481288131,-20.497854535856106,-26.826096024484375,-2.8944424104384017,19.89007246759165
0.138,10.832627836521684,6.841482665151052,0.6867736998042678,-7.454986131437888,-20.452067106048784,-26.92102336996559,-3.0737390273233256,19.718546653684825
0.139,10.83334122437243,6.914783379178659,0.7669198116562316,-7.371240376572717,-20.405686440355648,-27.01447603579529,-3.252698991290184,19.546118453751554
0.14,10.833385485391949,6.987837876808075,0.8466776298596048,-7.287215022061478,-20.35872017832142,-27.10647090448719,-3.43132014210545,19.372782944634004
0.14100000000000001,10.832735392478073,7.0606291917320885,0.9260287576458295,-7.20293287327303,-20.311175959490804,-27.197024858554993,-3.6096003195355966,19.19853520317434
0.14200000000000002,10.831365718528644,7.133140357643494,1.0049547982463456,-7.118416735576236,-20.263061423408516,-27.2861547805124,-3.7875373633470955,19.023370306214723
0.14300000000000002,10.829251236441499,7.205354408235084,1.0834373548925953,-7.033689414339959,-20.214384209619265,-27.373877552873136,-3.9651291133064217,18.84728333059732
0.14400000000000002,10.82636671911448,7.277254377199648,1.1614580308160192,-6.948773714933055,-20.165151957667756,-27.460210058150885,-4.1423734091800455,18.670269353164294
0.145,10.822686939445425,7.348823298229976,1.2389984292480563,-6.863692442724391,-20.115372307098706,-27.54516917885936,-4.319268090734439,18.492323450757812
0.146,10.81818667033217,7.420044205018866,1.316040153420152,-6.778468403082822,-20.065052897456816,-27.628771797512265,-4.495810997736079,18.31344070022003
0.147,10.812840684672556,7.490900131259107,1.3925648065637453,-6.693124401377212,-20.014201368286805,-27.711034796623316,-4.671999969951438,18.13361617839312
0.148,10.806623755364424,7.561374110643488,1.4685539919102768,-6.607683242976424,-19.962825359133383,-27.7919750587062,-4.847832847146988,17.952844962119247
0.149,10.799510655305609,7.631449176864804,1.5439893126911886,-6.522167733249316,-19.91093250954125,-27.87160946627464,-5.023307469089202,17.771122128240563
0.15,10.791476157393948,7.7011083636158455,1.6188523721379209,-6.4366006775647495,-19.858530459055128,-27.949954901842332,-5.1984216755445525,17.58844275359924
0.151,10.782495034527289,7.770334704589405,1.6931247734819155,-6.351004881291585,-19.805626847219724,-28.02702824792298,-5.3731733062795115,17.404801915037446
0.152,10.77254205960346,7.839111233478273,1.766788119954613,-6.265403149798686,-19.752229313579743,-28.102846387030308,-5.547560201060555,17.22019468939734
0.153,10.761592005520308,7.907420983975241,1.8398240147874545,-6.179818288454912,-19.698345497679895,-28.177426201677996,-5.721580199654151,17.034616153521085
0.154,10.749619645175667,7.975246989773104,1.912214061211881,-6.094273102629125,-19.643983039064896,-28.25078457437976,-5.895231141826775,16.848061384250848
0.155,10.736599751467377,8.042572284564653,1.9839398624593345,-6.008790397690184,-19.589149577279457,-28.322938387649312,-6.068510867344904,16.66052545842879
0.156,10.722507097293278,8.109379902042674,2.0549830217612555,-5.923392979006953,-19.533852751868285,-28.393904524000348,-6.241417215975003,16.47200345289708
0.157,10.707316455551206,8.175652875899965,2.1253251423490847,-5.83810365194829,-19.478100202376087,-28.463699865946584,-6.41394802748355,16.282490444497878
0.158,10.691002608363112,8.241374242802708,2.194947833375315,-5.75294521580342,-19.42189956693905,-28.53234129518358,-6.586101141706403,16.091981517164093
0.159,10.67355097901114,8.30653046959321,2.2638395346657925,-5.667933456237996,-19.365256858779752,-28.59984474958753,-6.75787447852221,15.900479934882648
0.16,10.654978126749924,8.371118059789065,2.332008672556622,-5.583063637096164,-19.30817333663307,-28.6662234054246,-6.929266192014371,15.708012896430706
0.161,10.635306275588691,8.435135342940528,2.3994673096498316,-5.498327288563749,-19.25064939422139,-28.731489936524657,-7.1002744788765675,15.514611955185643
0.162,10.614557649536666,8.498580648597839,2.466227508547447,-5.413715940826579,-19.19268542526707,-28.795657016717577,-7.270897535802475,15.320308664524836
0.163,10.59275447260307,8.561452306311244,2.532301331851495,-5.329221124070485,-19.134281823492472,-28.858737319833228,-7.441133559485773,15.125134577825666
0.164,10.569918968797126,8.623748645630997,2.597700842164003,-5.244834368481292,-19.075438982619975,-28.92074351970147,-7.610980746620139,14.929121248465512
0.165,10.546073362128054,8.68546799610734,2.6624381020869974,-5.160547204244829,-19.016157296371944,-28.981688290152178,-7.7804372938992525,14.73230022982175
0.166,10.52123987660508,8.746608687290516,2.726525174222505,-5.076351161546925,-18.95643715847075,-29.041584305015217,-7.949501398016792,14.534703075271757
0.167,10.495440736237427,8.80716904873078,2.7899741211725515,-4.992237770573407,-18.89627896263875,-29.100444238120463,-8.118171255666432,14.336361338192916
0.168,10.468698165034317,8.86714740997837,2.8527970055391654,-4.908198561510105,-18.835683102598324,-29.15828076329777,-8.286445063541855,14.137306571962599
0.169,10.441034387004974,8.926542100583537,2.9150058899243714,-4.824225064542843,-18.77464997207183,-29.21510655437702,-8.454321018336737,13.937570329958186
0.17,10.41247162615862,8.985351450096529,2.976612836930198,-4.740308809857454,-18.713179964781652,-29.270934285188076,-8.621797316744756,13.73718416555706
0.171,10.383032106504478,9.043573788067592,3.0376299091586705,-4.656441327639763,-18.65127347445014,-29.325776629560803,-8.788872155459593,13.536179632136596
0.17200000000000001,10.352738052051775,9.101207444046969,3.0980691692118167,-4.572614148075599,-18.588930894799674,-29.379646261325078,-8.955543731174924,13.334588283074172
0.17300000000000001,10.321611686809726,9.15825074758491,3.1579426796916623,-4.48881880135079,-18.526152619552615,-29.432555854310763,-9.121810240584423,13.132441671747166
0.17400000000000002,10.28967523478756,9.214702028231661,3.2172625032002347,-4.405046817651164,-18.46293904243134,-29.48451808234773,-9.287669880381777,12.929771351532956
0.17500000000000002,10.256950919994502,9.270559615537469,3.2760407023395595,-4.32128972716255,-18.39929055715821,-29.535545619265843,-9.453120847260658,12.72660887580892
0.176,10.223460966439768,9.325821839052578,3.334289339711664,-4.237539060070777,-18.335207557455597,-29.58565113889497,-9.61816133791474,12.522985797952446
0.177,10.189227598132586,9.38048702832724,3.3920204779185767,-4.1537863465616685,-18.270690437045864,-29.634847315064988,-9.782789549037712,12.318933671340895
0.178,10.154273039082176,9.434553512911696,3.4492461795623224,-4.070023116821057,-18.205739589651383,-29.683146821605753,-9.947003677323249,12.114484049351653
0.179,10.118619513297764,9.488019622356195,3.5059785072449277,-3.9862409010347677,-18.140355408994523,-29.730562332347144,-10.110801919465027,11.909668485362099
0.18,10.082289244788571,9.540883686210986,3.5622295235684205,-3.9024312293886307,-18.07453828879765,-29.777106521119027,-10.274182472156724,11.704518532749614
0.181,10.04530445756382,9.593144034026313,3.618011291134827,-3.8185856320684732,-18.00828862278313,-29.822792061751265,-10.437143532092021,11.499065744891572
0.182,10.007687375632734,9.64479899535242,3.673335872546173,-3.7346956392601234,-17.94160680467334,-29.867631628073735,-10.599683295964589,11.293341675165351
0.183,9.969460223004539,9.695846899739562,3.728215330404486,-3.65075278114941,-17.87449322819064,-29.911637893916296,-10.761799960468116,11.08737787694833
0.184,9.930645223688453,9.746286076737976,3.782661727311793,-3.56674858792216,-17.8069482870574,-29.954823533108826,-10.923491722296273,10.881205903617893
0.185,9.891264601693702,9.796114855897914,3.83668712587012,-3.4826745897642026,-17.73897237499599,-29.997201219481184,-11.08475677814274,10.674857308551406
0.186,9.85134058102951,9.845331566769623,3.890303588681494,-3.3985223168613654,-17.670565885728774,-30.038783626863243,-11.245593324701197,10.46836364512626
0.187,9.810895385705097,9.893934538903348,3.9435231783479416,-3.314283299399476,-17.601729212978128,-30.07958342908487,-11.405999558665322,10.261756466719827
0.188,9.769951239729687,9.941922101849336,3.9963579574714903,-3.229949067564364,-17.532462750466408,-30.11961329997594,-11.565973676728792,10.055067326709484
0.189,9.728530367112505,9.989292585157832,4.048819988654166,-3.145511151541856,-17.462766891915994,-30.158885913366312,-11.725513875585282,9.848327778472612
0.19,9.686654991862774,10.036044318379085,4.100921334497995,-3.06096108151778,-17.392642031049245,-30.19741394308586,-11.884618351928477,9.64156937538659
0.191,9.644347337989712,10.082175631063341,4.1526740576050045,-2.976290387677965,-17.32208856158854,-30.235210062964452,-12.043285302452048,9.43482367082879
0.192,9.601629629502547,10.127684852760847,4.20409022057722,-2.8914906002082392,-17.25110687725624,-30.27228694683195,-12.201512923849682,9.2281222181766
0.193,9.5585240904105,10.172570313021849,4.255181886016672,-2.80655324929443,-17.17969737177471,-30.308657268518232,-12.35929941281505,9.021496570807393
0.194,9.515052944722795,10.216830341396594,4.305961116525382,-2.721469865122365,-17.107860438866332,-30.34433370185316,-12.516642966041832,8.814978282098544
0.195,9.471238416448655,10.260463267435329,4.35643997470538,-2.636231977877874,-17.035596472253456,-30.379328920666605,-12.673541780223706,8.608598905427437
0.196,9.427102729597303,10.303467420688298,4.406630523158694,-2.5508311177467844,-16.96290586565846,-30.413655598788434,-12.829994052054353,8.402389994171447
0.197,9.38266810817796,10.345841130705752,4.456544824487348,-2.4652588149149235,-16.88978901280371,-30.447326410048518,-12.985997978227445,8.196383101707951
0.198,9.337956776199853,10.387582727037934,4.506194941293368,-2.3795065995681193,-16.81624630741158,-30.480354028276725,-13.141551755436668,7.990609781414334
0.199,9.292990957672199,10.428690539235093,4.555592936178782,-2.2935660018922013,-16.742278143204423,-30.51275112730292,-13.296653580375693,7.785101586667967
0.2,9.247792876604228,10.469162896847475,4.604750871745619,-2.207428552072997,-16.66788491390463,-30.544530380956974,-13.451301649738205,7.579890070846231
0.201,9.202384757005156,10.508998129425326,4.653680810595901,-2.121085780296333,-16.593067013234553,-30.575704463068753,-13.605494160217876,7.375006787326504
0.202,9.156788822884213,10.548194566518891,4.702394815331658,-2.03452921674804,-16.517824834916556,-30.606286047468128,-13.75922930850839,7.170483289486164
0.203,9.111027298250615,10.586750537678421,4.7509049485549175,-1.9477503916139443,-16.442158772673025,-30.636287807984964,-13.912505291303418,6.966351130702591
0.20400000000000001,9.065122407113591,10.624664372454161,4.799223272867703,-1.8607408350798744,-16.36606922022631,-30.665722418449135,-14.065320305296645,6.76264186435316
0.20500000000000002,9.019096373482363,10.661934400396353,4.847361850872043,-1.7734920773316587,-16.289556571298792,-30.694602552690508,-14.217672547181746,6.559387043815252
0.20600000000000002,8.972971421366148,10.698558951055253,4.895332745169965,-1.6859956485551244,-16.21262121961283,-30.722940884538954,-14.369560213652399,6.356618222466244
0.20700000000000002,8.926769774774177,10.734536353981099,4.943148018363493,-1.5982430789361004,-16.135263558890806,-30.750750087824326,-14.520981501402284,6.154366953683514
0.20800000000000002,8.88051365771567,10.76986493872414,4.990819733054656,-1.5102258986604153,-16.05748398285507,-30.778042836376514,-14.671934607125074,5.952664790844441
0.209,8.834225294199848,10.804543034834625,5.03835995184548,-1.4219356379138988,-15.979282885228002,-30.80483180402537,-14.82241772751445,5.751543287326408
0.21,8.787926908235935,10.8385689718628,5.085780737337991,-1.3333638268823735,-15.900660659731969,-30.831129664600773,-14.972429059264098,5.551033996506784
0.211,8.741640369726005,10.871941385025517,5.1330939873069426,-1.2445025215230399,-15.821617510641902,-30.85694870905299,-15.121966415701577,5.351167360717957
0.212,8.695378301955262,10.904666891253703,5.180307295477673,-1.1553575069889364,-15.742148695289922,-30.882291230395477,-15.271017599513456,5.151944810148976
0.213,8.64914342438083,10.9367606564995,5.227423645612116,-1.0659492734432956,-15.662244172457122,-30.907148813092952,-15.419559691230422,4.9533367007826214
0.214,8.602937970716134,10.968238266010822,5.274445795371687,-0.9762990322720779,-15.581893641051577,-30.931512516398076,-15.567569245503726,4.755311864534468
0.215,8.556764174674617,10.99911530503557,5.321376502417804,-0.8864279948612439,-15.501086799981369,-30.95537339956349,-15.715022816984614,4.55783913332009
0.216,8.510624269969703,11.029407358821661,5.368218524411884,-0.7963573725967533,-15.419813348154566,-30.978722521841853,-15.861896960324335,4.360887339055061
0.217,8.464520490314829,11.059130012616997,5.414974619015346,-0.7061083768645668,-15.33806298447925,-31.001550942485817,-16.00816823017414,4.164425313654957
0.218,8.41845506942343,11.08829885166949,5.4616475438896055,-0.6157022190506443,-15.255825407863497,-31.023849720748036,-16.15381318118527,3.968421889035352
0.219,8.372430241008932,11.116929461227045,5.5082400566960805,-0.5251601105409462,-15.173090317215381,-31.04560991588116,-16.29880836800898,3.77284589711182
0.22,8.326448238784774,11.145037426537572,5.554754915096188,-0.43450326272143286,-15.089847411442978,-31.066822587137846,-16.443130345296517,3.577666169799935
0.221,8.280511296464384,11.172638332848978,5.601194876751345,-0.34375288697806433,-15.006086389454367,-31.087478793770746,-16.586755667699133,3.3828515390152725
0.222,8.234621647761196,11.199747765409171,5.647562699322968,-0.25293019469680106,-14.921796950157619,-31.107569595032516,-16.72966088986807,3.188370836673406
0.223,8.188781526388645,11.22638130946606,5.6938611404724755,-0.16205639726360294,-14.836968792460814,-31.1270860501758,-16.871822566454583,2.99419289468991
0.224,8.142993166060162,11.25255455026755,5.740092957861283,-0.07115270606443067,-14.751591615272028,-31.14601921845326,-17.013217252109918,2.80028654498036
0.225,8.097258800489177,11.278283073061557,5.78626090915081,0.01975966751475594,-14.665655117499336,-31.16436015911755,-17.153821501485314,2.606620619460329
0.226,8.051580663389128,11.303582463095983,5.832367752002472,0.1106595120879962,-14.579148998050815,-31.182099931421316,-17.29361186923203,2.413163950045392
0.227,8.005960988473445,11.328468305618733,5.8784162440776875,0.20152561626933027,-14.49206295583454,-31.199229594617215,-17.432564910001314,2.219885368651124
0.228,7.960402009455558,11.352956185877723,5.924409143037873,0.2923367686727975,-14.404386689758585,-31.2157402079579,-17.57065717844442,2.026753707193098
0.229,7.914905960048905,11.377061689120854,5.970349206544445,0.38307175791243814,-14.31610989873103,-31.231622830696026,-17.70786522921258,1.83373779758689
0.23,7.869475073966916,11.40080040059604,6.016239192258823,0.4737093726022914,-14.227222281659952,-31.24686852208424,-17.844165616957053,1.6408064717480737
0.231,7.824111584923021,11.424187905551184,6.062081857842423,0.5642284013563975,-14.137713537453424,-31.261468341375206,-17.979534896329092,1.447928561592224
0.232,7.778817726630657,11.4472397892342,6.10787996095666,0.6546076327887957,-14.047573365019524,-31.275413347821566,-18.11394962197993,1.2550728990349138
0.233,7.733595732803256,11.46997163689299,6.153636259262954,0.7448258555135264,-13.956791463266326,-31.28869460067598,-18.247386348560834,1.0622083159917197
0.234,7.688447837154248,11.492399033775465,6.19935351042272,0.8348618581446288,-13.865357531101907,-31.301303159191097,-18.379821630723036,0.8693036443782152
0.23500000000000001,7.643376273397068,11.514537565129535,6.2450344720973785,0.9246944292961429,-13.773261267434345,-31.313230082619572,-18.5112320231178,0.6763277161099734
0.23600000000000002,7.598383275245148,11.536402816203104,6.290681901948344,1.014302357582108,-13.680492371171711,-31.324466430214063,-18.641594080396363,0.48324936310257105
0.23700000000000002,7.55347107641192,11.558010372244084,6.3362985576370345,1.1036644316165647,-13.587040541222088,-31.335003261227214,-18.770884357209972,0.29003741727158056
0.23800000000000002,7.508641910610819,11.57937581850038,6.3818871968248665,1.1927594400135524,-13.492895476493548,-31.34483163491169,-18.89907940820989,0.09666071053257803
0.23900000000000002,7.463898011555274,11.600514740219902,6.42745057717326,1.2815661713871105,-13.398046875894167,-31.353942610520125,-19.02615578804735,-0.09691192519886371
0.24,7.419241612958722,11.621442722650556,6.472991456343627,1.3700634143512767,-13.302484438332023,-31.362327247305192,-19.1520900513736,-0.29071165800716336
0.241,7.374674948534593,11.642175351040251,6.51851259199739,1.4582299575200954,-13.206197862715191,-31.369976604519536,-19.276858752839903,-0.4847696559767578
0.242,7.3302002519963185,11.662728210636898,6.564016741795963,1.5460445895076036,-13.109176847951746,-31.376881741415808,-19.4004384470975,-0.6791170871920682
0.243,7.285819757057333,11.683116886688403,6.609506663400765,1.633486098927842,-13.011411092949762,-31.383033717246665,-19.522805688797636,-0.8737851197375185
0.244,7.24153569743107,11.703356964442671,6.654985114473212,1.7205332743948498,-12.912890296617324,-31.38842359126476,-19.64393703259156,-1.0688049216975348
0.245,7.19735030683096,11.723464029147616,6.7004548526747225,1.8071649045226663,-12.8136041578625,-31.393042422722743,-19.763809033130524,-1.2642076611565438
0.246,7.153265818970437,11.743453666051142,6.745918635666712,1.8933597779253322,-12.713542375593368,-31.39688127087327,-19.88239824506578,-1.4600245061989696
0.247,7.109284467562933,11.76334146040116,6.791379221110599,1.9790966832168868,-12.612694648718007,-31.39993119496899,-19.999681223048565,-1.6562866249092394
0.248,7.065408486321881,11.783142997445573,6.8368393666678005,2.0643544090113695,-12.511050676144487,-31.402183254262567,-20.115634521730136,-1.8530251853717765
0.249,7.021640108960715,11.802873862432294,6.882301829999734,2.1491117439228207,-12.408600156780892,-31.40362850800664,-20.230234695761744,-2.0502713556710077
0.25,6.977981569192865,11.822549640609232,6.927769368767816,2.2333474765652794,-12.30533278953529,-31.404258015453873,-20.343458299794634,-2.2480563038913597
0.251,6.934435100731766,11.84218591722429,6.973244740633464,2.317040395552786,-12.201238273315765,-31.404062835856912,-20.455281888480044,-2.4464111981172567
0.252,6.891002937290848,11.86179827752538,7.018730703258094,2.4001692894993805,-12.096306307030387,-31.403034028468415,-20.565682016469236,-2.6453672064331233
0.253,6.847687312583548,11.881402306760409,7.064230014303125,2.482712947019101,-11.990526589587235,-31.401162652541032,-20.674635238413458,-2.844955496923388
0.254,6.8044904603232945,11.901013590177286,7.1097454314299755,2.5646501567259894,-11.883888819894384,-31.39843976732742,-20.782118108963953,-3.045207237672474
0.255,6.761414614223522,11.920647713023914,7.155279712300059,2.645959707234084,-11.77638269685991,-31.394856432080225,-20.888107182771968,-3.2461535967648065
0.256,6.718462007997664,11.940320260548209,7.200835614574795,2.7266203871574257,-11.66799791939189,-31.390403706052112,-20.99257901448876,-3.447825742284814
0.257,6.675634875359149,11.960046817998075,7.2464158959156,2.806610985110053,-11.5587241863984,-31.385072648495726,-21.09551015876557,-3.6502548423169197
0.258,6.6329354500214155,11.97984297062142,7.292023313983892,2.8859102897060067,-11.448551196787513,-31.37885431866372,-21.196877170253646,-3.8534720649455494
0.259,6.5903659656978935,11.999724303666152,7.337660626441086,2.964497089559326,-11.337468649467311,-31.37173977580874,-21.29665660360424,-4.057508578255128
0.26,6.547928656102013,12.01970640238018,7.383330590948603,3.0423501732840506,-11.225466243345867,-31.363720079183462,-21.394825013468605,-4.262395550330083
0.261,6.5056257549472125,12.039804852011413,7.429035965167858,3.1194483294942206,-11.112533677331257,-31.354786288040515,-21.49135895449798,-4.468164149254839
0.262,6.46345949594692,12.060035237807758,7.474779506760267,3.195770346803874,-10.998660650331557,-31.344929461632567,-21.586234981343612,-4.674845543113821
0.263,6.421432112814569,12.080413145017122,7.52056397338725,3.271295013827054,-10.883836861254844,-31.33414065921226,-21.679429648656765,-4.882470899991456
0.264,6.379543630763442,12.100951612614647,7.566391346069155,3.3460053733746626,-10.768054634856238,-31.322411587592473,-21.77092564809831,-5.091063347307253
0.265,6.337779791467383,12.121647211481752,7.612258582877472,3.4199119824004556,-10.651323278633551,-31.3097381417007,-21.860745362618758,-5.300594009244805
0.266,6.296120653594475,12.14248996032335,7.658160643398136,3.4930363449370345,-10.533658857024992,-31.29611788279369,-21.948926967180718,-5.511013319409532
0.267,6.254546261254817,12.163469861059841,7.704092482097616,3.565399993059802,-10.415077451777815,-31.28154837639681,-22.035508677200735,-5.722271658404416
0.268,6.213036658558508,12.184576915611625,7.7500490534423845,3.637024458844161,-10.295595144639282,-31.26602718803539,-22.12052870809532,-5.934319406832448
0.269,6.171571889615647,12.205801125899104,7.796025311898913,3.707931274365514,-10.175228017356643,-31.249551883234773,-22.20402527528102,-6.147106945296614
0.27,6.130131998536333,12.227132493842678,7.8420162119336725,3.7781419716992644,-10.053992151677159,-31.232120027520306,-22.286036594174355,-6.3605846543999
0.271,6.088697029430664,12.248561021362743,7.888016708013135,3.8476780829208126,-9.931903629348087,-31.21372918641734,-22.366600880191868,-6.574702914745292
0.272,6.047247026408739,12.270076710379705,7.934021754603772,3.9165611401055633,-9.808978532116681,-31.194376925451206,-22.445756348750088,-6.789412106935777
0.273,6.005762033580656,12.29166956281396,7.9800263061720536,3.984812675328919,-9.685232941730202,-31.17406081014725,-22.52354121526554,-7.004662611574345
0.274,5.964222095056515,12.31332958058591,8.026025317184455,4.05245422066628,-9.560682939935901,-31.152778406030823,-22.599993695154758,-7.220404809263979
0.275,5.922607254946415,12.335046765615955,8.072013742107442,4.119507308193052,-9.435344608481042,-31.13052727862727,-22.67515200383428,-7.436589080607665
0.276,5.880897557360454,12.356811119824496,8.117986535407493,4.185993469984636,-9.309234029112877,-31.107304993461923,-22.749054356720627,-7.653165806208394
0.277,5.839073046408731,12.378612645131932,8.163938651551073,4.251934238116435,-9.182367283578667,-31.08310911606014,-22.821738969230342,-7.870085366669148
0.278,5.7971137662013446,12.400441343458665,8.209865045004657,4.317351144663852,-9.054760453625665,-31.057937211947255,-22.89324405677995,-8.087298142592918
0.279,5.754999760848394,12.422287216725092,8.255760670234716,4.3822657217022885,-8.926429621001128,-31.031786846648618,-22.96360783478598,-8.304754514582688
0.28,5.712711074459978,12.444140266851615,8.301620481707722,4.4466995013071475,-8.797390867452314,-31.004655585689573,-23.03286851866497,-8.522404863241446
0.281,5.670227751146195,12.465990495758636,8.347439433890145,4.510674015553833,-8.667660274726481,-30.976540994595457,-23.101064323833448,-8.740199569172178
0.28200000000000003,5.627529835017143,12.487827905366553,8.393212481248458,4.574210796517746,-8.537253924570885,-30.94744063889162,-23.168233465707942,-8.95808901297787
0.28300000000000003,5.584597370182922,12.509642497595767,8.438934578249134,4.637331376274289,-8.406187898732783,-30.91735208410341,-23.234414159704997,-9.176023575261512
0.28400000000000003,5.541410400753631,12.531424274366676,8.484600679358639,4.700057286898866,-8.274478278959432,-30.88627289575616,-23.299644621241132,-9.393953636626089
0.28500000000000003,5.497948970839368,12.553163237599684,8.53020573904345,4.762410060466879,-8.142141146998085,-30.854200639375225,-23.36396306573288,-9.611829577674587
0.28600000000000003,5.454193124550232,12.574849389215192,8.575744711770035,4.82441122905373,-8.009192584596006,-30.82113288048594,-23.42740770859678,-9.82960177900999
0.28700000000000003,5.410122905996322,12.596472731133593,8.621212552004868,4.886082324734822,-7.8756486735004465,-30.78706718461365,-23.49001676524935,-10.04722062123529
0.28800000000000003,5.365718359287737,12.618023265275294,8.666604214214418,4.947444879585558,-7.741525495458665,-30.752001117283708,-23.551828451107134,-10.26463648495347
0.289,5.320959528534576,12.639490993560692,8.711914652865158,5.008520425681337,-7.606839132217929,-30.715932244021452,-23.61288098158666,-10.48179975076751
0.29,5.275826457846938,12.660865917910188,8.75713882242356,5.069330495097569,-7.471605665525475,-30.67885813035222,-23.67321257210446,-10.698660799280413
0.291,5.230299191334917,12.682138040244185,8.802271677356096,5.129896619909652,-7.33584117712857,-30.640776341801367,-23.732861438077066,-10.91517001109516
0.292,5.1843577731086175,12.70329736248308,8.847308172129235,5.19024033219299,-7.199561748774471,-30.60168444389423,-23.791865794921005,-11.131277766814735
0.293,5.137982247278137,12.724333886547274,8.892243261209453,5.250383164022983,-7.062783462210434,-30.561580002156152,-23.850263858052816,-11.346934447042127
0.294,5.091152657953573,12.745237614357169,8.937071899063216,5.310346647475037,-6.925522399183716,-30.520460582112477,-23.908093842889027,-11.56209043238032
0.295,5.043849049245025,12.76599854783316,8.981789040157,5.370152314624552,-6.787794641441575,-30.47832374928856,-23.965393964846164,-11.7766961034323
0.296,4.9960514652625925,12.786606688895652,9.026389638957273,5.4298216975469344,-6.649616270731268,-30.43516706920973,-24.02220243934077,-11.990701840801057
0.297,4.9477399501163735,12.807052039465045,9.070868649930507,5.489376328317581,-6.51100336880005,-30.39098810740134,-24.078557481789364,-12.204058025089575
0.298,4.898894547916465,12.827324601461736,9.115221027543178,5.5488377390118995,-6.37197201739518,-30.345784429388733,-24.13449730760849,-12.416715036900843
0.299,4.849495302772971,12.84741437680613,9.159441726261752,5.608227461705289,-6.232538298263914,-30.299553600697248,-24.190060132214672,-12.628623256837848
0.3,4.799522258795985,12.867311367418624,9.203525700552703,5.6675670284731545,-6.092718293153509,-30.25229318685224,-24.245284171024444,-12.839733065503575
0.301,4.748955460095607,12.887005575219618,9.247467904882502,5.726877971390898,-5.95252808381122,-30.204000753379034,-24.300207639454335,-13.04999484350101
0.302,4.697774950781938,12.906487002129513,9.29126329371762,5.786181822533922,-5.8119837519843065,-30.154673865802994,-24.35486875292088,-13.25935897143314
0.303,4.645960774965075,12.92574565006871,9.334906821524529,5.8455001139776295,-5.671101379420025,-30.104310089649452,-24.40930572684061,-13.467775829902955
0.304,4.593492976755116,12.944771520957605,9.378393442769703,5.904854377797421,-5.5298970478656315,-30.052906990443756,-24.463556776630053,-13.675195799513439
0.305,4.540351600262163,12.963554616716607,9.421718111919606,5.964266146068703,-5.388386839068383,-30.000462133711252,-24.517660117705745,-13.88156926086758
0.306,4.486516689596312,12.982084939266107,9.46487578344072,6.023756950866875,-5.2465868347755364,-29.946973084977284,-24.571653965484217,-14.086846594568366
0.307,4.431968288867661,13.000352490526513,9.507861411799508,6.08334832426734,-5.104513116734349,-29.892437409767187,-24.625576535381995,-14.290978181218778
0.308,4.376686442186311,13.018347272418218,9.550669951462448,6.143061798345502,-4.962181766692078,-29.836852673606312,-24.679466042815616,-14.493914401421804
0.309,4.320651193662361,13.036059286861626,9.593296356896003,6.202918905176762,-4.8196088663959795,-29.780216442020002,-24.733360703201615,-14.695605635780437
0.31,4.2638425874059065,13.053478535777138,9.635735582566653,6.262941176836525,-4.676810497593311,-29.722526280533604,-24.787298731956515,-14.89600226489766
0.311,4.20624066752705,13.07059502108515,9.677982582940865,6.32315014540019,-4.5338027420313285,-29.66377975467246,-24.841318344496855,-15.095054669376461
0.312,4.147825478135887,13.08739874470607,9.720032312485113,6.383567342943163,-4.390601681457289,-29.603974429961912,-24.89545775623916,-15.292713229819823
0.313,4.088577063342522,13.103879708560292,9.761879725665867,6.4442143015408435,-4.24722339761845,-29.543107871927308,-24.94975518259997,-15.488928326830735
0.314,4.028475467257046,13.120027914568215,9.8035197769496,6.5051125532686385,-4.103683972262069,-29.48117764609399,-25.004248838995803,-15.683650341012182
0.315,3.967500733989565,13.135833364650246,9.84494742080278,6.566283630201946,-3.959999487135402,-29.418181317987294,-25.058976940843213,-15.87682965296716
0.316,3.9056329697423324,13.151286061529214,9.886157620340905,6.627749003329442,-3.816186001551456,-29.354116431641746,-25.11397765384949,-16.068416694963386
0.317,3.842863836650849,13.166376157269033,9.927146948343795,6.689518774826809,-3.672255399599027,-29.28897653144698,-25.16927989237032,-16.25837151456145
0.318,3.779210031633686,13.18109412746622,9.967915464769366,6.751578417464095,-3.528210520157815,-29.22274649695875,-25.224892528625702,-16.446674989900124
0.319,3.7146915260007085,13.195430490033317,10.008463685676373,6.8139101826408695,-3.3840530190513793,-29.15541007442732,-25.28082181345109,-16.63331072362607
0.32,3.6493282910617832,13.209375762882864,10.048792127123573,6.876496321756699,-3.2397845521032766,-29.08695101010299,-25.3370739976819,-16.818262318385944
0.321,3.5831402981267733,13.222920463927402,10.08890130516972,6.939319086211151,-3.095406775137065,-29.017353050236025,-25.393655332153575,-17.00151337682641
0.322,3.516147518505546,13.236055111079473,10.128791735873572,7.002360727403792,-2.950921343976302,-28.946599941076723,-25.45057206770154,-17.183047501594114
0.323,3.448369923507965,13.248770222251615,10.168463935293879,7.065603496734188,-2.806329914444546,-28.87467542887535,-25.507830455161226,-17.362848295335727
0.324,3.379827484443896,13.261056315356369,10.207918419489403,7.129029645601908,-2.661634142365355,-28.801563259882187,-25.565436745368075,-17.5408993606979
0.325,3.3105401726232038,13.272903908306272,10.247155704518896,7.192621425406518,-2.5168356835622863,-28.72724718034752,-25.623397189157508,-17.717184300327293
0.326,3.240527959355754,13.284303519013875,10.28617630644111,7.256361087547583,-2.371936193858898,-28.651710936521624,-25.681718037364952,-17.891686716870563
0.327,3.1698108159514122,13.295245665391707,10.324980741314807,7.320230883424671,-2.226937329078748,-28.57493827465478,-25.740405540825858,-18.064390212974374
0.328,3.098408713720042,13.305720865352315,10.36356952519874,7.3842130644373505,-2.081840745045395,-28.496912940997273,-25.799465950375644,-18.235278391285377
0.329,3.0263416239715095,13.315719636808238,10.401943174151663,7.448289881985186,-1.936648097582395,-28.417618681799382,-25.858905516849745,-18.404334854450234
0.33,2.9536295180156795,13.325232497672017,10.440102204232332,7.512443587467747,-1.7913610425133069,-28.33703924331138,-25.918730491083597,-18.5715432051156
0.331,2.880292367162418,13.33424996585619,10.478047131499503,7.576656432284598,-1.6459812356616887,-28.25515837178356,-25.978947123912626,-18.736887045928135
0.332,2.80635014272159,13.342762559273302,10.515778472011933,7.640910667835307,-1.5005103328510982,-28.171959813466188,-26.039561666172272,-18.9003499795345
0.333,2.731822816003059,13.350760795835887,10.553296741828373,7.705188545519442,-1.3549499899050934,-28.087427314609553,-26.100580368697955,-19.061915608581344
0.334,2.6567303583166924,13.358235193456496,10.590602457007583,7.769472316736568,-1.2093018626472318,-28.001544621463932,-26.16200948232511,-19.22156753571534
0.335,2.581092740972354,13.365176270047659,10.627696133608316,7.833744232886251,-1.0635676069010715,-27.91429548027961,-26.22385525788918,-19.379289363583133
0.336,2.5049299352799097,13.37157454352192,10.664578287689329,7.897986545368062,-0.9177488784901702,-27.82566363730686,-26.28612394622559,-19.535064694831387
0.337,2.4282619125492237,13.37742053179182,10.701249435309377,7.962181505581565,-0.7718473332380859,-27.735632838795965,-26.348821798169766,-19.68887713210676
0.338,2.3511086440901616,13.382704752769902,10.737710092527212,8.026311364926327,-0.6258646269683764,-27.644186830997214,-26.411955064557148,-19.840710278055912
0.339,2.2734901012125888,13.387417724368705,10.773960775401596,8.090358374801916,-0.4798024155046,-27.55130936016087,-26.475529996223162,-19.990547735325503
0.34,2.19542625522637,13.391549964500765,10.810001999991277,8.154304786607897,-0.3336623546703138,-27.45698417253723,-26.53955284400325,-20.138373106562177
0.341,2.1169370774413716,13.39509199107863,10.845834282355018,8.218132851743837,-0.1874461002890759,-27.361195014376563,-26.604029858732837,-20.284169994412604
0.342,2.038042539167457,13.398034322014833,10.881458138551569,8.281824821609307,-0.041155308184444336,-27.26392563192915,-26.668967291247345,-20.42792200152345
0.343,1.9587626117144925,13.400367475221922,10.916874084639687,8.345362947603867,0.10520836582002308,-27.16515977144528,-26.734371392382226,-20.56961273054136
0.34400000000000003,1.8791172663923423,13.40208196861243,10.952082636678128,8.408729481127091,0.25164326590076846,-27.064881179175227,-26.800248412972902,-20.709225784112988
0.34500000000000003,1.7991264745108728,13.403168320098903,10.987084310725647,8.471906673578543,0.3981477362342345,-26.96307360136927,-26.8666046038548,-20.846744764885006
0.34600000000000003,1.7188102073799483,13.40361704759388,11.021879622840999,8.534876776357786,0.5447201209968617,-26.85972078427769,-26.933446215863363,-20.982153275504064
0.34700000000000003,1.638188436309434,13.403418669009904,11.056469089082942,8.597622040864394,0.6913587643650945,-26.75480647415077,-27.00077949983401,-21.115434918616828
0.34800000000000003,1.5572811326091953,13.402563702259508,11.090853225510228,8.66012471849793,0.8380620105153728,-26.648314417238787,-27.06861070660219,-21.246573296869943
0.34900000000000003,1.4761082675890969,13.401042665255241,11.125032548181613,8.722367060657959,0.9848282036241405,-26.540228359792025,-27.13694608700332,-21.37555201291008
0.35000000000000003,1.3946898125590048,13.398846075909638,11.159007573155854,8.784331318744053,1.131655687867838,-26.430532048060762,-27.20579189187283,-21.50235466938389
0.35100000000000003,1.3130457388287833,13.395964452135244,11.192778816491707,8.845999744155774,1.27854280742291,-26.319209228295275,-27.27515437204617,-21.62696486893804
0.352,1.2311960177083028,13.392388311844593,11.226346794247922,8.907354588292689,1.4254879064657873,-26.206243646745857,-27.345039778358753,-21.74936621421917
0.353,1.1491606205074185,13.388108172950233,11.259712022483262,8.968378102554372,1.572489329172931,-26.091619049662768,-27.41545436164602,-21.869542307873953
0.354,1.066959518536001,13.3831145533647,11.292875017256478,9.029052538340382,1.7195454197207733,-25.975319183296303,-27.486404372743408,-21.987476752549046
0.355,0.9846126831039147,13.377397971000535,11.325836294626328,9.089360147050288,1.8666545222857578,-25.857327793896737,-27.55789606248634,-22.10315315089111
0.356,0.9021400855210254,13.37094894377028,11.358596370651565,9.149283180083659,2.013814981044325,-25.73762862771435,-27.62993568171025,-22.216555105546796
0.357,0.8195616970971981,13.363757989586476,11.391155761390944,9.20880388884006,2.161025140172919,-25.61620543099943,-27.702529481250576,-22.327666219162765
0.358,0.736897489142297,13.35581562636166,11.423514982903223,9.267904524719059,2.3082833438479797,-25.49304195000224,-27.775683711942737,-22.43647009438567
0.359,0.6541674329661888,13.347112372008374,11.455674551247157,9.326567339120222,2.455587936245952,-25.36812193097308,-27.849404624622178,-22.542950333862183
0.36,0.5713914998787374,13.33763874443916,11.487634982481499,9.384774583443116,2.602937261543275,-25.241429120162213,-27.923698470124325,-22.64709054023895
0.361,0.4885896611898089,13.327385261566558,11.519396792665008,9.44250850908731,2.750329663916392,-25.112947263819933,-27.998571499284612,-22.748874316162624
0.362,0.40578188820926747,13.31634244130311,11.550960497856435,9.499751367452369,2.897763487541747,-24.98266010819652,-28.074029962938468,-22.84828526427988
0.363,0.3229881522469793,13.304500801561353,11.58232661411454,9.556485409937858,3.0452370765957792,-24.850551399542237,-28.150080111921326,-22.94530698723737
0.364,0.24022842461280886,13.291850860253827,11.613495657498078,9.612692887943348,3.1927487752549326,-24.716604884107387,-28.226728197068617,-23.039923087681743
0.365,0.15752267661662117,13.278383135293078,11.644468144065799,9.668356052868404,3.3402969276956487,-24.580804308142234,-28.30398046921578,-23.13211716825967
0.366,0.07489087956828194,13.264088144591645,11.675244589876463,9.723457156112591,3.48787987809437,-24.443133417897062,-28.381843179198242,-23.221872831617805
0.367,-0.007646995222344022,13.248956406062064,11.705825510988827,9.777978449075478,3.635495970627538,-24.303575959622155,-28.46032257785143,-23.309173680402797
0.368,-0.09007097644539142,13.232978437616879,11.736211423461643,9.831902183156629,3.7831435494715957,-24.16211567956779,-28.539424916010784,-23.39400331726132
0.369,-0.17236157740266048,13.216144892314011,11.766402579682241,9.885211298321101,3.930820502162669,-24.018738096311314,-28.619154019182623,-23.476347974673832
0.37,-0.25450720353902984,13.198448624121465,11.796394938016993,9.9378999481669,4.078517279621213,-23.87345759166173,-28.699474215177016,-23.556236713278423
0.371,-0.33650268113086357,13.1798842776074,11.826180963334426,9.989971409396718,4.226218282540824,-23.726312029762905,-28.78031769756,-23.633733437529344
0.372,-0.4183430228716338,13.160446549326787,11.855753019075735,10.041429223585926,4.373907735957815,-23.577339956525417,-28.861615726938567,-23.708903063507382
0.373,-0.500023241454813,13.140130135834603,11.88510346868212,10.092276932309886,4.521569864908498,-23.426579917859815,-28.94329956391968,-23.781810507293315
0.374,-0.5815383495738738,13.118929733685809,11.914224675594774,10.142518077143967,4.66918889442919,-23.274070459676658,-29.025300469110338,-23.85252068496793
0.375,-0.6628833599222883,13.096840039435378,11.943109003254897,10.192156199663538,4.816749049556203,-23.11985012788649,-29.107549703117517,-23.921098512612026
0.376,-0.7440532851935289,13.073855749638282,11.971748815103684,10.241194841443962,4.9642345553258505,-22.96395746839989,-29.189978526548202,-23.98760890630637
0.377,-0.8250431380810681,13.049971560849485,12.000136474582334,10.289637544060609,5.111629636774448,-22.806431027127402,-29.272518200009372,-24.05211678213175
0.378,-0.9058479312783783,13.025182169623964,12.028264345132042,10.337487849088845,5.25891851893831,-22.647309349979594,-29.35509998410802,-24.11468705616896
0.379,-0.9864626774789317,12.999482272516685,12.056124790194009,10.384749298104039,5.406085426853746,-22.48663098286701,-29.437655139451113,-24.175384644498784
0.38,-1.066882389376201,12.972866566082615,12.083710173209425,10.431425432681555,5.553114585557076,-22.324434471700222,-29.520114926645654,-24.234274463202
0.381,-1.147102079663658,12.945329746876729,12.111012857619492,10.47751979439676,5.699990220084609,-22.160758362389778,-29.602410606298605,-24.291421428359392
0.382,-1.2271167610347753,12.916866511453993,12.138025206865409,10.523035924825027,5.84669655547266,-21.995641200846244,-29.68447343901696,-24.346890456051753
0.383,-1.306921446183026,12.887471556369377,12.164739584388368,10.567977365541717,5.993217816757546,-21.829121532980167,-29.766234685407703,-24.400746462359866
0.384,-1.3865111478018814,12.857139578177852,12.191148353629568,10.612347658122196,6.139538228975577,-21.661237904702112,-29.84762560607781,-24.45305436336451
0.385,-1.4658808785848148,12.825865273434388,12.217243878030207,10.656150344141837,6.285642017163068,-21.492028861922638,-29.92857746163427,-24.50387907514648
0.386,-1.5450256512252978,12.793643338693954,12.24301852103148,10.699388965176002,6.431513406356334,-21.3215329505523,-30.009021512684054,-24.55328551378655
0.387,-1.623940478416803,12.76046847051152,12.268464646074587,10.742067062800059,6.5771366215916895,-21.149788716501654,-30.088889019834166,-24.60133859536551
0.388,-1.7026203728528035,12.726335365442056,12.293574616600722,10.784188178589377,6.7224958879054455,-20.97683470568126,-30.16811124369157,-24.648103235964157
0.389,-1.7810603472267708,12.69123872004053,12.318340796051084,10.82575585411932,6.867575430333918,-20.80270946400168,-30.24661944486326,-24.693644351663256
0.39,-1.8592554142321776,12.655173230861916,12.342755547866869,10.866773630965259,7.012359473913421,-20.627451537373464,-30.32434488395621,-24.7380268585436
0.391,-1.937200586562496,12.618133594461177,12.366811235489275,10.907245050702558,7.156832243680268,-20.451099471707174,-30.401218821577412,-24.781315672685977
0.392,-2.014890876911199,12.580114507393287,12.390500222359497,10.947173654906587,7.300977964670771,-20.273691812913366,-30.477172518333838,-24.82357571017117
0.393,-2.0923212979717585,12.541110666213218,12.413814871918733,10.98656298515271,7.444780861921249,-20.0952671069026,-30.55213723483248,-24.864871887079968
0.394,-2.1694868624376467,12.501116767475935,12.436747547608183,11.025416583016293,7.588225160468011,-19.915863899585435,-30.62604423168032,-24.90526911949315
0.395,-2.2463825830023363,12.460127507736411,12.459290612869038,11.063737990072708,7.731295085347371,-19.735520736872427,-30.698824769484332,-24.9448323234915
0.396,-2.3230034723593,12.418137583549614,12.481436431142502,11.101530747897316,7.873974861595646,-19.55427616467413,-30.77041010885151,-24.983626415155808
0.397,-2.3993445432020093,12.375141691470514,12.503177365869766,11.13879839806549,8.016248714249148,-19.37216872890111,-30.840731510388828,-25.02171631056686
0.398,-2.475400808223938,12.33113452805408,12.52450578049203,11.175544482152592,8.158100868344192,-19.189236975463913,-30.909720234703276,-25.059166925805442
0.399,-2.551167280118557,12.286110789855286,12.545414038450492,11.211772541733994,8.29951554891709,-19.005519450273106,-30.97730754240183,-25.09604317695233
0.4,-2.6266389715793395,12.240065173429095,12.565894503186344,11.247486118385059,8.440476981004158,-18.821054699239248,-31.04342469409148,-25.132409980088312
0.401,-2.701810895299757,12.19299237533048,12.58593953814079,11.282688753681155,8.580969389641709,-18.635881268272893,-31.108002950379202,-25.168332251294178
0.402,-2.7766780639732835,12.144887092114413,12.605541506755022,11.31738398919765,8.720976999866057,-18.4500377032846,-31.170973571871983,-25.203874906650714
0.403,-2.8512354902933903,12.095744020335859,12.62469277247024,11.351575366509909,8.860484036713515,-18.263562550184925,-31.232267819176805,-25.2391028622387
0.404,-2.925478186953549,12.045557856549792,12.643385698727638,11.385266427193303,8.999474725220395,-18.076494354884424,-31.29181695290065,-25.274081034138923
0.405,-2.9994011666472336,11.99432329731118,12.661612648968413,11.418460712823194,9.13793329042302,-17.88887166329366,-31.3495522336505,-25.308874338432172
0.406,-3.0729994420679154,11.942035039174993,12.679365986633767,11.451161764974954,9.275843957357694,-17.700733021323188,-31.405404922033334,-25.343547691199223
0.40700000000000003,-3.1462680259090674,11.8886877786962,12.696638075164891,11.483373125223943,9.413190951060734,-17.512116974883565,-31.459306278656147,-25.378166008520868
0.40800000000000003,-3.2192019308641613,11.83427621242977,12.713421278002986,11.515098335145538,9.549958496568454,-17.323062069885353,-31.511187564125915,-25.412794206477894
0.40900000000000003,-3.29179616962667,11.778795036930676,12.729707958589248,11.546340936315097,9.686130818917169,-17.133606852239108,-31.560980039049614,-25.44749720115108
0.41000000000000003,-3.364045754890066,11.722238948753883,12.745490480364873,11.577104470307995,9.821692143143192,-16.943789867855383,-31.60861496403424,-25.482339908621213
0.41100000000000003,-3.4359456993478217,11.66460264445437,12.760761206771058,11.607392478699593,9.956626694282837,-16.75364966264474,-31.654023599686763,-25.51738724496908
0.41200000000000003,-3.5074910156934087,11.605880820587092,12.775512501249002,11.637208503065258,10.090918697372416,-16.563224782517736,-31.697137206614173,-25.55270412627546
0.41300000000000003,-3.5786767166202997,11.546068173707031,12.789736727239902,11.66655608498036,10.224552377448248,-16.372553773384933,-31.73788704542345,-25.58835546862115
0.41400000000000003,-3.649497814821968,11.485159400369152,12.80342624818495,11.695438766020265,10.357511959546644,-16.18167518115688,-31.77620437672158,-25.624406188086922
0.41500000000000004,-3.7199493229918845,11.423149197128426,12.81657342752535,11.72386008776034,10.489781668703918,-15.99062755174414,-31.812020461115537,-25.66092120075357
0.41600000000000004,-3.790026253823523,11.360032260539823,12.829170628702295,11.751823591775954,10.62134572995638,-15.799449431057273,-31.84526655921232,-25.697965422701877
0.417,-3.859723620010351,11.295803287158313,12.84121021515698,11.779332819642468,10.752188368340342,-15.608179365006842,-31.8758739316189,-25.735603770012624
0.418,-3.9290364342458495,11.230456973538864,12.852684550330608,11.806391312935254,10.88229380889213,-15.41685589950339,-31.90377383894226,-25.773901158766602
0.419,-3.9979597092234855,11.163988016236441,12.863585997664373,11.83300261322968,11.011646276648053,-15.225517580457481,-31.928897541789386,-25.81292250504459
0.42,-4.0664884576367335,11.096391111806023,12.873906920599472,11.859170262101111,11.140229996644422,-15.034202953779674,-31.95117630076726,-25.852732724927378
0.421,-4.134617692179064,11.027660956802576,12.883639682577101,11.884897801124914,11.268029193917553,-14.842950565380523,-31.970541376482856,-25.89339673449575
0.422,-4.202343784791913,10.957798699615031,12.8927769157447,11.910188794225485,11.395029914124349,-14.651791473204536,-31.986938285929273,-25.934965691898576
0.423,-4.269669475978212,10.886835717775496,12.901312511234288,11.93504691004039,11.521226733178512,-14.46072165140462,-32.000379342353,-25.977426294466927
0.424,-4.336599369846289,10.814812234643297,12.909240728589253,11.959475847848973,11.64661672316697,-14.269726807711097,-32.010896405307676,-26.020746376633443
0.425,-4.403138070737547,10.741768474684049,12.91655582739906,11.983479306934404,11.771196956488824,-14.078792648570335,-32.01852133679146,-26.064893770471727
0.426,-4.469290182993384,10.667744662363361,12.923252067253172,12.007060986579862,11.894964505543177,-13.88790488042871,-32.02328599880249,-26.109836308055385
0.427,-4.5350603109552,10.592781022146845,12.92932370774105,12.030224586068517,12.01791644272914,-13.697049209732587,-32.02522225333893,-26.15554182145802
0.428,-4.600453058964396,10.51691777850011,12.93476500845216,12.052973804683544,12.140049840445807,-13.50621134292834,-32.02436196239893,-26.20197814275324
0.429,-4.665473031362369,10.440195155888768,12.939570228975967,12.075312341708118,12.26136177109229,-13.315376986462342,-32.020736987980634,-26.24911310401465
0.43,-4.730124832490522,10.362653378778429,12.943733628901928,12.097243896425411,12.381849307067682,-13.124531846780961,-32.0143791920822,-26.29691453731585
0.431,-4.794413066690253,10.284332671634703,12.947249467819514,12.1187721681186,12.5015095207711,-12.933661630330572,-32.00532043670177,-26.345350274730443
0.432,-4.858342338302962,10.205273258923201,12.950112005318184,12.139900856070858,12.620339484601638,-12.742752043557546,-31.99359258383751,-26.394388148332034
0.433,-4.921917251670049,10.125515365109536,12.952315500987403,12.160633659565356,12.738336270958404,-12.551788792908253,-31.979227495487553,-26.443995990194235
0.434,-4.985142411132913,10.045099214659317,12.953854214416634,12.18097427788527,12.8554969522405,-12.360757584829065,-31.962257033650054,-26.494141632390644
0.435,-5.048022421032953,9.964065032038153,12.954722405195339,12.200926410313773,12.97181860084703,-12.16964412576635,-31.94271306032317,-26.544792906994868
0.436,-5.110561885711572,9.882453041711658,12.954914332912985,12.220493756134044,13.087298289177099,-11.978434122166483,-31.920627437505047,-26.59591764608051
0.437,-5.172765409510168,9.80030346814544,12.954424257159031,12.239680014629252,13.201933089629811,-11.787113280475836,-31.89603202719384,-26.647483681721162
0.438,-5.23463759677014,9.71765653580511,12.953246437522946,12.258488885082572,13.315720074604267,-11.595667307140777,-31.868958691387693,-26.699458845990453
0.439,-5.296183051832887,9.634552469156283,12.951375133594187,12.276924066777177,13.428656316499573,-11.404081908607683,-31.839439292084766,-26.751810970961973
0.44,-5.357406379039812,9.551031492664563,12.94880460496222,12.294989258996246,13.540738887714829,-11.21234279132292,-31.807505691283207,-26.804507888709324
0.441,-5.418312182732312,9.467133830795566,12.945529111216512,12.312688161022944,13.651964860649144,-11.02043566173286,-31.773189750981164,-26.857517431306114
0.442,-5.478905067251788,9.382899708014902,12.941542911946522,12.330024472140455,13.762331307701622,-10.828346226283877,-31.73652333317678,-26.910807430825948
0.443,-5.53918963693964,9.298369348788178,12.936840266741713,12.347001891631944,13.87183530127136,-10.636060191422338,-31.69753829986822,-26.96434571934243
0.444,-5.599170496137265,9.213582977581009,12.931415435191552,12.363624118780592,13.980473913757468,-10.44356326359462,-31.656266513053627,-27.018100128929166
0.445,-5.658852249186067,9.128580818859005,12.925262676885502,12.37989485286957,14.088244217559046,-10.250841149247092,-31.612739834731155,-27.072038491659757
0.446,-5.718239500427441,9.043403097087774,12.918376251413022,12.39581779318205,14.1951432850752,-10.057879554826124,-31.566990126898954,-27.126128639607806
0.447,-5.777336854202791,8.95809003673293,12.91075041836358,12.411396639001211,14.301168188705033,-9.864664186778088,-31.519049251555174,-27.180338404846925
0.448,-5.836148914853516,8.87268186226008,12.902379437326639,12.42663508961022,14.40631600084765,-9.671180751549356,-31.468949070697967,-27.23463561945071
0.449,-5.894680286721014,8.78721879813484,12.893257567891661,12.441536844292258,14.510583793902152,-9.477414955586298,-31.416721446325486,-27.28898811549277
0.45,-5.952935574146684,8.701741068822816,12.883379069648111,12.456105602330496,14.613968640267645,-9.283352505335287,-31.362398240435876,-27.343363725046707
0.451,-6.010919381471929,8.61628889878962,12.87273820218545,12.470345063008107,14.716467612343228,-9.088979107242695,-31.306011315027288,-27.397730280186124
0.452,-6.068636313038147,8.530902512500862,12.861329225093144,12.484258925608268,14.818077782528013,-8.894280467754893,-31.247592532097876,-27.45205561298463
0.453,-6.126090973186738,8.445622134422157,12.849146397960654,12.49785088941415,14.9187962232211,-8.699242293318246,-31.18717375364579,-27.506307555515832
0.454,-6.183287966259102,8.360487989019111,12.836183980377443,12.511124653708926,15.018620006821587,-8.503850290379136,-31.12478684166918,-27.560453939853325
0.455,-6.240231896596638,8.275540300757335,12.82243623193298,12.524083917775773,15.117546205728587,-8.308090165383927,-31.0604636581662,-27.614462598070716
0.456,-6.296927368540746,8.190819294102445,12.80789741221672,12.536732380897865,15.215571892341197,-8.111947624778995,-30.994236065135,-27.66830136224161
0.457,-6.3533789864328245,8.106365193520043,12.792561780818133,12.549073742358376,15.312694139058523,-7.915408375010706,-30.926135924573728,-27.721938064439616
0.458,-6.409591354614276,8.022218223475747,12.77642359732668,12.561111701440476,15.40891001827967,-7.718458122525438,-30.856195098480534,-27.77534053673833
0.459,-6.465569077426499,7.938418608435166,12.759477121331825,12.572849957427344,15.504216602403739,-7.521082573769556,-30.78444544885357,-27.828476611211364
0.46,-6.521316759210894,7.85500657286391,12.741716612423032,12.584292209602152,15.598610963829838,-7.323267435189435,-30.710918837690993,-27.88131411993232
0.461,-6.576839004308858,7.772022341227588,12.723136330189764,12.595442157248074,15.692090174957068,-7.124998413231445,-30.63564712699094,-27.933820894974797
0.462,-6.632140417061793,7.689506137991813,12.703730534221483,12.606303499648282,15.78465130818453,-6.926261214341958,-30.55866217875157,-27.985964768412412
0.463,-6.687225601811099,7.6074981876221965,12.683493484107654,12.616879936085953,15.87629143591133,-6.727041544967346,-30.479995854971044,-28.037713572318754
0.464,-6.7420991628981755,7.526038714584347,12.66241943943774,12.62717516584426,15.967007630536575,-6.527325111553978,-30.399680017647494,-28.08903513876744
0.465,-6.7967657046644225,7.445167943343876,12.640502659801202,12.637192888206378,16.056796964459366,-6.327097620548228,-30.31774652877908,-28.13989729983206
0.466,-6.8512298314512385,7.364926098366395,12.617737404787507,12.64693680245548,16.145656510078805,-6.126344778396466,-30.23422725036396,-28.190267887586234
0.467,-6.905496147600023,7.285353404117513,12.59411793398612,12.656410607874736,16.233583339793995,-5.925052291545062,-30.149154044400273,-28.240114734103557
0.468,-6.959569257452177,7.206490085062843,12.5696385069865,12.665618003747326,16.320574526004044,-5.7232058664403915,-30.06255877288617,-28.289405671457637
0.46900000000000003,-7.013453765349101,7.128376365667995,12.544293383378113,12.674562689356424,16.406627141108057,-5.520791209528823,-29.97447329781981,-28.338108531722078
0.47000000000000003,-7.067154275632193,7.051052470398578,12.518076822750418,12.6832483639852,16.49173825750513,-5.317794027256727,-29.884929481199332,-28.38619114697048
0.47100000000000003,-7.120675392642854,6.9745586237202035,12.490983084692886,12.69167872691683,16.57590494759437,-5.114200026070478,-29.793959185022903,-28.433621349276457
0.47200000000000003,-7.1740217207224815,6.898935050098484,12.463006428794975,12.699857477434488,16.659124283774887,-4.909994912416442,-29.70159427128866,-28.4803669707136
0.47300000000000003,-7.227197864212478,6.824221973999029,12.434141114646149,12.707788314821348,16.74139333844578,-4.705164392740997,-29.607866601994758,-28.526395843355523
0.47400000000000003,-7.280208368602139,6.750459250301104,12.404381535405317,12.715474872214152,16.822709319540945,-4.499694385190044,-29.512807840788472,-28.5716760651259
0.47500000000000003,-7.3330537575479,6.677661477106044,12.373731212095159,12.722916262437334,16.90307869716664,-4.2935852750242836,-29.416436096421616,-28.616193901600884
0.47600000000000003,-7.385728021032861,6.6058022215867345,12.34220849442023,12.730104254836604,16.982522988302104,-4.086860950072867,-29.318747457024617,-28.659965132637918
0.47700000000000004,-7.438224550437947,6.534851291743845,12.309833090659486,12.737029945962739,17.061065088491226,-3.879547451423614,-29.219735993242278,-28.70300824213432
0.47800000000000004,-7.4905367371440805,6.464778495578042,12.27662470909189,12.74368443236651,17.138727893277892,-3.671670820164345,-29.119395775719397,-28.745341713987408
0.47900000000000004,-7.542657972532183,6.395553641089994,12.242603057996392,12.750058810598695,17.215534298205995,-3.4632570973828782,-29.01772087510078,-28.786984032094495
0.48,-7.594581647983175,6.327146536280375,12.207787845651952,12.756144177210059,17.291507198819417,-3.254332324167045,-28.914705362031217,-28.82795368035289
0.481,-7.6463011548779845,6.259526989149841,12.172198780337524,12.761931628751384,17.366669490662048,-3.0449225416046417,-28.810343307155513,-28.868269142659923
0.482,-7.697809884597532,6.192664807699067,12.135855570332067,12.767412261773437,17.44104406927778,-2.8350537907835,-28.70462878111847,-28.9079489029129
0.483,-7.749101228522736,6.126529799928722,12.098777923914534,12.772577172826992,17.514653830210495,-2.624752112791439,-28.59755585456488,-28.94701144500914
0.484,-7.800168578034523,6.061091773839473,12.060985549363885,12.777417458462825,17.58752166900408,-2.4140435487162772,-28.489118598139555,-28.98547525284595
0.485,-7.851005324513814,5.996320537431986,12.022498154959074,12.781924215231705,17.65967048120243,-2.2029541396458354,-28.379311082487288,-29.02335881032066
0.486,-7.90160485934153,5.932185898706932,11.983335448979062,12.78608853968441,17.731123162349423,-1.9915099266679324,-28.268127378252878,-29.060680601330574
0.487,-7.951960573898595,5.868657665664976,11.943517139702804,12.789901528371708,17.801902607988954,-1.7797369508703882,-28.155561556081125,-29.097459109773013
0.488,-8.002065859565931,5.805705646306789,11.90306293540925,12.793354277844374,17.872031713664907,-1.5676612533410215,-28.041607686616832,-29.133712819545295
0.489,-8.051914107724462,5.743299648633039,11.861992544377365,12.796437884653185,17.94153337492117,-1.355308875167653,-27.92625984050479,-29.169460214544728
0.49,-8.101498709755111,5.681409480644392,11.820325674886101,12.799143445348909,18.010430487301633,-1.1427058574381004,-27.80951208838982,-29.204719778668633
0.491,-8.150813057038794,5.620004950341517,11.778082035214418,12.801462056482324,18.07874594635018,-0.9298782412401851,-27.6913585009167,-29.23950999581432
0.492,-8.19985054095644,5.5590558657250835,11.73528133364127,12.803384814604197,18.146502647610703,-0.7168520676617252,-27.57179314873024,-29.273849349879114
0.493,-8.248604552888969,5.4985320347957565,11.691943278445615,12.804902816265304,18.213723486627085,-0.503653377790541,-27.450810102475238,-29.307756324760323
0.494,-8.297068484217302,5.438403265554207,11.648087577906406,12.80600715801642,18.280431358943222,-0.2903082127144516,-27.328403432796502,-29.341249404355267
0.495,-8.345235726322365,5.378639366001103,11.603733940302604,12.806688936408317,18.346649160102988,-0.07684261352127622,-27.204567210338816,-29.374347072561253
0.496,-8.393099670585075,5.319210144137109,11.558902073913163,12.806939247991766,18.412399785650283,0.13671737870116543,-27.079295505746988,-29.407067813275606
0.497,-8.44065370838636,5.2600854079628965,11.513611687017042,12.806749189317543,18.477706131128993,0.3503457228650538,-26.952582389665825,-29.43943011039564
0.498,-8.487891231107142,5.2012349654791326,11.467882487893194,12.806109856936418,18.542591092082997,0.5640163778825685,-26.824421932740112,-29.47145244781867
0.499,-8.534805630128337,5.142628624686486,11.421734184820583,12.805012347399169,18.60707756405619,0.7777033026658918,-26.694808205614663,-29.50315330944201
0.5,-8.581390296830875,5.084236193585623,11.375186486078155,12.803447757256565,18.67118844259246,0.9913804561272037,-26.56373527893427,-29.534551179162975
0.501,-8.627638622595677,5.0260274801772145,11.328259099944873,12.801407183059379,18.734946623235693,1.205021797178684,-26.431197223343737,-29.56566454087888
0.502,-8.67354399880366,4.967972292461925,11.280971734699692,12.798881721358386,18.798375001529774,1.418601284732513,-26.297188109487863,-29.596511878487046
0.503,-8.719099816835753,4.910040438440426,11.23334409862157,12.79586246870436,18.861496473018594,1.6320928777008725,-26.161702008011446,-29.627111675884784
0.504,-8.764299468072876,4.852201726113384,11.185395899989462,12.792340521648072,18.924333933246043,1.8454705349959426,-26.024732989559286,-29.65748241696941
0.505,-8.809136343895949,4.794425963481466,11.137146847082326,12.788306976740296,18.986910277756003,2.0587082155299026,-25.886275124776187,-29.68764258563824
0.506,-8.853603835685897,4.736682958545341,11.08861664817912,12.783752930531806,19.049248402092367,2.271779878214935,-25.746322484306944,-29.717610665788587
0.507,-8.897695334823641,4.678942519305678,11.039825011558793,12.778669479573372,19.11137120179902,2.484659481963219,-25.604869138796357,-29.747405141317774
0.508,-8.941404232690106,4.621174453763145,10.990791645500313,12.773047720415772,19.173301572419845,2.697320985686936,-25.461909158889235,-29.77704449612311
0.509,-8.984723920666212,4.563348569918409,10.941536258282625,12.766878749609774,19.235062409498735,2.9097383482982644,-25.31743661523037,-29.80654721410191
0.51,-9.027647790132882,4.505434675772138,10.892078558184693,12.760153663706156,19.296676608579585,3.1218855287093876,-25.17144557846456,-29.835931779151494
0.511,-9.070169232471036,4.447402579325,10.842438253485472,12.752863559255688,19.358167065206267,3.3337364858324845,-25.023930119236606,-29.865216675169176
0.512,-9.112281639061603,4.3892220885776645,10.792635052463918,12.74499953280914,19.41955667492268,3.5452651785797364,-24.874884308191312,-29.894420386052268
0.513,-9.153978401285498,4.3308630115307984,10.74268866339899,12.736552680917296,19.480868333272703,3.7564455658633222,-24.724302215973477,-29.923561395698094
0.514,-9.195252910523648,4.272295156185071,10.69261879456964,12.727514100130916,19.542124935800235,3.9672516065954246,-24.5721779132279,-29.95265818800396
0.515,-9.236098558156973,4.213488330541148,10.642445154254828,12.71787488700078,19.603349378049156,4.177657259688223,-24.41850547059938,-29.981729246867182
0.516,-9.276508735566399,4.154412342599699,10.59218745073351,12.707626138077664,19.664564555563352,4.387636484053898,-24.26327895873272,-30.010793056185086
0.517,-9.316476834132843,4.095037000361392,10.541865392284642,12.696758949912335,19.725793363886716,4.59716323860463,-24.106492448272718,-30.039868099854978
0.518,-9.355996245237233,4.0353321118268966,10.49149868718718,12.685264419055567,19.787058698563136,4.8062114822526,-23.948140009864172,-30.068972861774178
0.519,-9.395060360260485,3.975267484996878,10.441107043720082,12.673133642058138,19.848383455136496,5.014755173909986,-23.78821571415189,-30.098125825839997
0.52,-9.433662570583527,3.914812927872006,10.390710170162302,12.660357715470816,19.90979052915068,5.222768272488973,-23.626713631780657,-30.127345475949753
0.521,-9.471796267587278,3.8539382484529474,10.340327774792803,12.646927735844377,19.971302816149585,5.430224736901738,-23.463627833395286,-30.156650296000766
0.522,-9.509454842652664,3.792613254740372,10.289979565890532,12.632834799729594,20.032943211677097,5.6370985260604645,-23.298952389640576,-30.186058769890348
0.523,-9.546631687160605,3.7308077547349465,10.239685251734453,12.618070003677236,20.094734611277097,5.84336359887733,-23.13268137116132,-30.215589381515812
0.524,-9.583320192492023,3.6684915564373397,10.18946454060352,12.602624444238083,20.15669991049348,6.048993914264516,-22.964808848602328,-30.245260614774477
0.525,-9.619513750027842,3.6056344678482195,10.139337140776693,12.586489217962903,20.21886200487013,6.2539634311342045,-22.795328892608385,-30.275090953563655
0.526,-9.655205751148983,3.5422062969682537,10.089322760532921,12.56965542140247,20.28124378995093,6.4582461083985745,-22.624235573824304,-30.305098881780665
0.527,-9.690390092657696,3.4781796209791103,10.039438739831208,12.552115146978883,20.34386489102868,6.661817433138346,-22.451525023180583,-30.335298724573722
0.528,-9.725066187971349,3.4135572423516543,9.98967656869311,12.533871356934133,20.406709238985048,6.8646695722165,-22.277215859386942,-30.36565941482728
0.529,-9.759236846285289,3.3483605688734257,9.940011825091526,12.514933704478175,20.469738792841714,7.066804959813189,-22.101340543609727,-30.396121944007746
0.53,-9.792904926485804,3.2826112805864462,9.890419854155885,12.49531194073093,20.532915190102724,7.26822618035181,-21.923931739574083,-30.426626894710395
0.531,-9.82607328745918,3.2163310575327384,9.840876001015618,12.475015816812322,20.596200068272122,7.468935818255761,-21.745022111005163,-30.45711484953053
0.532,-9.858744788091705,3.149541579754321,9.791355610800156,12.454055083842267,20.659555064853954,7.668936457948437,-21.564644321628116,-30.487526391063444
0.533,-9.890922287269671,3.082264527293218,9.741834028638921,12.432439492940691,20.72294181735227,7.868230683853235,-21.38283103516809,-30.517802101904437
0.534,-9.922608643879366,3.014521580191449,9.69228659966135,12.410178795227516,20.786321963271114,8.066821080393552,-21.199614915350235,-30.54788256464879
0.535,-9.953806716807078,2.9463344184910367,9.642688668996868,12.387282741822663,20.84965714011453,8.264710231992787,-21.015028625899692,-30.577708361891805
0.536,-9.984519364939095,2.8777247222340017,9.593015581774907,12.363761083846052,20.912908985386572,8.461900723074336,-20.82910483054162,-30.60722007622877
0.537,-10.014749447161703,2.808714171462366,9.543242683124893,12.339623572417606,20.97603913659128,8.658395138061595,-20.641876193001163,-30.636358290254982
0.538,-10.044499822361194,2.7393244462181507,9.493345318176258,12.314879958657247,21.039009231232697,8.854196061377957,-20.453375377003475,-30.66506358656574
0.539,-10.073773349423856,2.6695772265433773,9.44329883205843,12.289539993684897,21.101780906814877,9.049306077446825,-20.263635046273695,-30.69327654775633
0.54,-10.10257288723598,2.599494192480067,9.393078569900839,12.26361342862048,21.16431580084187,9.243727770691596,-20.072687864536977,-30.720937756422042
0.541,-10.13090129468385,2.529097024070242,9.342659876832913,12.237110014583912,21.22657555081771,9.437463725535663,-19.880566495518476,-30.747987795158178
0.542,-10.158761430653756,2.4584074013559234,9.292018097984082,12.21003950269512,21.288521794246453,9.630516526402424,-19.687303602943338,-30.77436724656003
0.543,-10.186156154031988,2.3874470043791316,9.241128578483776,12.18241164407402,21.350116168632145,9.822888757715276,-19.492931850536706,-30.80001669322289
0.544,-10.21308832370483,2.316237513181889,9.189966663461425,12.15423618984054,21.411320311478825,10.014583003897616,-19.297483902023732,-30.824876717742047
0.545,-10.239560798558578,2.244800607806218,9.138507698046455,12.125522891114601,21.472095860290548,10.205601849372842,-19.10099242112957,-30.8488879027128
0.546,-10.265576437479517,2.173157968294138,9.086727027368298,12.09628149901612,21.532404452571352,10.39594787856435,-18.90349007157936,-30.87199083073045
0.547,-10.291138099353931,2.1013312746876713,9.034599996556382,12.066521764665023,21.592207725825293,10.585623675895535,-18.705009517098258,-30.894126084390276
0.548,-10.316248643068116,2.0293422070288405,8.982101950740137,12.036253439181232,21.65146731755641,10.7746318257898,-18.505583421411405,-30.915234246287575
0.549,-10.340910927508355,1.9572124453596647,8.92920823504899,12.005486273684665,21.710144865268752,10.962974912670532,-18.305244448243965,-30.935255899017644
0.55,-10.365127811560942,1.8849636697221668,8.875894194612375,11.974230019295248,21.76820200646637,11.150655520961136,-18.104025261321073,-30.954131625175776
0.551,-10.38890215411216,1.8126175601583683,8.822135174559717,11.942494427132898,21.825600378653306,11.337676235085006,-17.90195852436788,-30.97180200735727
0.552,-10.4122368140483,1.7401957967102906,8.767906520020446,11.910289248317543,21.882301619333603,11.524039639465542,-17.699076901109542,-30.988207628157408
0.553,-10.43513465025565,1.6677200594199542,8.713183576123992,11.877624233969096,21.938267366011313,11.709748318526133,-17.4954130552712,-31.00328907017149
0.554,-10.4575985216205,1.5952120283293816,8.657941687999784,11.844509135207488,21.99345925619048,11.894804856690183,-17.29099965057801,-31.016986915994806
0.555,-10.479631287029136,1.5226933834805936,8.602156200777253,11.810953703152636,22.047838927375157,12.079211838381088,-17.085869350755107,-31.029241748222656
0.556,-10.50123580536785,1.450185804915612,8.545802459585826,11.776967688924463,22.10136801706938,12.262971848022245,-16.88005481952766,-31.039994149450326
0.557,-10.522414935522928,1.377710972676458,8.488855809554932,11.742560843642892,22.154008162777195,12.446087470037044,-16.673588720620806,-31.04918470227312
0.558,-10.543171536380656,1.3052905668051533,8.431291595814002,11.70774291842784,22.20572100200266,12.628561288848891,-16.4665037177597,-31.056753989286317
0.559,-10.56350846682733,1.2329462673437188,8.373085163492464,11.672523664399234,22.256468172249814,12.81039588888118,-16.25883247466948,-31.062642593085222
0.56,-10.583428585749234,1.1606997543341764,8.314211857719748,11.636912832676993,22.306211311022704,12.991593854557305,-16.050607655075307,-31.066791096265128
0.561,-10.602934752032654,1.0885727078185474,8.254647023625283,11.60092017438104,22.354912055825377,13.172157770300664,-15.84186192270232,-31.069140081421324
0.562,-10.622029824563883,1.0165868078388536,8.194366006338496,11.564555440631292,22.402532044161877,13.352090220534658,-15.632627941275675,-31.0696301311491
0.5630000000000001,-10.640716662229208,0.9447637344371156,8.133344150988822,11.527828382547678,22.449032913536257,13.531393789682678,-15.422938374520522,-31.06820182804376
0.5640000000000001,-10.658998123914916,0.8731251676553554,8.071556802705686,11.490748751250116,22.494376301452558,13.710071062168128,-15.212825886162001,-31.064795754700594
0.5650000000000001,-10.676877068507299,0.8016927875355946,8.008979306618517,11.45332629785853,22.538523845414826,13.888124622414395,-15.002323139925274,-31.059352493714886
0.5660000000000001,-10.694356354892642,0.7304882741198541,7.945587007856745,11.41557077349284,22.581437182927107,14.065557054844884,-14.791462799535477,-31.051812627681944
0.5670000000000001,-10.711438841957234,0.6595333074501555,7.8813552515498015,11.377491929272967,22.623077951493457,14.242370943882989,-14.580277528717767,-31.04211673919705
0.5680000000000001,-10.728127388587366,0.5888495675685208,7.816259382827112,11.339099516318834,22.663407788617906,14.418568873952108,-14.368799991197289,-31.0302054108555
0.5690000000000001,-10.744424853669326,0.5184587345169703,7.750274746818107,11.300403285750361,22.702388331804517,14.594153429475634,-14.157062850699194,-31.0160192252526
0.5700000000000001,-10.760334096089402,0.4483824883375263,7.683376688652217,11.261412988687471,22.73998121855733,14.769127194876969,-13.945098770948633,-30.999498764983624
0.5710000000000001,-10.77585797473388,0.37864250907221,7.615540553458871,11.222138376250088,22.776148086380385,14.943492754579507,-13.732940415670749,-30.980584612643874
0.5720000000000001,-10.790999348489052,0.30926047676304325,7.546741686367497,11.18258919955813,22.81085057277774,15.117252693006646,-13.520620448590696,-30.959217350828652
0.5730000000000001,-10.805761076241204,0.24025807145204664,7.476955432507526,11.142775209731523,22.84405031525343,15.290409594581783,-13.30817153343362,-30.93533756213324
0.5740000000000001,-10.820146016876627,0.171656973181242,7.406157137008385,11.102706157890184,22.87570895131151,15.462966043728315,-13.095626333924674,-30.908885829152936
0.5750000000000001,-10.83415702928161,0.10347886199265122,7.334322144999505,11.062391795154038,22.90578811845602,15.634924624869631,-12.883017513789001,-30.879802734483032
0.5760000000000001,-10.847796972342437,0.035745417928295053,7.261425801610315,11.021841872643005,22.93424945419101,15.806287922429144,-12.670377736751757,-30.84802886071882
0.577,-10.8610687049454,-0.03152167896979757,7.187443451970252,10.981066141477013,22.961054596020528,15.977058520830221,-12.457739666538107,-30.813504790455603
0.578,-10.873975085976788,-0.09830074865961991,7.11235044120873,10.940074352775973,22.986165181448623,16.147239004496296,-12.245135966873159,-30.77617110628866
0.579,-10.886518974380904,-0.1645701119371713,7.036122115854269,10.89887625730925,23.009542849475494,16.316831957230725,-12.032599301027432,-30.735968393412225
0.58,-10.898703692986857,-0.2303147904757834,6.958745009512864,10.857478802777264,23.03116120240584,16.4858350050846,-11.820158696893696,-30.692858018071465
0.581,-10.910534149872934,-0.2955427050824616,6.88024388576701,10.81587935785852,23.05103472514756,16.654228831815285,-11.60783075906601,-30.646872362296524
0.582,-10.922015591458607,-0.3602666639474723,6.800651667658419,10.774073246772039,23.069186628220322,16.82199050517073,-11.395629440622308,-30.598058965082192
0.583,-10.93315326416336,-0.42449947526108195,6.720001278228802,10.732055793736835,23.085640122143797,16.9890970928989,-11.183568694640524,-30.546465365423234
0.584,-10.943952414406674,-0.4882539472135567,6.6383256405198665,10.68982232297193,23.10041841743766,17.15552566274773,-10.971662474198592,-30.492139102314443
0.585,-10.954418288608023,-0.551542887995163,6.555657677573325,10.647368158696338,23.11354472462158,17.321253282465193,-10.759924732374445,-30.435127714750575
0.586,-10.964556133186887,-0.6143791057961672,6.472030312430886,10.604688625129079,23.125042254215227,17.486257019799222,-10.548369422246022,-30.375478741726422
0.587,-10.974371194562746,-0.6767754088068358,6.387476468134259,10.56177904648917,23.134934216738273,17.65051394249779,-10.337010496891253,-30.313239722236755
0.588,-10.983868719155078,-0.7387446052174348,6.302029067725156,10.518634746995629,23.143243822710392,17.814001118308834,-10.125861909388075,-30.24845819527635
0.589,-10.993053953383361,-0.8002995032182307,6.215721034245286,10.475251050867469,23.149994282651257,17.976695614980304,-9.91493761281442,-30.181181699839982
0.59,-11.001932143667075,-0.86145291099949,6.128585290736359,10.431623282323713,23.155208807080538,18.138574500260173,-9.704251560248222,-30.111457774922428
0.591,-11.0105085364257,-0.9222176367514787,6.040654760240086,10.387746765583376,23.1589106065179,18.29961484189638,-9.493817704767416,-30.039333959518473
0.592,-11.01878837807871,-0.9826064886644637,5.951962365798174,10.343616824865476,23.161122891483025,18.459793707636884,-9.283649999449937,-29.964857792622876
0.593,-11.026776915045591,-1.0426322749287107,5.862541030452336,10.299228784389035,23.16186887249558,18.619088165229623,-9.073762397373724,-29.888076813230423
0.594,-11.034479393745814,-1.1023078037344864,5.772423677244282,10.254577968373063,23.161171760075238,18.777475282422575,-8.864168851616702,-29.809038560335892
0.595,-11.041901060598866,-1.1616458832720573,5.68164322921572,10.209659701036578,23.15905476474167,18.934932126963673,-8.654883315256813,-29.727790572934058
0.596,-11.049047162024216,-1.2206593217316895,5.590232609408362,10.164469306598603,23.155541097014545,19.091435766600878,-8.445919741371988,-29.6443803900197
0.597,-11.05592294444135,-1.279360927303649,5.498224740863918,10.119002109278155,23.150653967413543,19.24696326908214,-8.237292083040158,-29.558855550587584
0.598,-11.062533654269746,-1.3377635081782027,5.405652546624097,10.073253433294244,23.144416586458327,19.40149170215542,-8.029014293339266,-29.471263593632496
0.599,-11.068884537928882,-1.395879872545617,5.312548949730609,10.027218602865897,23.136852164668575,19.554998133568656,-7.821100325347238,-29.38165205814921
0.6,-11.074980841838237,-1.4537228285961579,5.218946873225165,9.980892942212128,23.12798391256395,19.707459631069817,-7.613564132142013,-29.2900684831325
0.601,-11.080827812417287,-1.5113051845200918,5.124879240149474,9.934271775551952,23.11783504066413,19.858853262406846,-7.406419666801524,-29.196560407577145
0.602,-11.086430696085513,-1.568639748507685,5.030378973545246,9.887350427104389,23.106428759488786,20.0091560953277,-7.1996808824037055,-29.10117537047792
0.603,-11.091794739262397,-1.625739328749204,4.935478996454194,9.840124221088455,23.093788279557593,20.158345197580328,-6.99336173202649,-29.003960910829605
0.604,-11.096925188367411,-1.6826167334349154,4.840212231918023,9.79258848172317,23.079936811390212,20.30639763691269,-6.787476168747816,-28.90496456762697
0.605,-11.10182728982004,-1.739284770755085,4.744611602978447,9.744738533227547,23.064897565506328,20.453290481072738,-6.5820381456456145,-28.804233879864796
0.606,-11.106506290039759,-1.7957562488999792,4.648710032677175,9.696569699820612,23.048693752425603,20.599000797808415,-6.37706161579782,-28.70181638653785
0.607,-11.110967435446048,-1.8520439760598646,4.552540444055915,9.648077305721372,23.031348582667714,20.743505654867683,-6.17256053228237,-28.597759626640926
0.608,-11.115215972458387,-1.9081607604250075,4.456135760156379,9.599256675148855,23.01288526675233,20.886782119998493,-5.968548848177194,-28.49211113916878
0.609,-11.119257147496253,-1.9641194101856745,4.359528904020279,9.550103132322068,22.993327015199124,21.028807260948803,-5.765040516560229,-28.384918463116207
0.61,-11.123096206979124,-2.0199327335321313,4.262752798689322,9.500612001460036,22.972697038527766,21.169558145466553,-5.56204949050941,-28.27622913747797
0.611,-11.12673839732648,-2.075613538654645,4.165840367205218,9.450778606781771,22.951018547257938,21.309011841299707,-5.35958972310267,-28.166090701248848
0.612,-11.130188964957801,-2.131174633743481,4.068824532609679,9.400598272506297,22.928314751909294,21.447145416196218,-5.157675167417945,-28.05455069342362
0.613,-11.133453156292566,-2.1866288269889065,3.971738217944414,9.35006632285263,22.904608863001513,21.583935937904034,-4.956319776533166,-27.941656652997064
0.614,-11.136536217750251,-2.241988926581188,3.874614346251132,9.299178082039784,22.87992409105427,21.71936047417111,-4.755537503526271,-27.827456118963955
0.615,-11.139443395750337,-2.297267740710591,3.777485840571545,9.247928874286776,22.854283646587234,21.853396092745403,-4.555342301475192,-27.711996630319067
0.616,-11.142179936712301,-2.3524780775673824,3.6803856239473625,9.19631402381263,22.82771074012008,21.986019861374857,-4.355748123457864,-27.595325726057176
0.617,-11.144751087055626,-2.407632745341828,3.583346619420293,9.144328854836356,22.80022858217248,22.117208847807433,-4.156768922552223,-27.47749094517306
0.618,-11.147162093199784,-2.462744552224194,3.4864017500320474,9.091968691576977,22.771860383264094,22.24694011979108,-3.9584186518362,-27.358539826661495
0.619,-11.149418201564261,-2.517826306404748,3.389583938824338,9.039228858253507,22.74262935391461,22.375190745073752,-3.760711264387732,-27.238519909517255
0.62,-11.15152465856853,-2.572890816073756,3.2929261088388713,8.986104679084965,22.712558704643687,22.501937791403403,-3.563660713284751,-27.117478732735115
0.621,-11.153486710632073,-2.6279508894214834,3.1964611831173593,8.932591478290368,22.681671645971004,22.627158326527987,-3.367280951605194,-26.995463835309863
0.622,-11.155309604174366,-2.683019334638197,3.100222084701512,8.878684580088736,22.64999138841623,22.75082941819546,-3.1715859324269937,-26.872522756236265
0.623,-11.156998585614888,-2.738108959914163,3.004241736633039,8.824379308699083,22.617541142499036,22.87292813415376,-2.976589608828086,-26.7487030345091
0.624,-11.158558901373123,-2.7932325734396484,2.90855306195365,8.769670988340428,22.584344118739093,22.993431542150855,-2.7823059338864033,-26.62405220912314
