AlexPazzaglia/SalamandraSNN/experimental_data/salamander_kinematics_karakasiliotis/walking/data_karakasiliotis_processed.csv
time,Axis 1,Axis 2,Axis 3,Axis 4,Axis 5,Axis 6,Axis 7,Axis 8,Left Shoulder-yaw,Left Shoulder-pitch,Left Shoulder-roll,Left Elbow,Right Shoulder-yaw,Right Shoulder-pitch,Right Shoulder-roll,Right Elbow,Left Hip-yaw,Left Hip-pitch,Left Hip-roll,Left Knee,Right Hip-yaw,Right Hip-pitch,Right Hip-roll,Right Knee
0.0,4.933030977646752,24.568185191000488,15.783318346298376,-0.009830242117760608,-18.40539749686569,-15.466348401665662,-0.4963496822701408,1.087515944009943,-28.644,3.4294,62.702,84.055,-38.404,-12.467,26.947,67.67,-27.834000000000003,-7.2009,55.92,47.830000000000005,20.959999999999997,0.35664,20.768,46.41
0.001,4.901454891348712,24.525383001700742,15.770098229730472,-0.008535736046619852,-18.403648876306004,-15.411806258613476,-0.5018509490799176,1.1048039711931459,-28.736862,3.5283505,62.699129,84.13400200000001,-38.531017000000006,-12.457595,26.94403,67.48883000000001,-27.991806000000004,-7.222382999999998,56.067708,47.585470000000015,20.853079999999995,0.35322351,20.715926,46.62483
0.002,4.869878805050674,24.482580812401,15.756878113162568,-0.007241229975479094,-18.40190025574632,-15.357264115561287,-0.5073522158896944,1.122091998376349,-28.829724,3.627301,62.696258,84.21300399999998,-38.658034,-12.44819,26.94106,67.30766,-28.149612,-7.243865999999999,56.215416,47.34094000000001,20.746159999999993,0.34980702,20.663852,46.83966
0.003,4.838302718752637,24.439778623101247,15.743657996594663,-0.005946723904338339,-18.40015163518663,-15.3027219725091,-0.5128534826994712,1.139380025559552,-28.922586,3.7262515,62.693387,84.292006,-38.785051,-12.438785,26.93809,67.12649,-28.307418,-7.265348999999999,56.363124,47.096410000000006,20.639239999999997,0.34639053,20.611778,47.05449
0.004,4.806726632454599,24.396976433801505,15.73043788002676,-0.0046522178331975805,-18.398403014626943,-15.248179829456912,-0.518354749509248,1.1566680527427553,-29.015448,3.825202,62.690516,84.371008,-38.912068,-12.42938,26.93512,66.94532000000001,-28.465224,-7.286832,56.510832,46.851880000000016,20.532319999999995,0.34297404000000004,20.559704,47.26932
0.005,4.775150546156561,24.35417424450176,15.717217763458857,-0.003357711762056825,-18.39665439406725,-15.193637686404724,-0.5238560163190247,1.1739560799259583,-29.10831,3.9241525,62.687645,84.45001,-39.039085,-12.419975,26.93215,66.76415,-28.62303,-7.308315,56.65854,46.60735000000001,20.4254,0.33955755000000004,20.50763,47.48415000000001
0.006,4.7435744598585226,24.31137205520201,15.70399764689095,-0.002063205690916068,-18.394905773507567,-15.139095543352536,-0.5293572831288015,1.1912441071091613,-29.201172,4.023103,62.684774,84.52901199999998,-39.166102,-12.41057,26.92918,66.58298,-28.780836,-7.329798,56.806248,46.362820000000006,20.318479999999997,0.33614106000000005,20.455556,47.698980000000006
0.007,4.711998373560484,24.268569865902265,15.690777530323047,-0.0007686996197753102,-18.39315715294788,-15.08455340030035,-0.5348585499385783,1.2085321342923645,-29.294034,4.1220535,62.681903,84.60801399999998,-39.293119,-12.401165,26.92621,66.40181,-28.938642,-7.351281,56.953956,46.118290000000016,20.211559999999995,0.33272457,20.403482,47.913810000000005
0.008,4.680422287262446,24.22576767660252,15.67755741375514,0.0005258064513654468,-18.391408532388198,-15.030011257248162,-0.540359816748355,1.2258201614755675,-29.386896,4.221004,62.679032,84.687016,-39.420136,-12.39176,26.92324,66.22064,-29.096448,-7.372764,57.101664,45.87376000000001,20.10464,0.32930808,20.351408,48.12864000000001
0.009000000000000001,4.648846200964408,24.182965487302774,15.664337297187236,0.001820312522506204,-18.38965991182851,-14.975469114195976,-0.5458610835581318,1.2431081886587707,-29.479758,4.3199545,62.676161,84.766018,-39.547153,-12.382355,26.92027,66.03947000000001,-29.254254,-7.394247,57.249372,45.62923000000001,19.997719999999997,0.32589159,20.299334,48.34347000000001
0.01,4.617270114666368,24.140163298003028,15.651117180619332,0.00311481859364696,-18.38791129126882,-14.920926971143787,-0.5513623503679086,1.2603962158419737,-29.57262,4.418905,62.67329,84.84501999999999,-39.67417,-12.37295,26.9173,65.8583,-29.41206,-7.41573,57.39708,45.38470000000002,19.890799999999995,0.3224751,20.24726,48.55830000000001
0.011,4.584614834495072,24.096455839539583,15.637640545277568,0.003319907853951905,-18.38656242578917,-14.855096343775164,-0.5658336137607108,1.279190843786688,-29.651509,4.515790699999999,62.65431,84.91752499999998,-39.812045,-12.366838,26.937737,65.70294,-29.578143,-7.432051,57.538914,45.164200000000015,19.790109999999995,0.31793454000000004,20.216724,48.78292000000001
0.012,4.551682837946017,24.05251626077776,15.624098135891227,0.0032456594704527966,-18.385316061612095,-14.78637123324848,-0.5826048762773657,1.2983717796189695,-29.728828,4.612444399999999,62.63352,84.9893,-39.95114,-12.361096,26.960804,65.55048000000001,-29.745156,-7.447792,57.680088,44.94640000000001,19.69012,0.31326768000000005,20.188608,49.00864000000001
0.013,4.518750841396961,24.00857668201593,15.610555726504888,0.003171411086953689,-18.384069697435027,-14.717646122721796,-0.5993761387940205,1.3175527154512512,-29.806147,4.709098099999999,62.61273,85.061075,-40.090235,-12.355354,26.983871,65.39802,-29.912169,-7.463533,57.821262,44.72860000000001,19.59013,0.30860082,20.160492,49.23436000000001
0.014,4.4858188448479055,23.964637103254113,15.597013317118545,0.0030971627034545807,-18.382823333257953,-14.648921012195112,-0.6161474013106754,1.3367336512835328,-29.883466,4.8057518,62.59194,85.13284999999999,-40.22933,-12.349612,27.006938,65.24556,-30.079182,-7.479274,57.962436,44.51080000000001,19.49014,0.30393396,20.132376,49.460080000000005
0.015,4.452886848298848,23.920697524492287,15.583470907732206,0.003022914319955473,-18.38157696908088,-14.580195901668429,-0.6329186638273303,1.3559145871158143,-29.960785,4.9024055,62.57115,85.20462499999998,-40.368425,-12.34387,27.030005,65.0931,-30.246195,-7.495015,58.10361,44.293000000000006,19.39015,0.2992671,20.10426,49.685800000000015
0.016,4.419954851749794,23.876757945730464,15.569928498345863,0.0029486659364563648,-18.380330604903808,-14.511470791141743,-0.6496899263439851,1.375095522948096,-30.038104,4.9990592,62.55036,85.27639999999998,-40.50752,-12.338128,27.053072,64.94064,-30.413208,-7.510756,58.244784,44.0752,19.29016,0.29460024,20.076144,49.91152000000001
0.017,4.387022855200738,23.83281836696864,15.556386088959524,0.0028744175529572566,-18.379084240726733,-14.44274568061506,-0.66646118886064,1.3942764587803775,-30.115423,5.0957129,62.52957,85.34817499999998,-40.646615,-12.332386,27.076139,64.78818,-30.580221,-7.526497,58.385958,43.857400000000005,19.19017,0.28993338,20.048028,50.137240000000006
0.018000000000000002,4.3540908586516816,23.788878788206812,15.542843679573185,0.0028001691694581484,-18.377837876549656,-14.374020570088376,-0.6832324513772948,1.4134573946126587,-30.192742,5.1923666,62.50878,85.41995,-40.78571,-12.326644,27.099206,64.63571999999999,-30.747234,-7.542238,58.527132,43.6396,19.090180000000004,0.28526652,20.019912,50.362960000000015
0.019,4.321158862102625,23.744939209444997,15.529301270186842,0.0027259207859590406,-18.37659151237259,-14.305295459561693,-0.7000037138939497,1.4326383304449406,-30.270061,5.2890203,62.48799,85.491725,-40.924805,-12.320902,27.122273,64.48326,-30.914247,-7.557979,58.668306,43.4218,18.990190000000005,0.28059966,19.991796,50.58868000000001
0.02,4.28822686555357,23.700999630683167,15.5157588608005,0.0026516724024599325,-18.375345148195517,-14.236570349035008,-0.7167749764106046,1.451819266277222,-30.34738,5.385674,62.4672,85.5635,-41.0639,-12.31516,27.14534,64.3308,-31.08126,-7.573719999999998,58.80948,43.204,18.890200000000004,0.27593280000000003,19.96368,50.814400000000006
0.021,4.25455923908883,23.654156119168768,15.501344009689948,0.0044777183681844,-18.360680522187767,-14.166861575713396,-0.7253473519045437,1.4770503658560703,-30.402974,5.4781012,62.419866,85.627059,-41.206629,-12.315975,27.176623,64.19809,-31.251591,-7.590093,58.942833,43.00673999999999,18.795740000000006,0.26892912,19.961397,51.05118000000001
0.022,4.220384281647753,23.605309895411214,15.486327474631665,0.007614312160959586,-18.33676192250369,-14.09647441425735,-0.7282653225552302,1.506453992156689,-30.453068,5.569458399999999,62.365812,85.688538,-41.350278,-12.31845,27.209986,64.07038,-31.422762,-7.606626,59.074206,42.81468,18.702680000000004,0.26133384000000004,19.965654,51.290760000000006
0.023,4.186209324206679,23.556463671653656,15.471310939573378,0.01075090595373478,-18.312843322819624,-14.026087252801304,-0.7311832932059171,1.5358576184573078,-30.503162,5.660815599999999,62.311758,85.750017,-41.493927,-12.320925,27.243349,63.94267,-31.593933,-7.623159,59.205579,42.62262,18.609620000000007,0.25373856,19.969911,51.53034000000001
0.024,4.152034366765604,23.507617447896106,15.456294404515091,0.013887499746509978,-18.28892472313555,-13.95570009134526,-0.7341012638566038,1.5652612447579266,-30.553256,5.7521728,62.257704,85.811496,-41.637576,-12.3234,27.276712,63.81496,-31.765104,-7.639692,59.336952,42.43056,18.516560000000005,0.24614328,19.974168,51.769920000000006
0.025,4.117859409324528,23.45877122413855,15.441277869456808,0.017024093539285176,-18.26500612345148,-13.885312929889212,-0.7370192345072906,1.5946648710585452,-30.60335,5.84353,62.20365,85.87297499999998,-41.781225,-12.325875,27.310075,63.68725,-31.936275,-7.656225,59.468325,42.2385,18.423500000000004,0.238548,19.978425,52.00950000000001
0.026,4.083684451883453,23.409925000381,15.426261334398523,0.02016068733206037,-18.24108752376741,-13.814925768433168,-0.7399372051579772,1.624068497359164,-30.653444,5.9348872,62.149596,85.934454,-41.924874,-12.32835,27.343438,63.55954,-32.107446,-7.672758,59.599698,42.04644,18.330440000000007,0.23095272,19.982682,52.249080000000006
0.027,4.049509494442377,23.361078776623444,15.411244799340238,0.023297281124835555,-18.21716892408333,-13.744538606977123,-0.7428551758086641,1.6534721236597827,-30.703538,6.0262444,62.095542,85.99593299999998,-42.068523,-12.330825,27.376801,63.431830000000005,-32.278617000000004,-7.689291,59.731071,41.85438,18.237380000000005,0.22335744,19.986939,52.48866
0.028,4.015334537001303,23.312232552865886,15.396228264281952,0.02643387491761075,-18.193250324399266,-13.674151445521076,-0.7457731464593507,1.6828757499604015,-30.753632,6.1176016,62.041488,86.057412,-42.212172,-12.3333,27.410164,63.30412,-32.449788,-7.705823999999998,59.862444,41.66232,18.144320000000008,0.21576216,19.991196,52.72824000000001
0.029,3.9811595795602273,23.263386329108332,15.381211729223669,0.029570468710385947,-18.169331724715192,-13.603764284065033,-0.7486911171100376,1.71227937626102,-30.803726,6.2089588,61.987434,86.118891,-42.355821,-12.335775,27.443527,63.17641,-32.620959,-7.722356999999999,59.993817,41.47026,18.051260000000006,0.20816688,19.995453,52.96782
0.03,3.946984622119152,23.21454010535078,15.366195194165384,0.032707062503161126,-18.14541312503112,-13.533377122608984,-0.7516090877607244,1.7416830025616388,-30.85382,6.300316,61.93338,86.18036999999998,-42.49947,-12.33825,27.47689,63.0487,-32.79213,-7.738889999999999,60.12519,41.2782,17.958200000000005,0.2005716,19.99971,53.2074
0.031,3.911939578554141,23.163294568848727,15.35017442800132,0.037350925865519816,-18.122464119948145,-13.467262820123194,-0.7616612617460908,1.7607380461433932,-30.89039,6.3829378000000005,61.856073,86.241366,-42.641118,-12.349695,27.497764,62.93686,-32.967096,-7.7558163,60.252837,41.09649,17.86652000000001,0.190115304,20.007072,53.45457
0.032,3.8755207147934434,23.108260643802716,15.332568033775503,0.04437468854827346,-18.101046053709005,-13.407895137064118,-0.7829779673125306,1.7634532222743096,-30.92108,6.4617616,61.768656,86.30215199999998,-42.781896,-12.36504,27.513208,62.83192,-33.143712,-7.7729136,60.378864,40.91928,17.775440000000007,0.178415088,20.015784,53.70504
0.033,3.8391018510327446,23.053226718756708,15.314961639549685,0.0513984512310271,-18.079627987469863,-13.348527454005042,-0.8042946728789706,1.7661683984052263,-30.95177,6.5405854,61.681239,86.362938,-42.922674,-12.380385,27.528652,62.72698,-33.320328,-7.7900109,60.504891,40.74207,17.684360000000005,0.166714872,20.024496,53.95551
0.034,3.802682987272047,22.998192793710697,15.297355245323867,0.058422213913780746,-18.058209921230727,-13.289159770945966,-0.8256113784454102,1.7688835745361426,-30.98246,6.619409200000001,61.593822,86.42372399999998,-43.063452,-12.39573,27.544096,62.622040000000005,-33.496944,-7.8071082,60.630918,40.56486,17.593280000000007,0.155014656,20.033208,54.20598
0.035,3.766264123511348,22.94315886866469,15.279748851098049,0.0654459765965344,-18.03679185499159,-13.22979208788689,-0.84692808401185,1.7715987506670592,-31.01315,6.698233,61.506405,86.48451,-43.20423,-12.411075,27.55954,62.517100000000006,-33.67356,-7.824205499999999,60.756945,40.38765,17.502200000000006,0.14331444,20.04192,54.45645
0.036000000000000004,3.7298452597506495,22.88812494361868,15.262142456872231,0.07246973927928803,-18.01537378875245,-13.170424404827815,-0.8682447895782899,1.7743139267979755,-31.04384,6.7770568,61.418988,86.545296,-43.345008,-12.42642,27.574984,62.41216,-33.850176,-7.8413028,60.882972,40.210440000000006,17.411120000000004,0.13161422399999995,20.050632,54.70692
0.037,3.693426395989952,22.833091018572674,15.244536062646413,0.07949350196204163,-17.993955722513316,-13.111056721768739,-0.8895614951447296,1.7770291029288923,-31.07453,6.8558806,61.331571,86.606082,-43.485786,-12.441765,27.590428,62.30722,-34.026792,-7.8584001,61.008999,40.03323,17.320040000000002,0.11991400800000004,20.059344,54.95739
0.038,3.6570075322292537,22.778057093526662,15.226929668420595,0.08651726464479528,-17.972537656274177,-13.051689038709663,-0.9108782007111694,1.7797442790598084,-31.10522,6.9347044,61.244154,86.666868,-43.626564,-12.45711,27.605872,62.20228,-34.203408,-7.875497399999999,61.135026,39.85602000000001,17.228960000000004,0.10821379200000004,20.068056,55.20786
0.039,3.620588668468556,22.723023168480648,15.209323274194777,0.09354102732754893,-17.951119590035034,-12.992321355650587,-0.9321949062776093,1.7824594551907251,-31.13591,7.0135282,61.156737,86.727654,-43.767342,-12.472455,27.621316,62.09734,-34.380024,-7.8925947,61.261053,39.678810000000006,17.137880000000006,0.09651357600000003,20.076768,55.45833
0.04,3.5841698047078574,22.667989243434643,15.19171687996896,0.10056479001030257,-17.929701523795902,-12.93295367259151,-0.9535116118440488,1.7851746313216417,-31.1666,7.092352,61.06932,86.78844,-43.90812,-12.4878,27.63676,61.9924,-34.55664,-7.909691999999999,61.38708,39.50160000000001,17.046800000000005,0.08481336000000003,20.08548,55.7088
0.041,3.547382691519638,22.61143550577651,15.173851350875216,0.10756972914835608,-17.906769865243497,-12.873152821480293,-0.9721029211043717,1.7881210038326083,-31.20142,7.1580896,60.974469,86.855893,-44.046007,-12.510107,27.645124,61.901030000000006,-34.737091,-7.925544399999999,61.520364,39.32734000000001,16.954540000000005,0.07126361200000003,20.089826,55.95986
0.042,3.5089589142091007,22.548127045397816,15.15483411125736,0.11449100808774228,-17.87711112974324,-12.811426779026217,-0.9785813578930632,1.7920949158104664,-31.23904,7.2149552,60.874578,86.927866,-44.181934000000005,-12.537134,27.648688,61.81886,-34.920142,-7.9405528,61.658568,39.155080000000005,16.861480000000004,0.056459944000000026,20.091212,56.21132
0.043,3.4705351368985635,22.484818585019127,15.135816871639504,0.12141228702712847,-17.847452394242985,-12.74970073657214,-0.9850597946817549,1.7960688277883243,-31.27666,7.2718208,60.774687,86.999839,-44.317861,-12.564161,27.652252,61.73669,-35.103193,-7.9555612,61.796772,38.98282,16.768420000000003,0.041656276000000006,20.092598,56.46278
0.044,3.4321113595880264,22.42151012464044,15.116799632021646,0.12833356596651463,-17.81779365874273,-12.687974694118067,-0.9915382314704464,1.800042739766182,-31.31428,7.328686399999999,60.674796,87.071812,-44.453788,-12.591187999999997,27.655816,61.654520000000005,-35.286244,-7.970569599999998,61.934976,38.81056,16.67536,0.026852608000000104,20.093984,56.71424
0.045,3.393687582277489,22.358201664261752,15.097782392403788,0.1352548449059008,-17.78813492324247,-12.62624865166399,-0.9980166682591376,1.80401665174404,-31.3519,7.385551999999999,60.574905,87.143785,-44.589715,-12.618215,27.65938,61.57235000000001,-35.469294999999995,-7.9855779999999985,62.07318,38.6383,16.5823,0.012048940000000091,20.09537,56.9657
0.046,3.355263804966952,22.294893203883063,15.078765152785932,0.142176123845287,-17.758476187742218,-12.564522609209915,-1.0044951050478292,1.8079905637218976,-31.38952,7.442417599999998,60.475014,87.215758,-44.725642,-12.645242,27.662944,61.49018,-35.652345999999994,-8.000586399999998,62.211384,38.46604,16.48924,-0.0027547279999999143,20.096756,57.21716
0.047,3.316840027656415,22.23158474350437,15.059747913168076,0.1490974027846732,-17.728817452241962,-12.502796566755839,-1.0109735418365209,1.8119644756997555,-31.42714,7.4992832,60.375123,87.287731,-44.861569,-12.672269,27.666508,61.40801,-35.835397,-8.015594799999999,62.349588,38.293780000000005,16.396179999999998,-0.01755839599999992,20.098142,57.46862
0.048,3.278416250345878,22.168276283125685,15.04073067355022,0.1560186817240594,-17.69915871674171,-12.441070524301763,-1.0174519786252123,1.8159383876776132,-31.46476,7.5561488,60.275232,87.359704,-44.997496,-12.699295999999999,27.670072,61.32584000000001,-36.018448,-8.0306032,62.487792,38.12152,16.303119999999996,-0.03236206399999993,20.099528,57.72008
0.049,3.2399924730353407,22.104967822747,15.021713433932364,0.16293996066344557,-17.669499981241454,-12.379344481847689,-1.0239304154139035,1.8199122996554713,-31.50238,7.6130144,60.175341,87.431677,-45.133423,-12.726322999999997,27.673636,61.24367,-36.201499,-8.045611599999999,62.625996,37.94926,16.210059999999995,-0.047165731999999946,20.100914,57.97154
0.05,3.2015686957248035,22.041659362368307,15.002696194314508,0.16986123960283178,-17.6398412457412,-12.317618439393613,-1.0304088522025951,1.8238862116333288,-31.54,7.66988,60.07545,87.50365,-45.26935,-12.75335,27.6772,61.1615,-36.38455,-8.060619999999998,62.7642,37.777,16.116999999999994,-0.06196939999999994,20.1023,58.22299999999999
0.051,3.1631449184142664,21.97835090198962,14.983678954696652,0.176782518542218,-17.610182510240943,-12.255892396939537,-1.0368872889912868,1.8278601236111869,-31.591193,7.713167699999999,59.982566,87.581699,-45.401357,-12.785668999999999,27.687673,61.09795,-36.566082,-8.076069399999998,62.91485,37.60621,16.022959999999994,-0.07785557599999995,20.103882,58.47151999999999
0.052,3.1232104252088515,21.905276726789044,14.961001886465576,0.18913083180123844,-17.56412658289294,-12.201393441509524,-1.0335072228150106,1.8230002768514464,-31.656236,7.742600399999999,59.896832,87.665948,-45.529364,-12.823388,27.705196,61.0534,-36.746064,-8.0919688,63.0782,37.43691999999999,15.927919999999993,-0.09484635199999998,20.105664,58.71704
0.053,3.083244458755628,21.83199909919635,14.938248571805058,0.20159220827525115,-17.517729047381444,-12.147045050392515,-1.0299217711602977,1.8179563934513392,-31.721279,7.7720331,59.811098,87.750197,-45.657371,-12.861106999999999,27.722719,61.00885,-36.926046,-8.107868199999999,63.24155,37.26763,15.832879999999996,-0.11183712799999988,20.107446,58.96256
0.054,3.0432784923024028,21.758721471603646,14.91549525714454,0.21405358474926392,-17.47133151186995,-12.092696659275504,-1.0263363195055843,1.812912510051232,-31.786322,7.8014658,59.725364,87.834446,-45.785378,-12.898826,27.740242,60.9643,-37.106028,-8.1237676,63.4049,37.09833999999999,15.737839999999993,-0.1288279039999999,20.109228,59.20808
0.055,3.0033125258491777,21.68544384401095,14.892741942484022,0.22651496122327672,-17.42493397635845,-12.038348268158495,-1.0227508678508717,1.8078686266511248,-31.851365,7.8308985,59.63963,87.918695,-45.913385,-12.936544999999999,27.757765,60.91975,-37.28601,-8.139666999999998,63.56825,36.92905,15.642799999999996,-0.14581867999999992,20.11101,59.4536
0.056,2.9633465593959527,21.61216621641825,14.869988627823503,0.23897633769728951,-17.378536440846954,-11.983999877041484,-1.0191654161961587,1.8028247432510176,-31.916408,7.8603312,59.553896,88.002944,-46.041392,-12.974264,27.775288,60.87520000000001,-37.465992,-8.155566399999998,63.7316,36.75975999999999,15.547759999999997,-0.16280945599999996,20.112792,59.69911999999999
0.057,2.9233805929427286,21.53888858882556,14.847235313162985,0.2514377141713023,-17.33213890533546,-11.929651485924476,-1.0155799645414456,1.7977808598509106,-31.981451,7.8897639,59.468162,88.087193,-46.169399,-13.011982999999997,27.792811,60.830650000000006,-37.645974,-8.1714658,63.89495,36.59047,15.452719999999996,-0.17980023199999995,20.114574,59.94464
0.058,2.883414626489504,21.465610961232855,14.824481998502465,0.2638990906453151,-17.28574136982396,-11.875303094807464,-1.0119945128867327,1.7927369764508034,-32.046494,7.9191966,59.382428,88.171442,-46.297406,-13.049702,27.810334,60.7861,-37.825956,-8.1873652,64.0583,36.42117999999999,15.357679999999998,-0.196791008,20.116356,60.19016
0.059,2.8434486600362794,21.39233333364016,14.801728683841947,0.2763604671193279,-17.239343834312464,-11.820954703690452,-1.0084090612320196,1.7876930930506962,-32.111537,7.948629299999999,59.296694,88.255691,-46.425413,-13.087421,27.827857,60.74155,-38.005938,-8.2032646,64.22165,36.25188999999999,15.262639999999996,-0.21378178400000003,20.118138,60.43568
0.06,2.803482693583055,21.319055706047465,14.778975369181431,0.28882184359334057,-17.19294629880097,-11.766606312573444,-1.0048236095773067,1.782649209650589,-32.17658,7.978061999999999,59.21096,88.33994,-46.55342,-13.12514,27.84538,60.697,-38.18592,-8.219164,64.38499999999999,36.08259999999999,15.1676,-0.23077255999999993,20.11992,60.6812
0.061,2.76351672712983,21.245778078454762,14.756222054520912,0.30128322006735336,-17.146548763289466,-11.712257921456432,-1.0012381579225935,1.7776053262504818,-32.247434,7.9960638,59.130296,88.424462,-46.676045,-13.167695,27.879127,60.66727,-38.361846,-8.235188199999998,64.56285799999999,35.91174999999999,15.07295,-0.24837313999999996,20.123145,60.92633
0.062,2.7234158308518324,21.1635263895072,14.73251114597784,0.3159950440276206,-17.092788520603925,-11.656828430398772,-1.0014760986730935,1.7648625203366286,-32.327228,7.996479599999998,59.057432,88.509404,-46.79039,-13.21769,27.937834,60.66034,-38.531532,-8.2514044,64.763036,35.73849999999999,14.9789,-0.26691187999999993,20.12859,61.17086
0.063,2.683275875940348,21.07867694595691,14.708523039205613,0.3313583133128562,-17.036896967946948,-11.601085989358287,-1.0028208109093133,1.7498910789582696,-32.407022,7.996895399999999,58.984568,88.594346,-46.904735,-13.267685,27.996541,60.65341,-38.701218,-8.2676206,64.963214,35.56524999999999,14.884849999999998,-0.28545061999999993,20.134035,61.41539
0.064,2.643135921028864,20.99382750240662,14.68453493243338,0.34672158259809177,-16.981005415289967,-11.545343548317806,-1.0041655231455329,1.7349196375799107,-32.486816,7.997311199999999,58.911704,88.679288,-47.01908,-13.31768,28.055248,60.64648,-38.870904,-8.283836799999998,65.163392,35.39199999999999,14.7908,-0.30398936,20.13948,61.65992
0.065,2.6029959661173794,20.908978058856327,14.660546825661152,0.36208485188332734,-16.925113862632987,-11.489601107277323,-1.0055102353817527,1.719948196201552,-32.56661,7.9977269999999985,58.83884,88.76422999999998,-47.133425,-13.367675,28.113955,60.63955,-39.04059,-8.300053,65.36357,35.21874999999999,14.696749999999996,-0.32252809999999993,20.144925,61.90445
0.066,2.562856011205895,20.82412861530604,14.636558718888923,0.37744812116856297,-16.869222309976006,-11.43385866623684,-1.0068549476179722,1.704976754823193,-32.646404,7.9981428,58.765976,88.84917199999998,-47.24777,-13.41767,28.172662,60.63262,-39.210276,-8.3162692,65.563748,35.04549999999999,14.602699999999999,-0.3410668399999999,20.15037,62.14898
0.067,2.5227160562944104,20.73927917175575,14.612570612116691,0.39281139045379854,-16.81333075731903,-11.378116225196356,-1.0081996598541916,1.690005313444834,-32.726198,7.9985586,58.693112,88.93411399999998,-47.362115,-13.467665,28.231369,60.62569,-39.379962,-8.332485399999998,65.763926,34.872249999999994,14.508649999999996,-0.3596055799999999,20.155815,62.39351
0.068,2.4825761013829255,20.65442972820546,14.58858250534446,0.4081746597390342,-16.75743920466205,-11.322373784155875,-1.0095443720904111,1.6750338720664752,-32.805992,7.9989744,58.620248,89.01905599999998,-47.47646,-13.51766,28.290076,60.61876,-39.549648,-8.3487016,65.96410399999999,34.69899999999999,14.414599999999998,-0.3781443199999999,20.16126,62.63804
0.069,2.442436146471441,20.569580284655167,14.564594398572233,0.42353792902426973,-16.701547652005072,-11.266631343115392,-1.0108890843266307,1.6600624306881164,-32.885785999999996,7.999390199999999,58.547384,89.10399799999999,-47.590805,-13.567655,28.348783,60.61183,-39.719334,-8.3649178,66.164282,34.52574999999999,14.320549999999995,-0.3966830599999999,20.166705,62.88257
0.07,2.402296191559957,20.48473084110488,14.540606291800003,0.43890119830950536,-16.64565609934809,-11.210888902074908,-1.0122337965628505,1.6450909893097572,-32.965579999999996,7.999805999999999,58.47452,89.18894,-47.70515,-13.61765,28.40749,60.604899999999994,-39.88902,-8.381133999999998,66.36446,34.35249999999999,14.226499999999996,-0.4152217999999999,20.17215,63.1271
0.07100000000000001,2.3621562366484725,20.39988139755459,14.516618185027772,0.454264467594741,-16.58976454669111,-11.155146461034427,-1.01357850879907,1.6301195479313983,-33.043112,7.992455599999999,58.401337000000005,89.270866,-47.815551,-13.671966,28.486787,60.60811999999999,-40.054385,-8.3977185,66.575513,34.181279999999994,14.134479999999996,-0.4340247299999999,20.180031,63.36902
0.07200000000000001,2.322661223831849,20.307953031205688,14.491274079318444,0.46537602877102974,-16.52825689911858,-11.084747031503534,-1.0112023012068563,1.616573243365331,-33.115184,7.9663592,58.327384,89.345512,-47.916432,-13.736712,28.615784,60.63584,-40.20932,-8.415191999999998,66.812816,34.014959999999995,14.047359999999996,-0.45346535999999993,20.193792,63.60464
0.07299999999999998,2.2836499175863727,20.21071547275784,14.464912974406294,0.4732988088656085,-16.46253718035939,-11.003354860604832,-1.0060354037433177,1.604095791408482,-33.187256,7.9402628,58.253431000000006,89.420158,-48.017313,-13.801458,28.744781,60.66356,-40.364255,-8.4326655,67.050119,33.84864,13.960239999999999,-0.47290598999999967,20.207553,63.840259999999994
0.07399999999999998,2.244638611340896,20.11347791430999,14.438551869494145,0.4812215889601873,-16.3968174616002,-10.921962689706133,-1.000868506279779,1.5916183394516328,-33.259328,7.9141664,58.179478,89.494804,-48.118194,-13.866204,28.873778,60.69127999999999,-40.51919,-8.450139,67.28742199999999,33.68232,13.87312,-0.4923466199999997,20.221314,64.07588
0.07499999999999998,2.20562730509542,20.016240355862134,14.412190764581991,0.48914436905476616,-16.331097742841006,-10.840570518807432,-0.9957016088162404,1.5791408874947837,-33.331399999999995,7.88807,58.105525,89.56945,-48.219075,-13.93095,29.002775,60.719,-40.674125,-8.467612499999998,67.524725,33.516,13.786,-0.5117872499999998,20.235075,64.3115
0.076,2.1666159988499425,19.919002797414286,14.385829659669843,0.49706714914934497,-16.265378024081816,-10.759178347908728,-0.9905347113527015,1.5666634355379343,-33.403472,7.8619736,58.031572,89.64409599999999,-48.319956,-13.995696,29.131772,60.74672,-40.82906,-8.485086,67.762028,33.34968,13.69888,-0.5312278799999998,20.248836,64.54712
0.077,2.1276046926044647,19.821765238966435,14.359468554757692,0.5049899292439238,-16.19965830532262,-10.677786177010027,-0.9853678138891631,1.5541859835810852,-33.475544,7.8358772,57.957619,89.71874199999998,-48.420837,-14.060442,29.260769,60.77443999999999,-40.983995,-8.5025595,67.999331,33.18336000000001,13.61176,-0.5506685099999998,20.262597,64.78274
0.078,2.088593386358988,19.724527680518584,14.333107449845542,0.5129127093385025,-16.13393858656343,-10.596394006111328,-0.9802009164256243,1.5417085316242363,-33.547616,7.8097808,57.883666000000005,89.79338799999998,-48.521718,-14.125188,29.389766,60.80215999999999,-41.13893,-8.520032999999998,68.23663400000001,33.01704000000001,13.52464,-0.5701091399999999,20.276358,65.01836
0.079,2.0495820801135114,19.62729012207073,14.30674634493339,0.5208354894330814,-16.06821886780424,-10.515001835212624,-0.9750340189620856,1.5292310796673867,-33.619688,7.7836844,57.809713,89.86803399999998,-48.622599,-14.189934,29.518763,60.82988,-41.293865,-8.537506500000001,68.473937,32.85072000000001,13.43752,-0.58954977,20.290119,65.25398
0.08,2.0105707738680345,19.53005256362288,14.28038524002124,0.5287582695276604,-16.002499149045047,-10.433609664313924,-0.969867121498547,1.5167536277105376,-33.69176,7.757588,57.73576,89.94267999999998,-48.72348,-14.25468,29.64776,60.8576,-41.4488,-8.55498,68.71124,32.68440000000001,13.3504,-0.6089903999999999,20.30388,65.48960000000001
0.081,1.9715594676225576,19.432815005175026,14.254024135109091,0.5366810496222392,-15.936779430285855,-10.352217493415225,-0.9647002240350083,1.5042761757536887,-33.759842,7.7272071,57.660021,90.01430499999998,-48.825178,-14.322732,29.79684,60.89254,-41.600809,-8.5739754,68.94955,32.52283000000001,13.26423,-0.6281180999999999,20.32051,65.71781
0.082,1.9330180790841205,19.331740989092,14.226087287061988,0.5429236885809927,-15.861355559716772,-10.286204783428587,-0.9534806518276961,1.4881604966030944,-33.811124,7.6787862,57.576762,90.07321,-48.930316,-14.404704,30.03048,60.95788,-41.740498,-8.5993788,69.19210000000001,32.381260000000005,13.18206,-0.6459282,20.34922,65.91482
0.083,1.8952859932633637,19.224059740415047,14.19543665917136,0.5462727511391584,-15.769218983252882,-10.246678922790512,-0.9318370286727747,1.46577898172994,-33.862406,7.6303653,57.493503,90.132115,-49.035454,-14.486676,30.26412,61.02322,-41.880187,-8.6247822,69.43465,32.23969000000001,13.099890000000002,-0.6637383,20.37793,66.11183000000001
0.084,1.8575539074426064,19.116378491738104,14.164786031280732,0.5496218136973241,-15.67708240678899,-10.207153062152436,-0.9101934055178534,1.4433974668567855,-33.913688,7.5819444,57.410244,90.19102,-49.140592,-14.568648,30.49776,61.08856,-42.019876,-8.6501856,69.6772,32.09812000000001,13.017720000000002,-0.6815484,20.40664,66.30884
0.085,1.8198218216218491,19.00869724306116,14.134135403390104,0.5529708762554899,-15.5849458303251,-10.16762720151436,-0.8885497823629321,1.4210159519836307,-33.96497,7.5335235,57.326985,90.249925,-49.24573,-14.65062,30.7314,61.1539,-42.159565,-8.675589,69.91975000000001,31.956550000000007,12.93555,-0.6993585,20.43535,66.50585000000001
0.086,1.782089735801092,18.90101599438421,14.103484775499476,0.5563199388136556,-15.492809253861209,-10.128101340876283,-0.8669061592080107,1.3986344371104764,-34.016252,7.4851026,57.243726,90.30883,-49.350868,-14.732592,30.96504,61.21924,-42.299254,-8.7009924,70.1623,31.81498000000001,12.85338,-0.7171686,20.46406,66.70286
0.087,1.744357649980335,18.793334745707263,14.072834147608848,0.5596690013718213,-15.400672677397315,-10.088575480238209,-0.8452625360530893,1.3762529222373219,-34.067534,7.4366817,57.160467,90.367735,-49.456006,-14.814564,31.198680000000003,61.284580000000005,-42.438943,-8.7263958,70.40485,31.673410000000008,12.77121,-0.7349787000000002,20.49277,66.89987
0.08799999999999998,1.7066255641595784,18.685653497030316,14.042183519718224,0.563018063929987,-15.308536100933429,-10.049049619600131,-0.8236189128981681,1.3538714073641676,-34.118816,7.3882608,57.077208,90.42664,-49.561144,-14.896536,31.43232,61.34992,-42.578632,-8.7517992,70.64739999999999,31.53184000000001,12.689040000000004,-0.7527887999999998,20.52148,67.09688
0.08899999999999998,1.6688934783388214,18.57797224835337,14.011532891827596,0.5663671264881527,-15.216399524469535,-10.009523758962052,-0.8019752897432467,1.331489892491013,-34.170098,7.3398399,56.993949,90.485545,-49.666282,-14.978508,31.66596,61.41526,-42.718321,-8.7772026,70.88995,31.390270000000008,12.606870000000002,-0.7705988999999999,20.55019,67.29389
0.08999999999999998,1.6311613925180644,18.470290999676415,13.980882263936968,0.5697161890463184,-15.124262948005644,-9.969997898323978,-0.7803316665883254,1.3091083776178585,-34.22138,7.291419,56.91069,90.54445,-49.77142,-15.06048,31.8996,61.4806,-42.85801,-8.802605999999999,71.1325,31.248700000000007,12.524700000000003,-0.7884089999999998,20.5789,67.4909
0.091,1.593429306697307,18.36260975099947,13.95023163604634,0.5730652516044842,-15.032126371541755,-9.9304720376859,-0.758688043433404,1.286726862744704,-34.270565,7.2412062,56.826711,90.601942,-49.876296999999994,-15.144692999999998,32.1408,61.55143,-42.996547,-8.829013799999998,71.37274599999999,31.110280000000007,12.442440000000005,-0.80612001,20.60986,67.68404
0.092,1.5558627644796734,18.253006150607906,13.921061706061115,0.5752358935365115,-14.940825430387104,-9.886968377782484,-0.7387216310621623,1.2705429279298828,-34.29878,7.1730744,56.735532,90.645304,-49.978564,-15.251316,32.4576,61.67716000000001,-43.123564,-8.865465599999999,71.589952,31.003360000000004,12.359280000000004,-0.8228401199999998,20.66332,67.83848
0.09300000000000001,1.5191446332280472,18.13355049767889,13.89948035284108,0.5713671297595798,-14.85380712019232,-9.823078496644206,-0.7273509239572791,1.2861215909140205,-34.326995,7.1049426,56.644353,90.688666,-50.080831,-15.357939,32.7744,61.80289,-43.250581,-8.901917399999999,71.80715799999999,30.89644,12.276120000000002,-0.8395602299999998,20.71678,67.99292
0.094,1.482426501976421,18.01409484474987,13.877898999621044,0.5674983659826481,-14.766788809997532,-9.75918861550592,-0.7159802168523957,1.301700253898158,-34.35521,7.0368108,56.553174,90.73202800000001,-50.183097999999994,-15.464562,33.0912,61.92862,-43.377598,-8.938369199999999,72.02436399999999,30.78952,12.192960000000001,-0.8562803399999999,20.77024,68.14736
0.095,1.4457083707247946,17.894639191820854,13.856317646401008,0.5636296022057165,-14.679770499802746,-9.69529873436764,-0.7046095097475121,1.3172789168822951,-34.383425,6.968679,56.461995,90.77539,-50.285365,-15.571185,33.408,62.05435000000001,-43.504615,-8.974820999999999,72.24156999999998,30.6826,12.1098,-0.8730004499999998,20.8237,68.3018
0.096,1.4089902394731684,17.77518353889184,13.834736293180976,0.5597608384287849,-14.59275218960796,-9.63140885322936,-0.6932388026426288,1.3328575798664328,-34.41164,6.9005472,56.370816,90.818752,-50.387632,-15.677807999999999,33.724799999999995,62.18008,-43.631632,-9.011272799999999,72.458776,30.57568,12.026640000000002,-0.88972056,20.87716,68.45624000000001
0.097,1.372272108221542,17.655727885962825,13.81315493996094,0.5558920746518532,-14.505733879413174,-9.567518972091076,-0.6818680955377454,1.3484362428505703,-34.439855,6.8324154,56.279637,90.862114,-50.489899,-15.784431,34.041599999999995,62.30581,-43.758649,-9.047724599999999,72.67598199999999,30.46876,11.94348,-0.9064406699999998,20.93062,68.61068
0.098,1.3355539769699158,17.53627223303381,13.791573586740904,0.5520233108749215,-14.418715569218389,-9.503629090952797,-0.670497388432862,1.3640149058347075,-34.46807,6.7642836,56.188458,90.905476,-50.592166,-15.891053999999999,34.3584,62.431540000000005,-43.885666,-9.084176399999999,72.89318799999998,30.36184,11.86032,-0.92316078,20.98408,68.76512
0.099,1.2988358457182896,17.416816580104793,13.76999223352087,0.5481545470979897,-14.331697259023603,-9.439739209814515,-0.6591266813279786,1.3795935688188452,-34.496285,6.6961518,56.097279,90.948838,-50.694433,-15.997677,34.6752,62.55727,-44.012683,-9.120628199999999,73.110394,30.254919999999995,11.77716,-0.9398808899999999,21.03754,68.91956
0.1,1.262117714466663,17.297360927175777,13.748410880300835,0.5442857833210584,-14.244678948828817,-9.375849328676232,-0.6477559742230952,1.3951722318029827,-34.5245,6.62802,56.0061,90.9922,-50.7967,-16.1043,34.992,62.683,-44.1397,-9.157079999999999,73.3276,30.147999999999993,11.694,-0.956601,21.091,69.074
0.101,1.225399583215037,17.177905274246765,13.726829527080797,0.5404170195441266,-14.15766063863403,-9.311959447537951,-0.6363852671182118,1.41075089478712,-34.552715,6.5598882,55.914921,91.035562,-50.898967,-16.210922999999998,35.3088,62.80873,-44.266717,-9.1935318,73.54480599999998,30.041079999999997,11.61084,-0.9733211099999999,21.14446,69.22844
0.102,1.1886814519634108,17.05844962131775,13.705248173860763,0.5365482557671949,-14.070642328439243,-9.248069566399668,-0.6250145600133283,1.4263295577712576,-34.569464,6.4740576,55.823056,91.070692,-50.965366,-16.351257999999994,35.629324,63.02364,-44.389226,-9.2378922,73.713796,29.944939999999992,11.52376,-0.99257158,21.222028,69.35642
0.103,1.152097038535373,16.94274567052907,13.663369592103145,0.5462860863243689,-13.984271485434284,-9.178796000162537,-0.6151855072632033,1.4081945018161999,-34.586096,6.3880464,55.731184,91.105738,-51.031399,-16.491937,35.949886,63.23946,-44.511689,-9.2823333,73.882294,29.848909999999993,11.43664,-1.01184787,21.299842,69.48413000000001
0.104,1.115518315227488,16.827201366639983,13.62062729849286,0.5566029208957601,-13.897928194224635,-9.109293340942477,-0.6054220568260469,1.3886248195233046,-34.602728,6.3020352,55.639312,91.140784,-51.097432,-16.632616,36.270448,63.45528,-44.634152,-9.3267744,74.050792,29.752879999999998,11.34952,-1.0311241599999998,21.377656,69.61184
0.105,1.0789395919196036,16.7116570627509,13.57788500488258,0.5669197554671512,-13.811584903014989,-9.039790681722415,-0.5956586063888906,1.3690551372304096,-34.61935999999999,6.216024000000001,55.54744,91.17583,-51.163465,-16.773294999999997,36.59100999999999,63.6711,-44.756615,-9.371215499999998,74.21929,29.656849999999995,11.262400000000005,-1.0504004499999997,21.45547,69.73955
0.106,1.0423608686117187,16.59611275886181,13.535142711272297,0.5772365900385424,-13.725241611805336,-8.970288022502357,-0.585895155951734,1.3494854549375144,-34.635991999999995,6.130012800000001,55.455568,91.210876,-51.229498,-16.913973999999996,36.91157199999999,63.88692,-44.879078,-9.415656599999998,74.387788,29.560819999999993,11.175280000000003,-1.0696767399999996,21.533284,69.86726
0.107,1.0057821453038338,16.480568454972722,13.492400417662012,0.5875534246099335,-13.638898320595688,-8.900785363282294,-0.5761317055145776,1.3299157726446191,-34.652623999999996,6.044001600000001,55.363696,91.245922,-51.295531,-17.054653,37.232134,64.10274,-45.001541,-9.460097699999999,74.556286,29.464789999999997,11.088160000000004,-1.0889530299999997,21.611098,69.99497
0.108,0.9692034219959488,16.365024151083638,13.44965812405173,0.5978702591813247,-13.55255502938604,-8.831282704062234,-0.5663682550774211,1.310346090351724,-34.669256,5.957990400000001,55.271824,91.280968,-51.361564,-17.195331999999997,37.552696,64.31855999999999,-45.124004,-9.5045388,74.724784,29.368759999999995,11.001040000000003,-1.1082293199999995,21.688912,70.12268
0.109,0.9326246986880636,16.24947984719455,13.406915830441449,0.6081870937527158,-13.46621173817639,-8.761780044842174,-0.5566048046402645,1.2907764080588289,-34.685888,5.871979200000001,55.179952,91.316014,-51.427597,-17.336011,37.87325799999999,64.53438,-45.246467,-9.5489799,74.893282,29.272729999999992,10.913920000000005,-1.1275056099999998,21.766726,70.25039
0.11,0.8960459753801788,16.133935543305462,13.364173536831164,0.6185039283241072,-13.379868446966743,-8.692277385622113,-0.5468413542031081,1.2712067257659339,-34.70252,5.785968,55.08808,91.35106,-51.49363,-17.476689999999994,38.19382,64.75019999999999,-45.36893,-9.593421,75.06178,29.176699999999997,10.826800000000004,-1.1467818999999997,21.84454,70.37809999999999
0.111,0.8594672520722939,16.018391239416374,13.321431243220882,0.6288207628954982,-13.293525155757091,-8.622774726402051,-0.5370779037659515,1.2516370434730386,-34.719151999999994,5.699956800000001,54.996208,91.386106,-51.559663,-17.617368999999997,38.514382,64.96602,-45.491393,-9.6378621,75.230278,29.080669999999994,10.739680000000003,-1.1660581899999996,21.922354,70.50581
0.112,0.8228885287644088,15.902846935527286,13.278688949610599,0.6391375974668894,-13.207181864547444,-8.55327206718199,-0.5273144533287951,1.2320673611801432,-34.737719999999996,5.602312,54.900112,91.414024,-51.584424,-17.784712,38.792528,65.25576,-45.606728,-9.6871696,75.361728,28.989039999999996,10.645432000000003,-1.1895399999999998,22.002808,70.61768
0.113,0.7864501772703587,15.788694060425616,13.230872526037347,0.6476743658162594,-13.110474581173028,-8.484569880972021,-0.5212952905895316,1.2047124137471072,-34.75653,5.503213000000001,54.803488,91.441051,-51.604026,-17.955388,39.065372,65.55474,-45.721172,-9.7370854,75.48854699999998,28.897959999999998,10.550293000000003,-1.2135474999999996,22.083592,70.72757
0.114,0.7500573517699847,15.674992459525267,13.181410438692316,0.6556338153909198,-13.010406003042476,-8.416127307630187,-0.5164904914279631,1.1748325154578096,-34.77534,5.404114000000001,54.706864,91.468078,-51.623628,-18.126064,39.338216,65.85372,-45.835616,-9.7870012,75.61536599999998,28.80688,10.455154000000004,-1.237555,22.164376,70.83746
0.115,0.7136645262696105,15.56129085862492,13.13194835134729,0.6635932649655801,-12.910337424911924,-8.347684734288354,-0.5116856922663945,1.1449526171685118,-34.79415,5.305015,54.61024,91.495105,-51.64323,-18.29674,39.61106,66.1527,-45.95006,-9.836917,75.74218499999998,28.7158,10.360015000000004,-1.2615625,22.24516,70.94735
0.116,0.6772717007692366,15.447589257724575,13.082486264002265,0.6715527145402407,-12.810268846781373,-8.279242160946522,-0.506880893104826,1.115072718879214,-34.81296,5.205916,54.513616,91.52213200000001,-51.662832,-18.467416,39.883904,66.45168,-46.064504,-9.8868328,75.869004,28.62472,10.264876000000005,-1.2855699999999999,22.325944,71.05724
0.117,0.6408788752688626,15.333887656824228,13.033024176657232,0.6795121641149011,-12.71020026865082,-8.210799587604688,-0.5020760939432574,1.085192820589916,-34.83177,5.106817,54.416992,91.549159,-51.682434,-18.638092,40.156748,66.75066,-46.178948000000005,-9.9367486,75.995823,28.53364,10.169737000000003,-1.3095775,22.406728,71.16713
0.118,0.6044860497684886,15.22018605592388,12.983562089312207,0.6874716136895616,-12.610131690520264,-8.142357014262855,-0.49727129478168886,1.0553129223006184,-34.85058,5.007718,54.320368,91.576186,-51.702036,-18.808768,40.429592,67.04964,-46.293392,-9.9866644,76.122642,28.44256,10.074598000000003,-1.333585,22.487512,71.27702
0.119,0.5680932242681146,15.106484455023532,12.93410000196718,0.6954310632642221,-12.510063112389712,-8.073914440921023,-0.49246649562012024,1.0254330240113207,-34.86939,4.908619,54.223744,91.603213,-51.721638,-18.979444,40.702436,67.34862000000001,-46.407836,-10.0365802,76.24946099999998,28.35148,9.979459000000004,-1.3575925000000002,22.568296,71.38691
0.12,0.5317003987677411,14.992782854123188,12.884637914622152,0.7033905128388824,-12.40999453425916,-8.00547186757919,-0.48766169645855184,0.9955531257220231,-34.8882,4.809520000000001,54.12712,91.63024,-51.74124,-19.15012,40.97528,67.6476,-46.52228,-10.086496,76.37627999999998,28.260400000000004,9.884320000000004,-1.3815999999999995,22.64908,71.4968
0.121,0.495307573267367,14.87908125322284,12.835175827277123,0.7113499624135429,-12.309925956128607,-7.937029294237357,-0.4828568972969833,0.9656732274327255,-34.90701,4.710421000000001,54.030496,91.657267,-51.760842,-19.320796,41.248124,67.94658,-46.636724,-10.1364118,76.503099,28.16932000000001,9.789181000000006,-1.4056075,22.729864,71.60669
0.122,0.458914747766993,14.765379652322494,12.785713739932095,0.7193094119882033,-12.209857377998055,-7.868586720895523,-0.4780520981354147,0.935793329143428,-34.934556,4.608771400000001,53.93317,91.67789800000001,-51.752754,-19.508398,41.489611999999994,68.29002,-46.731278,-10.187092,76.62555,28.093840000000007,9.685540000000005,-1.4313622,22.799026,71.71423999999999
0.123,0.4226794096953913,14.654100537799028,12.731691748584415,0.7265642266669468,-12.111610624042072,-7.795709752151015,-0.4740738964436009,0.9098025730653235,-34.964454,4.506435100000001,53.835655,91.696807,-51.737211,-19.700557,41.722658,68.64543,-46.820477,-10.237978,76.746825,28.022560000000006,9.579610000000002,-1.4575873,22.865059,71.82115999999999
0.124,0.3865723947139003,14.544795301064136,12.67395427990124,0.7332448943934614,-12.014848319413513,-7.719219572337659,-0.4707692186160318,0.8869807476778211,-34.994352,4.404098800000001,53.73814,91.715716,-51.721668,-19.892716,41.955704,69.00084,-46.909676,-10.288864,76.8681,27.951280000000008,9.473680000000003,-1.4838124,22.931092,71.92808
0.125,0.35046537973240927,14.435490064329244,12.616216811218067,0.7399255621199763,-11.918086014784956,-7.642729392524304,-0.4674645407884627,0.8641589222903185,-35.02425,4.301762500000001,53.640625,91.734625,-51.706125,-20.084875,42.18875,69.35625,-46.998875,-10.33975,76.98937499999998,27.88000000000001,9.367750000000001,-1.5100375,22.997125,72.035
0.126,0.3143583647509184,14.326184827594348,12.558479342534891,0.746606229846491,-11.8213237101564,-7.566239212710949,-0.4641598629608936,0.8413370969028161,-35.054148,4.1994262,53.54311,91.753534,-51.690582,-20.277034,42.42179599999999,69.71166,-47.088074,-10.390635999999999,77.11064999999998,27.808720000000008,9.261820000000002,-1.5362626,23.063158,72.14192
0.127,0.27825134976942745,14.216879590859456,12.500741873851716,0.7532868975730057,-11.724561405527844,-7.489749032897592,-0.46085518513332446,0.8185152715153139,-35.084046,4.0970899,53.445595,91.772443,-51.675039,-20.469193,42.654842,70.06707,-47.177273,-10.441522,77.231925,27.737440000000007,9.15589,-1.5624876999999997,23.129191,72.24883999999999
0.128,0.24214433478793643,14.107574354124564,12.443004405168544,0.7599675652995204,-11.627799100899287,-7.413258853084235,-0.45755050730575536,0.7956934461278113,-35.113944000000004,3.994753600000001,53.34808,91.791352,-51.659496,-20.661352,42.887888,70.42248,-47.266472,-10.492408,77.3532,27.66616000000001,9.04996,-1.5887127999999997,23.195224,72.35576
0.129,0.2060373198064455,13.99826911738967,12.385266936485367,0.7666482330260352,-11.531036796270728,-7.336768673270878,-0.4542458294781863,0.7728716207403089,-35.143842,3.892417300000001,53.250565,91.810261,-51.643953,-20.853511,43.120934,70.77789,-47.355671,-10.543294,77.474475,27.594880000000007,8.944029999999998,-1.6149378999999997,23.261257,72.46267999999998
0.13,0.16993030482495453,13.888963880654776,12.327529467802195,0.7733289007525501,-11.434274491642174,-7.260278493457523,-0.4509411516506172,0.7500497953528064,-35.17374,3.7900810000000007,53.15305,91.82917,-51.62841,-21.04567,43.35397999999999,71.13329999999999,-47.44487,-10.59418,77.59574999999998,27.52360000000001,8.8381,-1.6411629999999997,23.32729,72.56959999999998
0.131,0.13382328984346353,13.779658643919884,12.26979199911902,0.7800095684790647,-11.337512187013616,-7.183788313644167,-0.44763647382304805,0.727227969965304,-35.203638,3.687744700000001,53.055535,91.848079,-51.612867,-21.237829,43.587026,71.48871,-47.534069,-10.645066,77.71702499999998,27.452320000000007,8.73217,-1.6673880999999997,23.393323,72.67651999999998
0.132,0.09771627486197261,13.67035340718499,12.212054530435847,0.7866902362055795,-11.24074988238506,-7.107298133830811,-0.44433179599547895,0.7044061445778016,-35.238364,3.5926436000000006,52.965772,91.865016,-51.574612,-21.443044,43.790356,71.87743999999999,-47.60688,-10.689628,77.84931599999999,27.404840000000007,8.622364,-1.6920491999999998,23.447184,72.78615999999998
0.133,0.062127781457208514,13.562650870310904,12.15121666148056,0.7943790238458565,-11.139130829130735,-7.033663455067634,-0.4422369311331229,0.679731633019981,-35.275291,3.5008409000000005,52.879543,91.881054,-51.526003,-21.654211,43.980139,72.28135999999998,-47.67222,-10.731307,77.98662899999998,27.368210000000005,8.510790999999998,-1.7159972999999995,23.495496,72.89704
0.134,0.027515328667459697,13.457965180233636,12.084542744954236,0.8039654489708625,-11.028369660816152,-6.965403837104794,-0.4424193612641088,0.6515697122003855,-35.312218,3.409038200000001,52.793314,91.897092,-51.477394,-21.865378,44.16992199999999,72.68527999999998,-47.73756,-10.772986,78.123942,27.331580000000002,8.399217999999998,-1.7399453999999999,23.543808,73.00792
0.135,-0.007097124122289106,13.353279490156364,12.017868828427911,0.8135518740958685,-10.917608492501568,-6.8971442191419525,-0.44260179139509453,0.62340779138079,-35.349145,3.3172355000000007,52.707085,91.91313,-51.428785,-22.076544999999996,44.359705,73.08919999999999,-47.8029,-10.814665,78.26125499999998,27.294950000000007,8.287645000000001,-1.7638934999999996,23.59212,73.11879999999998
0.136,-0.04170957691203792,13.248593800079094,11.951194911901588,0.8231382992208744,-10.806847324186982,-6.8288846011791104,-0.4427842215260804,0.5952458705611945,-35.386072,3.225432800000001,52.620856,91.929168,-51.380176,-22.287712,44.549488,73.49311999999999,-47.86824,-10.856344,78.39856799999998,27.258320000000005,8.176072000000001,-1.7878415999999997,23.640432,73.22968
0.137,-0.07632202970178673,13.143908110001824,11.884520995375263,0.8327247243458803,-10.696086155872395,-6.760624983216268,-0.44296665165706633,0.567083949741599,-35.422999,3.133630100000001,52.534627,91.945206,-51.331567,-22.498879,44.739271,73.89704,-47.93358,-10.898023,78.535881,27.221690000000002,8.064499000000001,-1.8117897,23.688744,73.34055999999998
0.138,-0.11093448249153552,13.039222419924554,11.817847078848942,0.8423111494708863,-10.585324987557811,-6.692365365253428,-0.44314908178805207,0.5389220289220036,-35.459925999999996,3.0418274000000007,52.448398,91.961244,-51.282958,-22.710046,44.929053999999994,74.30096,-47.99892,-10.939702,78.67319399999998,27.185060000000004,7.9529260000000015,-1.8357378,23.737056,73.45143999999999
0.139,-0.14554693528128435,12.934536729847283,11.751173162322617,0.8518975745958923,-10.474563819243224,-6.624105747290586,-0.443331511919038,0.510760108102408,-35.496853,2.9500247000000006,52.362169,91.977282,-51.234349,-22.921213,45.118837,74.70488,-48.06426,-10.981381,78.810507,27.148430000000005,7.841353000000002,-1.8596859,23.785368,73.56232
0.14,-0.18015938807103316,12.829851039770013,11.684499245796294,0.8614839997208983,-10.36380265092864,-6.555846129327746,-0.4435139420500239,0.48259818728281256,-35.53378,2.858222000000001,52.275940000000006,91.99332,-51.18574,-23.13238,45.30862,75.1088,-48.1296,-11.02306,78.94781999999998,27.1118,7.729780000000002,-1.883634,23.83368,73.67319999999998
0.141,-0.214771840860782,12.725165349692743,11.617825329269971,0.8710704248459041,-10.253041482614057,-6.487586511364904,-0.44369637218100966,0.4544362664632171,-35.570707,2.766419300000001,52.189711,92.009358,-51.137131,-23.343547,45.498403,75.51272,-48.19494,-11.064739,79.085133,27.075170000000004,7.6182070000000035,-1.9075821,23.881992,73.78408
0.142,-0.2493842936505308,12.620479659615471,11.551151412743648,0.8806568499709102,-10.142280314299471,-6.419326893402063,-0.4438788023119956,0.4262743456436216,-35.603806,2.6848594000000006,52.113226,92.025048,-51.069266,-23.561964,45.665508,75.938738,-48.253552,-11.097312,79.23323399999998,27.055940000000003,7.504546000000005,-1.9268728,23.918066,73.89264
0.143,-0.2836164843828796,12.51627739063824,11.483726682684035,0.8892081651739628,-10.033206478287642,-6.350119610947203,-0.44549179716710735,0.39921827968110846,-35.634198999999995,2.6105401000000006,52.043629,92.040492,-50.987789,-23.785506,45.816582,76.38037700000001,-48.307408,-11.123448,79.38896099999998,27.04901,7.389409000000003,-1.9428712,23.945489,73.99956
0.144,-0.3155671027708292,12.414975648261231,11.411797071424676,0.8915488208452974,-9.934256636092352,-6.275226341540232,-0.45568818036697345,0.37879734286108785,-35.664592,2.5362208,51.974032,92.055936,-50.906312,-24.009048,45.967656,76.822016,-48.361264,-11.149584,79.54468799999998,27.042080000000006,7.274272000000003,-1.9588696,23.972912,74.10648
0.145,-0.34751772115877777,12.313673905884224,11.33986746016532,0.8938894765166316,-9.835306793897066,-6.20033307213326,-0.4658845635668392,0.35837640604106785,-35.694984999999996,2.4619015000000015,51.90443500000001,92.07138,-50.824835,-24.232589999999995,46.11872999999999,77.263655,-48.41512,-11.17572,79.70041499999998,27.035150000000005,7.159135000000007,-1.974868,24.000335,74.21339999999998
0.146,-0.37946833954672726,12.212372163507219,11.267937848905962,0.8962301321879662,-9.736356951701776,-6.125439802726286,-0.47608094676670526,0.33795546922104724,-35.725378,2.3875822000000015,51.834838,92.086824,-50.743358,-24.456132,46.26980399999999,77.70529399999998,-48.468976,-11.201856,79.85614199999998,27.028220000000005,7.043998000000007,-1.9908663999999996,24.027758,74.32031999999998
0.147,-0.4114189579346768,12.111070421130211,11.196008237646604,0.8985707878593004,-9.637407109506489,-6.050546533319314,-0.4862773299665713,0.3175345324010267,-35.755770999999996,2.313262900000001,51.765241,92.102268,-50.661881,-24.679673999999995,46.420878,78.146933,-48.522832,-11.227992,80.01186899999999,27.021290000000008,6.9288610000000075,-2.0068648,24.055181,74.42723999999998
0.148,-0.44336957632262625,12.009768678753204,11.124078626387247,0.900911443530635,-9.538457267311196,-5.97565326391234,-0.4964737131664373,0.29711359558100614,-35.786164,2.238943600000001,51.695644,92.117712,-50.580404,-24.903216,46.571952,78.588572,-48.576688,-11.254128,80.167596,27.014360000000007,6.813724000000007,-2.0228632,24.082604,74.53416
0.149,-0.4753201947105757,11.908466936376197,11.052149015127888,0.9032520992019692,-9.439507425115906,-5.900759994505368,-0.5066700963663033,0.2766926587609856,-35.816557,2.1646243000000007,51.626047,92.13315600000001,-50.498927,-25.126757999999995,46.723026,79.03021099999998,-48.630544,-11.280263999999997,80.323323,27.007430000000006,6.698587000000007,-2.0388616,24.110027,74.64108
0.15,-0.5072708130985253,11.807165193999188,10.980219403868528,0.9055927548733038,-9.340557582920615,-5.825866725098393,-0.5168664795661694,0.256271721940965,-35.84695,2.0903050000000007,51.556450000000005,92.1486,-50.41745,-25.3503,46.8741,79.47185,-48.6844,-11.3064,80.47905,27.00050000000001,6.583450000000007,-2.05486,24.13745,74.74799999999999
0.151,-0.5392214314864747,11.705863451622179,10.908289792609173,0.9079334105446383,-9.241607740725327,-5.750973455691422,-0.5270628627660353,0.2358507851209444,-35.877343,2.0159857000000008,51.486853,92.164044,-50.335973,-25.573842,47.025174,79.913489,-48.738256,-11.332536,80.634777,26.99357000000001,6.468313000000007,-2.0708584,24.164873,74.85491999999998
0.152,-0.5711720498744243,11.604561709245171,10.836360181349814,0.9102740662159726,-9.142657898530036,-5.676080186284449,-0.5372592459659015,0.21542984830092385,-35.90044,1.9497736000000003,51.424888,92.178192,-50.238416,-25.80036,47.168232,80.36419999999998,-48.788992,-11.353728,80.792952,26.991440000000008,6.350152000000008,-2.0812408,24.18164,74.95416
0.153,-0.6031226682623737,11.503259966868164,10.764430570090456,0.9126147218873071,-9.043708056334749,-5.6011869168774755,-0.5474556291657675,0.19500891148090324,-35.915785,1.8921754000000004,51.371032,92.190963,-50.123774,-26.03004,47.302773,80.82455,-48.836413,-11.369667,80.953728,26.99441000000001,6.228778000000007,-2.0856562,24.187085,75.04523999999998
0.154,-0.631707969580377,11.4036964414636,10.686429039878524,0.9152109191285264,-8.950165563109444,-5.5196871396759954,-0.5627938168800769,0.16665087169360507,-35.93113,1.8345772000000005,51.317176,92.203734,-50.009132,-26.25972,47.437314,81.28489999999998,-48.883834,-11.385606,81.11450399999998,26.997380000000007,6.107404000000007,-2.0900716,24.19253,75.13631999999998
0.155,-0.6600737936981665,11.304246278035505,10.608031514952296,0.9178237821243038,-8.856975723077834,-5.437756503270526,-0.5784673396714148,0.13777519475626726,-35.946475,1.7769790000000003,51.26332,92.216505,-49.89449,-26.4894,47.571855,81.74525,-48.931255,-11.401545,81.27527999999998,27.000350000000008,5.986030000000008,-2.094487,24.197975,75.2274
0.156,-0.688439617815956,11.204796114607404,10.529633990026069,0.9204366451200809,-8.763785883046225,-5.355825866865056,-0.594140862462753,0.10889951781892943,-35.96182,1.7193808000000004,51.209464,92.229276,-49.779848,-26.71908,47.706396,82.2056,-48.978676,-11.417484,81.43605599999998,27.00332000000001,5.864656000000007,-2.0989024,24.20342,75.31847999999998
0.157,-0.7168054419337455,11.105345951179304,10.45123646509984,0.9230495081158583,-8.670596043014614,-5.273895230459586,-0.6098143852540912,0.0800238408815916,-35.977165,1.6617826000000004,51.155608,92.24204700000001,-49.665206,-26.94876,47.840937,82.66594999999998,-49.026097,-11.433423,81.596832,27.006290000000007,5.743282000000008,-2.1033178,24.208865,75.40956
0.158,-0.745171266051535,11.005895787751207,10.372838940173608,0.9256623711116355,-8.577406202983006,-5.191964594054117,-0.6254879080454292,0.051148163944253776,-35.99251,1.6041844000000005,51.101752,92.254818,-49.550564,-27.17844,47.975478,83.1263,-49.073518,-11.449361999999997,81.757608,27.00926000000001,5.621908000000008,-2.1077332,24.21431,75.50064
0.159,-0.7735370901693245,10.90644562432311,10.294441415247382,0.9282752341074128,-8.484216362951397,-5.110033957648648,-0.6411614308367674,0.022272487006915948,-36.007855,1.5465862000000004,51.047896,92.267589,-49.435922000000005,-27.40812,48.110019,83.58664999999998,-49.120939,-11.465301,81.918384,27.01223000000001,5.500534000000008,-2.1121486,24.219755,75.59171999999998
0.16,-0.8019029142871139,10.806995460895012,10.216043890321153,0.9308880971031901,-8.391026522919788,-5.028103321243179,-0.6568349536281054,-0.00660318993042186,-36.0232,1.4889880000000004,50.99404,92.28036,-49.32128,-27.6378,48.24456,84.04699999999998,-49.16836,-11.48124,82.07916,27.015200000000007,5.379160000000008,-2.116564,24.2252,75.6828
0.161,-0.8302687384049033,10.707545297466911,10.137646365394923,0.9335009600989672,-8.297836682888178,-4.94617268483771,-0.6725084764194436,-0.035478866867759695,-36.038545,1.4313898000000003,50.940184,92.293131,-49.206638000000005,-27.86748,48.379101000000006,84.50735,-49.215781,-11.497179,82.239936,27.01817000000001,5.257786000000008,-2.1209794,24.230645,75.77387999999998
0.162,-0.8586345625226931,10.608095134038814,10.059248840468696,0.9361138230947443,-8.204646842856569,-4.86424204843224,-0.6881819992107816,-0.06435454380509753,-36.055372,1.3768787200000003,50.892484,92.305826,-49.076530000000005,-28.097806,48.512806,84.96758599999998,-49.259402,-11.513156,82.39166799999998,27.02304000000001,5.135196000000008,-2.1214466,24.23248,75.85469999999998
0.163,-0.8870003866404824,10.508644970610716,9.980851315542466,0.9387266860905216,-8.111457002824958,-4.78231141202677,-0.7038555220021196,-0.09323022074243532,-36.074578,1.3273232800000003,50.854666,92.31839900000001,-48.921595,-28.329169,48.645169,85.427639,-49.296923,-11.529194,82.52888199999998,27.030960000000007,5.010654000000007,-2.1155759,24.228520000000003,75.91905
0.164,-0.9125650597928225,10.409651946343072,9.899800161451568,0.9374992632956372,-8.01671539401677,-4.701463132867891,-0.7203721427442897,-0.110081532603076,-36.093784,1.2777678400000003,50.816848,92.330972,-48.76666,-28.560532,48.777532,85.88769199999999,-49.334444,-11.545232,82.66609599999998,27.03888000000001,4.886112000000006,-2.1097052,24.22456,75.9834
0.165,-0.9371182062076396,10.310824000105596,9.817790752384541,0.9348850706319031,-7.921413424261489,-4.621005704936947,-0.7371932155242604,-0.12259071263046536,-36.11299,1.2282124000000003,50.77903,92.343545,-48.611725,-28.791895,48.909895,86.347745,-49.371965,-11.56127,82.80330999999998,27.046800000000005,4.761570000000005,-2.1038345,24.2206,76.04774999999998
0.166,-0.9616713526224565,10.211996053868118,9.73578134331751,0.9322708779681688,-7.826111454506206,-4.540548277006003,-0.754014288304231,-0.13509989265785474,-36.132196,1.1786569600000003,50.741212,92.356118,-48.456790000000005,-29.023258,49.042258,86.80779799999998,-49.409486,-11.577308,82.94052399999998,27.054720000000003,4.6370280000000035,-2.0979638,24.21664,76.1121
0.167,-0.9862244990372733,10.11316810763064,9.653771934250482,0.9296566853044346,-7.730809484750922,-4.46009084907506,-0.7708353610842016,-0.1476090726852441,-36.151402,1.1291015200000003,50.703394,92.368691,-48.301855,-29.254621,49.174621,87.26785099999998,-49.447007,-11.593346,83.07773799999998,27.06264,4.512486000000003,-2.0920931,24.21268,76.17645
0.168,-1.0107776454520903,10.014340161393163,9.571762525183452,0.9270424926407005,-7.635507514995639,-4.379633421144116,-0.7876564338641722,-0.16011825271263347,-36.170608,1.0795460800000003,50.665576,92.381264,-48.14692,-29.485984,49.306984,87.72790399999998,-49.484528,-11.609384,83.21495199999998,27.07056,4.387944000000002,-2.0862224,24.20872,76.2408
0.169,-1.0353307918669072,9.915512215155685,9.489753116116423,0.9244282999769664,-7.540205545240355,-4.299175993213172,-0.8044775066441427,-0.17262743274002285,-36.189814,1.0299906400000003,50.627758,92.393837,-47.991985,-29.717347,49.439347,88.18795699999998,-49.522049,-11.625422,83.35216599999998,27.07848,4.263402000000001,-2.0803517,24.20476,76.30514999999998
0.17,-1.059883938281724,9.816684268918207,9.407743707049395,0.921814107313232,-7.44490357548507,-4.218718565282228,-0.8212985794241133,-0.18513661276741225,-36.20902,0.9804352000000003,50.58994,92.40641,-47.83705,-29.94871,49.57171,88.64801,-49.55957,-11.64146,83.48937999999998,27.0864,4.13886,-2.074481,24.2008,76.3695
0.171,-1.0844370846965408,9.717856322680728,9.325734297982367,0.9191999146494979,-7.349601605729789,-4.138261137351284,-0.8381196522040838,-0.1976457927948016,-36.228226,0.9308797600000003,50.552122,92.418983,-47.682115,-30.180073,49.704073,89.108063,-49.597091,-11.657498,83.62659399999998,27.09432,4.014317999999999,-2.0686103,24.19684,76.43385
0.172,-1.108990231111358,9.619028376443252,9.243724888915338,0.9165857219857635,-7.254299635974504,-4.05780370942034,-0.8549407249840544,-0.21015497282219087,-36.251576,0.8813383200000003,50.51632,92.432732,-47.513124,-30.409392,49.836436,89.562712,-49.631364,-11.675888,83.751068,27.103919999999995,3.8915119999999983,-2.0612388,24.19638,76.49064
0.173,-1.1335433775261747,9.520200430205774,9.161715479848308,0.9139715293220296,-7.1589976662192205,-3.977346281489396,-0.871761797764025,-0.22266415284958027,-36.285434,0.8318323800000004,50.48563,92.449463,-47.308491,-30.633528,49.968799,90.003658,-49.657401,-11.700242,83.843237,27.11778,3.7731079999999975,-2.0500617,24.204795,76.52826
0.174,-1.1565496322909588,9.421133789928914,9.077094388199304,0.9112120407827614,-7.065072222792205,-3.896237628909641,-0.8902587520640444,-0.23879650619206824,-36.319292,0.7823264400000002,50.45494,92.466194,-47.103858,-30.857664,50.101162,90.444604,-49.683438,-11.724596,83.935406,27.13164,3.6547039999999975,-2.0388846,24.21321,76.56588
0.175,-1.1781874829037906,9.321855997232605,8.99016296195855,0.9083240212766749,-6.972364475732503,-3.8145528929867054,-0.9102382169394913,-0.25813397439022007,-36.35315,0.7328205000000002,50.42425,92.482925,-46.899225,-31.0818,50.233525,90.88555,-49.709475,-11.74895,84.027575,27.1455,3.536299999999998,-2.0277075,24.221625,76.60349999999998
0.176,-1.1998253335166216,9.222578204536298,8.9032315357178,0.905436001770588,-6.879656728672804,-3.7328681570637743,-0.9302176818149375,-0.2774714425883715,-36.387008,0.6833145600000012,50.39356,92.499656,-46.694592,-31.305935999999996,50.365888,91.326496,-49.735512,-11.773304,84.11974399999998,27.15936,3.4178960000000007,-2.0165304,24.23004,76.64112
0.177,-1.2214631841294536,9.123300411839985,8.816300109477046,0.9025479822645016,-6.786948981613102,-3.65118342114084,-0.9501971466903841,-0.2968089107865233,-36.420866,0.6338086200000012,50.36287,92.516387,-46.489959000000006,-31.530071999999997,50.498251,91.767442,-49.761549,-11.797657999999998,84.21191299999998,27.17322,3.2994920000000008,-2.0053533000000003,24.238455,76.67874
0.178,-1.2431010347422853,9.024022619143672,8.729368683236293,0.8996599627584148,-6.6942412345534,-3.569498685217905,-0.970176611565831,-0.3161463789846752,-36.454724,0.5843026800000011,50.33218,92.533118,-46.285326,-31.754207999999995,50.630614,92.20838799999999,-49.787586,-11.822012,84.30408199999998,27.18708,3.181088000000001,-1.9941762,24.24687,76.71635999999998
0.179,-1.2647388853551171,8.92474482644736,8.642437256995539,0.8967719432523281,-6.601533487493698,-3.4878139492949702,-0.9901560764412779,-0.33548384718282703,-36.488582,0.5347967400000009,50.30149,92.549849,-46.080693,-31.978344,50.762977,92.649334,-49.813623,-11.846366,84.396251,27.200940000000006,3.062684000000001,-1.9829991,24.255285,76.75398
0.18,-1.2863767359679488,8.825467033751051,8.555505830754788,0.8938839237462416,-6.508825740433996,-3.406129213372036,-1.0101355413167248,-0.35482131538097894,-36.52244,0.4852908000000008,50.2708,92.56657999999999,-45.87606,-32.202479999999994,50.89534,93.09028,-49.83966,-11.870719999999999,84.48842,27.214800000000007,2.9442800000000005,-1.971822,24.2637,76.7916
0.181,-1.3080145865807808,8.726189241054739,8.468574404514033,0.8909959042401548,-6.416117993374294,-3.3244444774491013,-1.0301150061921716,-0.3741587835791308,-36.556298000000005,0.4357848600000007,50.24011,92.583311,-45.671427,-32.426615999999996,51.027703,93.531226,-49.865697,-11.895074,84.580589,27.22866000000001,2.8258760000000005,-1.9606449,24.272115,76.82921999999998
0.182,-1.3296524371936127,8.62691144835843,8.38164297827328,0.8881078847340682,-6.323410246314591,-3.242759741526167,-1.0500944710676183,-0.39349625177728254,-36.589238,0.38551698000000056,50.205136,92.600888,-45.458406,-32.645028,51.164854,93.95899600000001,-49.890762,-11.919211999999998,84.665288,27.24432000000001,2.7089480000000004,-1.9497882,24.285786,76.86665999999998
0.183,-1.3512902878064443,8.527633655662118,8.294711552032526,0.8852198652279815,-6.230702499254889,-3.1610750056032324,-1.070073935943065,-0.4128337199754345,-36.618047,0.33182037000000053,50.150884,92.622272,-45.207639,-32.837681999999994,51.323551,94.327474,-49.911453,-11.942378,84.716372,27.26808000000001,2.598662,-1.9403733,24.323109,76.90329
0.184,-1.3720706739670228,8.427586312647856,8.206749433481411,0.8810881810660891,-6.137629863871886,-3.079570600082834,-1.0898639601222873,-0.4342611751971852,-36.646856,0.2781237600000005,50.09663200000001,92.643656,-44.956872,-33.030336,51.482248,94.695952,-49.932144,-11.965544,84.76745600000001,27.291840000000004,2.4883759999999993,-1.9309584,24.360432,76.93992
0.185,-1.3910825396948283,8.325951772102824,8.116661512040181,0.8743914385515971,-6.04380464632207,-2.9984381260176662,-1.1092632628655457,-0.45999922865510834,-36.675665,0.22442715000000055,50.04238,92.66504,-44.706105,-33.222989999999996,51.640945,95.06443,-49.952835,-11.98871,84.81854,27.315600000000003,2.378089999999999,-1.9215435,24.397755,76.97655
0.186,-1.4100944054226343,8.224317231557793,8.026573590598952,0.8676946960371053,-5.949979428772256,-2.917305651952499,-1.1286625656088043,-0.48573728211303147,-36.704474,0.17073054000000057,49.988128,92.686424,-44.455338,-33.41564399999999,51.799642,95.432908,-49.973526,-12.011876,84.869624,27.33936,2.2678039999999986,-1.9121286,24.435078,77.01318
0.187,-1.42910627115044,8.122682691012757,7.936485669157719,0.8609979535226133,-5.8561542112224405,-2.8361731778873316,-1.1480618683520627,-0.5114753355709546,-36.733283,0.11703393000000056,49.933876000000005,92.70780800000001,-44.204571,-33.608298,51.958339,95.801386,-49.994217,-12.035041999999997,84.920708,27.36312,2.1575179999999983,-1.9027137,24.472401,77.04981
0.188,-1.4481181368782456,8.021048150467724,7.846397747716489,0.8543012110081214,-5.762328993672626,-2.755040703822164,-1.1674611710953215,-0.5372133890288777,-36.762092,0.06333732000000059,49.879624,92.729192,-43.953804,-33.800951999999995,52.117036,96.169864,-50.014908,-12.058207999999999,84.97179199999998,27.38688,2.047231999999997,-1.8932988,24.509724,77.08643999999998
0.189,-1.4671300026060514,7.9194136099226915,7.756309826275258,0.8476044684936295,-5.668503776122812,-2.6739082297569965,-1.18686047383858,-0.5629514424868008,-36.790901,0.009640710000000554,49.825372,92.750576,-43.703037,-33.99360599999999,52.275733,96.538342,-50.035599,-12.081373999999999,85.02287599999998,27.410639999999997,1.9369459999999967,-1.8838839,24.547047,77.12307
0.19,-1.4861418683338572,7.817779069377657,7.666221904834026,0.8409077259791374,-5.574678558572997,-2.5927757556918287,-1.2062597765818384,-0.588689495944724,-36.81971,-0.04405589999999943,49.77112,92.77196,-43.45227,-34.18626,52.43443,96.90682,-50.05629,-12.104539999999998,85.07396,27.434399999999997,1.8266599999999968,-1.874469,24.58437,77.1597
0.191,-1.5051537340616628,7.716144528832626,7.576133983392797,0.8342109834646456,-5.480853341023183,-2.5116432816266614,-1.2256590793250972,-0.6144275494026471,-36.848519,-0.09775250999999939,49.716868000000005,92.793344,-43.201503,-34.378913999999995,52.593127,97.275298,-50.076981,-12.127705999999998,85.125044,27.458159999999992,1.7163739999999963,-1.8650541,24.621693,77.19633
0.192,-1.5241655997894688,7.614509988287592,7.486046061951565,0.8275142409501538,-5.387028123473368,-2.4305108075614936,-1.2450583820683558,-0.6401656028605702,-36.876576,-0.15240247999999929,49.65944,92.815968,-42.947664,-34.567063999999995,52.75599999999999,97.634904,-50.097455999999994,-12.149688,85.17435999999998,27.48343999999999,1.606383999999996,-1.856076,24.661912,77.23416
0.193,-1.5431774655172743,7.512875447742559,7.3959581405103325,0.8208174984356618,-5.293202905923553,-2.3493783334963263,-1.2644576848116142,-0.6659036563184934,-36.896079,-0.21789691999999927,49.565885,92.852697,-42.658881,-34.703981,52.96637499999999,97.893591,-50.115474,-12.158202,85.20356499999998,27.52600999999999,1.499760999999996,-1.8520665,24.735073,77.28564
0.194,-1.5620134483510608,7.410824440341449,7.305472561979541,0.8139473121150813,-5.199225595634289,-2.268296873360117,-1.2825384447635797,-0.6921989209450155,-36.915582,-0.28339135999999926,49.47233,92.889426,-42.370098,-34.840897999999996,53.17675,98.152278,-50.133492,-12.166716,85.23277,27.568579999999994,1.3931379999999964,-1.848057,24.808234,77.33712
0.195,-1.5795889371110419,7.305788753805123,7.212137107640228,0.805834111850866,-5.104158287378966,-2.187581013048113,-1.291169648044611,-0.7224875322798298,-36.935085,-0.3488857999999993,49.378775,92.926155,-42.081315,-34.977815,53.387125,98.410965,-50.15151,-12.17523,85.26197499999998,27.61114999999999,1.2865149999999963,-1.8440475,24.881395,77.38859999999998
0.196,-1.5971644258710231,7.200753067268798,7.118801653300912,0.7977209115866509,-5.009090979123643,-2.106865152736109,-1.2998008513256427,-0.7527761436146442,-36.954588,-0.4143802399999993,49.28522,92.962884,-41.792532,-35.114732,53.5975,98.66965200000001,-50.169528,-12.183744,85.29117999999998,27.653719999999993,1.1798919999999968,-1.840038,24.954556,77.44007999999998
0.197,-1.6147399146310044,7.095717380732473,7.025466198961596,0.7896077113224356,-4.91402367086832,-2.026149292424105,-1.3084320546066743,-0.7830647549494589,-36.974091,-0.4798746799999993,49.191665,92.999613,-41.503749,-35.251649,53.807875,98.928339,-50.187546,-12.192257999999997,85.320385,27.696289999999998,1.0732689999999967,-1.8360285,25.027717,77.49156
0.198,-1.6323154033909857,6.990681694196147,6.932130744622281,0.7814945110582204,-4.8189563626129965,-1.9454334321121016,-1.3170632578877055,-0.8133533662842732,-36.993594,-0.5453691199999993,49.098110000000005,93.036342,-41.214966,-35.388566,54.01825,99.187026,-50.205564,-12.200771999999999,85.34958999999998,27.738859999999992,0.9666459999999971,-1.832019,25.100878,77.54304
0.199,-1.6498908921509667,6.885646007659822,6.838795290282966,0.7733813107940053,-4.723889054357675,-1.8647175718000977,-1.3256944611687371,-0.8436419776190877,-37.013097,-0.6108635599999993,49.004555,93.073071,-40.926183,-35.525483,54.228624999999994,99.445713,-50.223582,-12.209285999999999,85.37879499999998,27.781429999999997,0.8600229999999973,-1.8280095,25.174039,77.59452
0.2,-1.667466380910948,6.780610321123496,6.745459835943652,0.76526811052979,-4.628821746102353,-1.7840017114880935,-1.3343256644497687,-0.8739305889539021,-37.0326,-0.6763579999999992,48.911,93.1098,-40.63740000000001,-35.6624,54.43899999999999,99.7044,-50.2416,-12.217799999999999,85.408,27.823999999999995,0.7533999999999974,-1.824,25.2472,77.646
0.201,-1.6850418696709293,6.67557463458717,6.652124381604336,0.7571549102655749,-4.53375443784703,-1.7032858511760895,-1.3429568677308004,-0.9042192002887166,-37.052103,-0.7418524399999994,48.817445,93.146529,-40.348617,-35.799316999999995,54.64937499999999,99.963087,-50.259618,-12.226313999999999,85.43720499999998,27.866569999999996,0.6467769999999977,-1.8199905,25.320361,77.69748
0.202,-1.7026173584309103,6.570538948050845,6.558788927265021,0.7490417100013597,-4.438687129591706,-1.6225699908640858,-1.3515880710118315,-0.9345078116235309,-37.071606,-0.8073468799999992,48.72389,93.183258,-40.059834,-35.936234,54.85974999999999,100.221774,-50.277636,-12.234827999999998,85.46640999999998,27.90914,0.5401539999999978,-1.815981,25.393522,77.74895999999998
0.203,-1.7201928471908916,6.4655032615145185,6.465453472925706,0.7409285097371445,-4.343619821336384,-1.5418541305520819,-1.3602192742928632,-0.9647964229583454,-37.090915,-0.8913072099999992,48.605309000000005,93.243267,-39.737974,-36.008064,55.11387199999999,100.387535,-50.286245,-12.228112999999999,85.49454799999998,27.97208,0.43362799999999824,-1.815706,25.488023,77.80916999999998
0.204,-1.7377683359508729,6.360467574978193,6.372118018586392,0.7328153094729293,-4.24855251308106,-1.461138270240078,-1.3688504775738948,-0.9950850342931599,-37.110220000000005,-0.9756482799999994,48.486212,93.303756,-39.415432,-36.078552,55.36889599999999,100.55138,-50.29466,-12.221084,85.522664,28.03544,0.3271039999999986,-1.815508,25.582964,77.86955999999998
0.205,-1.7549785985253687,6.252310783665802,6.275718020174668,0.7244726487403114,-4.152047074914323,-1.3833964938271783,-1.3825002059580587,-1.013699583148694,-37.129525,-1.0599893499999995,48.367115,93.364245,-39.09289,-36.14904,55.62392,100.715225,-50.303075,-12.214055,85.55078,28.0988,0.22057999999999892,-1.81531,25.677905,77.92995
0.206,-1.7721563965500442,6.1438765608177635,6.1790456178453965,0.7161095915216131,-4.055413802977681,-1.3059190804275322,-1.3965960254625007,-1.031276437561626,-37.14883,-1.14433042,48.248018,93.424734,-38.770348,-36.219528,55.878944,100.87907,-50.31149,-12.207026,85.578896,28.162160000000004,0.11405599999999932,-1.815112,25.772846,77.99034
0.207,-1.7893341945747196,6.035442337969723,6.082373215516127,0.7077465343029149,-3.95878053104104,-1.2284416670278864,-1.4106918449669428,-1.048853291974558,-37.168135,-1.22867149,48.128921,93.485223,-38.447806,-36.290016,56.133968,101.042915,-50.319905,-12.199997,85.60701199999998,28.225520000000003,0.007531999999999649,-1.814914,25.867787,78.05073
0.208,-1.8065119925993949,5.927008115121684,5.985700813186857,0.6993834770842167,-3.862147259104399,-1.1509642536282403,-1.4247876644713848,-1.0664301463874903,-37.18744,-1.3130125600000004,48.009824,93.545712,-38.125264,-36.360504000000006,56.388992,101.20676,-50.32832,-12.192967999999999,85.635128,28.28888000000001,-0.09899199999999997,-1.814716,25.962728,78.11112
0.209,-1.8236897906240697,5.818573892273648,5.8890284108575885,0.6910204198655188,-3.76551398716776,-1.0734868402285964,-1.4388834839758264,-1.084007000800422,-37.206745000000005,-1.3973536299999982,47.890727,93.606201,-37.80272200000001,-36.430992,56.64401599999999,101.370605,-50.336735,-12.185939,85.663244,28.352240000000005,-0.20551599999999656,-1.814518,26.057669,78.17150999999998
0.21,-1.840867588648745,5.710139669425606,5.792356008528318,0.6826573626468205,-3.6688807152311185,-0.9960094268289504,-1.4529793034802685,-1.101583855213354,-37.22605,-1.4816946999999985,47.77163,93.66669,-37.48018,-36.50148,56.89903999999999,101.53445,-50.34515,-12.17891,85.69136,28.41560000000001,-0.3120399999999963,-1.81432,26.15261,78.23189999999998
0.211,-1.85804538667342,5.601705446577567,5.695683606199048,0.6742943054281223,-3.5722474432944766,-0.9185320134293041,-1.4670751229847103,-1.1191607096262859,-37.245355,-1.5660357699999987,47.652533,93.727179,-37.157638000000006,-36.571968000000005,57.15406399999999,101.698295,-50.353565,-12.171881,85.719476,28.478960000000008,-0.41856399999999594,-1.814122,26.247551,78.29228999999998
0.212,-1.8752231846980956,5.4932712237295265,5.599011203869777,0.6659312482094241,-3.4756141713578352,-0.8410546000296583,-1.4811709424891524,-1.136737564039218,-37.264660000000006,-1.6503768399999987,47.533436,93.787668,-36.83509600000001,-36.642456,57.409088,101.86214,-50.36198,-12.164852,85.74759199999998,28.542320000000007,-0.5250879999999956,-1.813924,26.342492,78.35267999999998
0.213,-1.8924009827227708,5.384837000881487,5.502338801540507,0.6575681909907259,-3.3789808994211934,-0.7635771866300122,-1.4952667619935944,-1.15431441845215,-37.277614,-1.7571438999999989,47.40764,93.86808,-36.485845,-36.645084,57.6923,101.953427,-50.355692,-12.152168,85.770401,28.618730000000006,-0.6329169999999962,-1.8169189,26.437259,78.40958999999998
0.214,-1.909578780747446,5.2764027780334475,5.405666399211237,0.6492051337720277,-3.282347627484552,-0.6860997732303662,-1.5093625814980365,-1.171891272865082,-37.289692,-1.867004199999999,47.28092,93.95124,-36.13291,-36.638352,57.9794,102.034706,-50.347376,-12.138704,85.792478,28.69694000000001,-0.740925999999997,-1.8203542,26.532002,78.46602
0.215,-1.927463729788968,5.166741914561013,5.305822392433212,0.6409423042521635,-3.1847915361197607,-0.609525975076919,-1.5150084811608917,-1.193375346826845,-37.30177,-1.9768644999999985,47.1542,94.0344,-35.77997500000001,-36.631620000000005,58.26649999999999,102.115985,-50.33906,-12.12524,85.814555,28.775150000000007,-0.8489349999999978,-1.8237895,26.626745,78.52245
0.216,-1.945631539237228,5.05659039483882,5.2047097438756875,0.6327195658118328,-3.08686631698371,-0.5333136230219513,-1.5172744128871123,-1.2164223086081412,-37.313848,-2.086724799999999,47.02748,94.11756,-35.427040000000005,-36.624888,58.5536,102.197264,-50.330744,-12.111776,85.836632,28.853360000000006,-0.9569439999999984,-1.8272248,26.721488,78.57888
0.217,-1.963799348685488,4.946438875116629,5.10359709531816,0.624496827371502,-2.988941097847659,-0.4571012709669836,-1.519540344613333,-1.2394692703894368,-37.325926,-2.1965850999999987,46.90076,94.20072,-35.074105,-36.618156,58.8407,102.278543,-50.322428,-12.098312,85.858709,28.931570000000008,-1.0649529999999992,-1.8306601,26.816231,78.63531
0.218,-1.981967158133748,4.836287355394436,5.002484446760635,0.6162740889311713,-2.891015878711608,-0.38088891891201593,-1.5218062763395537,-1.2625162321707324,-37.338004000000005,-2.306445399999999,46.77404,94.28388,-34.72117000000001,-36.611424,59.1278,102.359822,-50.314112,-12.084848,85.880786,29.009780000000006,-1.172962,-1.8340954,26.910974,78.69174000000001
0.219,-2.0001349675820084,4.7261358356722445,4.901371798203109,0.6080513504908406,-2.7930906595755567,-0.30467656685704825,-1.5240722080657745,-1.285563193952028,-37.350082,-2.416305699999999,46.64732,94.36704,-34.368235000000006,-36.604692,59.4149,102.441101,-50.305796,-12.071384,85.90286300000001,29.087990000000005,-1.2809710000000007,-1.8375307,27.005717,78.74817
0.22,-2.0183027770302684,4.615984315950052,4.800259149645584,0.59982861205051,-2.695165440439505,-0.22846421480208057,-1.526338139791995,-1.3086101557333238,-37.36216,-2.526165999999999,46.5206,94.45020000000001,-34.0153,-36.59796,59.702,102.52238,-50.29748,-12.05792,85.92494,29.166200000000003,-1.3889800000000019,-1.840966,27.10046,78.8046
0.221,-2.0364705864785284,4.50583279622786,4.699146501088057,0.5916058736101792,-2.597240221303455,-0.1522518627471129,-1.5286040715182156,-1.3316571175146195,-37.374238000000005,-2.636026299999999,46.39388,94.53336,-33.66236500000001,-36.591228,59.9891,102.603659,-50.289164,-12.044456,85.947017,29.24441,-1.4969890000000023,-1.8444013,27.195203,78.86103
0.222,-2.054638395926789,4.395681276505668,4.598033852530532,0.5833831351698485,-2.499315002167404,-0.0760395106921452,-1.5308700032444365,-1.354704079295915,-37.386316,-2.745886599999998,46.26716,94.61652,-33.309430000000006,-36.584496,60.2762,102.684938,-50.280848000000006,-12.030992,85.969094,29.322620000000004,-1.6049980000000035,-1.8478366,27.289946,78.91746
0.223,-2.072806205375049,4.285529756783475,4.496921203973006,0.5751603967295178,-2.4013897830313526,0.00017284136282247342,-1.533135934970657,-1.3777510410772107,-37.385227,-2.8714779999999984,46.137514,94.710075,-32.934704,-36.515625,60.570692,102.703308,-50.260982000000006,-12.019145,85.968995,29.40391,-1.7157020000000027,-1.8547985,27.372831,78.96234000000001
0.224,-2.090974014823309,4.175378237061284,4.39580855541548,0.5669376582891872,-2.3034645638953015,0.07638519341779014,-1.5354018666968776,-1.4007980028585063,-37.380376000000005,-3.0015639999999983,46.007032,94.8066,-32.55375200000001,-36.429,60.867296,102.703704,-50.237816,-12.00776,85.96256000000001,29.48608,-1.8271760000000017,-1.862768,27.452328,79.00392
0.225,-2.110078613219315,4.064886153505654,4.292832993910157,0.5578974934351497,-2.2065582085631728,0.15744697209227615,-1.5366025778481291,-1.4239893582620984,-37.375525,-3.1316499999999987,45.87655,94.903125,-32.17280000000001,-36.342375,61.1639,102.7041,-50.214650000000006,-11.996375,85.956125,29.56825,-1.9386500000000009,-1.8707375,27.531825,79.0455
0.226,-2.130082529005157,3.954067128669924,4.1880690359749515,0.548072599223954,-2.11062996248281,0.24316420032149924,-1.53678067724741,-1.447319331543095,-37.370674,-3.261735999999998,45.746068,94.99965,-31.791848000000005,-36.25575,61.460504,102.704496,-50.191484,-11.98499,85.94969,29.65042,-2.050124,-1.878707,27.611322,79.08708
0.227,-2.150086444790999,3.8432481038341937,4.083305078039744,0.5382477050127582,-2.014701716402448,0.3288814285507223,-1.536958776646691,-1.4706493048240912,-37.365823000000006,-3.3918219999999986,45.615586,95.096175,-31.410896000000008,-36.169125,61.757108,102.704892,-50.168318000000006,-11.973605,85.943255,29.732589999999995,-2.161597999999999,-1.8866765,27.690819,79.12865999999998
0.228,-2.170090360576841,3.732429078998464,3.978541120104536,0.5284228108015625,-1.918773470322085,0.4145986567799453,-1.537136876045972,-1.4939792781050876,-37.360972,-3.5219079999999985,45.485104,95.1927,-31.029944000000008,-36.0825,62.053712,102.705288,-50.145152,-11.96222,85.93682000000001,29.814759999999993,-2.273071999999998,-1.894646,27.770316,79.17023999999998
0.229,-2.190094276362683,3.621610054162733,3.8737771621693287,0.5185979165903668,-1.8228452242417217,0.5003158850091683,-1.5373149754452529,-1.5173092513860844,-37.356121,-3.6519939999999984,45.354622,95.289225,-30.648992000000007,-35.995875,62.350316,102.705684,-50.121986,-11.950835,85.930385,29.89692999999999,-2.3845459999999967,-1.9026155,27.849813,79.21182
0.23,-2.210098192148525,3.510791029327004,3.769013204234122,0.508773022379171,-1.7269169781613591,0.5860331132383914,-1.537493074844534,-1.5406392246670808,-37.35127000000001,-3.7820799999999983,45.22414,95.38575,-30.268040000000006,-35.90925,62.64692,102.70608,-50.09882,-11.93945,85.92395,29.979099999999992,-2.496019999999996,-1.910585,27.92931,79.2534
0.231,-2.2301021079343673,3.399972004491273,3.6642492462989154,0.4989481281679753,-1.630988732080996,0.6717503414676145,-1.5376711742438147,-1.5639691979480772,-37.346419,-3.9121659999999983,45.093658,95.482275,-29.887088000000006,-35.822625,62.943524,102.706476,-50.075654,-11.928065,85.917515,30.06126999999999,-2.6074939999999955,-1.9185545,28.008807,79.29497999999998
0.232,-2.2501060237202086,3.2891529796555434,3.559485288363708,0.48912323395677954,-1.5350604860006336,0.7574675696968375,-1.5378492736430955,-1.5872991712290738,-37.341568,-4.042251999999998,44.963176,95.5788,-29.50613600000001,-35.736,63.240128,102.706872,-50.052488,-11.91668,85.91108000000001,30.143439999999988,-2.718967999999994,-1.926524,28.088304,79.33655999999998
0.233,-2.2701099395060518,3.178333954819813,3.4547213304285007,0.4792983397455838,-1.4391322399202706,0.8431847979260606,-1.5380273730423768,-1.6106291445100702,-37.333099,-4.170126999999998,44.824386,95.663734,-29.107764000000007,-35.597852,63.522862999999994,102.64536,-50.021349,-11.906099,85.88635400000001,30.23096999999999,-2.8310449999999947,-1.934929,28.157349,79.36607999999998
0.234,-2.2901138552918927,3.0675149299840836,3.3499573724932934,0.4694734455343881,-1.3432039938399079,0.9289020261552835,-1.5382054724416576,-1.6339591177910666,-37.322902000000006,-4.296945999999999,44.681628,95.743132,-28.701072000000007,-35.435096,63.798974,102.55428,-49.986402,-11.895902,85.85289200000001,30.321059999999992,-2.943409999999995,-1.943542,28.221402,79.38983999999998
0.235,-2.310560247466412,2.9568001096446825,3.2436262645687455,0.4595899677598021,-1.2468713046012787,1.01534199225539,-1.5377672923144996,-1.657603706787821,-37.312705,-4.423765,44.53887,95.82253,-28.294380000000004,-35.27234,64.075085,102.4632,-49.951455,-11.885705,85.81942999999998,30.411149999999992,-3.055774999999996,-1.952155,28.285455,79.4136
0.236,-2.3320095861219308,2.8463214861636286,3.133742950001692,0.4495737005748649,-1.1496218775372462,1.1034201641961645,-1.5359322119274124,-1.6819614247402934,-37.302508,-4.550584,44.396112,95.901928,-27.887688000000004,-35.109584,64.351196,102.37212,-49.916508,-11.875508,85.78596799999998,30.501239999999996,-3.1681399999999966,-1.960768,28.349508,79.43736
0.237,-2.353458924777449,2.7358428626825746,3.023859635434639,0.4395574333899277,-1.0523724504732137,1.1914983361369391,-1.5340971315403256,-1.7063191426927655,-37.292311000000005,-4.677403,44.253354,95.981326,-27.480996000000005,-34.946828,64.627307,102.28104,-49.881561,-11.865311,85.75250599999998,30.59133,-3.280504999999998,-1.969381,28.413561,79.46111999999998
0.238,-2.3749082634329683,2.62536423920152,2.913976320867585,0.42954116620499055,-0.9551230234091811,1.2795765080777135,-1.5322620511532388,-1.7306768606452378,-37.282114,-4.804222,44.110596,96.060724,-27.074304000000005,-34.784072,64.903418,102.18996,-49.846614,-11.855114,85.71904399999998,30.68142,-3.3928699999999985,-1.977994,28.477614,79.48488
0.239,-2.3963576020884876,2.514885615720466,2.8040930063005316,0.41952489902005335,-0.8578735963451486,1.3676546800184883,-1.530426970766152,-1.75503457859771,-37.271917,-4.931041,43.967838,96.140122,-26.667612,-34.621316,65.179529,102.09888,-49.811667,-11.844917,85.68558199999998,30.77151,-3.5052349999999994,-1.986607,28.541667,79.50864
0.24,-2.417806940744005,2.404406992239416,2.694209691733481,0.4095086318351164,-0.7606241692811189,1.4557328519592607,-1.5285918903790652,-1.7793922965501818,-37.26172,-5.057859999999998,43.82508,96.21952,-26.26092000000001,-34.458560000000006,65.45563999999999,102.0078,-49.77672,-11.83472,85.65211999999998,30.861600000000006,-3.617599999999997,-1.99522,28.60572,79.53239999999998
0.241,-2.4392562793995247,2.293928368758361,2.5843263771664278,0.3994923646501793,-0.6633747422170865,1.5438110239000356,-1.5267568099919786,-1.803750014502654,-37.251523,-5.184678999999998,43.682322,96.298918,-25.854228000000013,-34.295804000000004,65.73175099999999,101.91672,-49.741773,-11.824523,85.61865799999998,30.951690000000006,-3.7299649999999978,-2.003833,28.669773,79.55616
0.242,-2.4607056180550435,2.183449745277307,2.4744430625993736,0.3894760974652421,-0.566125315153054,1.63188919584081,-1.5249217296048918,-1.8281077324551265,-37.241326,-5.3114979999999985,43.539564,96.378316,-25.447536000000007,-34.133048,66.007862,101.82564,-49.706826,-11.814326,85.58519599999998,31.041780000000006,-3.842329999999999,-2.012446,28.733826,79.57992
0.243,-2.4821549567105623,2.072971121796253,2.3645597480323204,0.3794598302803049,-0.46887588808902153,1.7199673677815848,-1.523086649217805,-1.8524654504075988,-37.238596,-5.416548699999999,43.393614,96.424198,-25.027221000000008,-33.930221,66.25735399999999,101.675622,-49.65894,-11.805326,85.54004899999998,31.146120000000007,-3.954637999999999,-2.0183287,28.795884,79.59285
0.244,-2.5036042953660806,1.9624924983151988,2.2546764334652662,0.3694435630953677,-0.371626461024989,1.8080455397223596,-1.521251568830718,-1.8768231683600711,-37.241368,-5.505559599999999,43.245312,96.445384,-24.596868000000008,-33.697868,66.48723199999999,101.482176,-49.60152,-11.797208,85.486292,31.260960000000008,-4.066903999999999,-2.0221996,28.856472,79.5978
0.245,-2.525120625120059,1.8521724735968537,2.144277382084005,0.35933241829214274,-0.2740959855290666,1.8962346943785915,-1.5195017669887907,-1.901880933882484,-37.24414,-5.594570499999999,43.09701,96.46657,-24.166515000000008,-33.465515,66.71710999999999,101.28873,-49.5441,-11.78909,85.432535,31.37580000000001,-4.179169999999999,-2.0260705,28.91706,79.60275
0.246,-2.547226476540477,1.7432481179903503,2.0293398467377175,0.34838635044798494,-0.17409228383251396,1.9854004969308467,-1.518502416344266,-1.9330991180203745,-37.246912,-5.6835814,42.948708,96.487756,-23.736162000000007,-33.233162,66.946988,101.095284,-49.48668,-11.780972,85.37877799999998,31.49064000000001,-4.291435999999999,-2.0299414,28.977648,79.6077
0.247,-2.569332327960896,1.6343237623838467,1.91440231139143,0.33744028260382714,-0.07408858213596131,2.0745662994831022,-1.517503065699742,-1.9643173021582645,-37.249684,-5.7725923,42.800406,96.508942,-23.305809000000007,-33.000809000000004,67.176866,100.901838,-49.42926,-11.772854,85.325021,31.605480000000007,-4.403701999999999,-2.0338123,29.038236,79.61265
0.248,-2.5914381793813144,1.525399406777343,1.7994647760451423,0.32649421475966933,0.025915119560591338,2.163732102035357,-1.5165037150552174,-1.9955354862961547,-37.252456,-5.861603199999999,42.652104,96.530128,-22.875456000000007,-32.768456,67.406744,100.708392,-49.37184,-11.764736,85.271264,31.720320000000008,-4.515967999999999,-2.0376832,29.098824,79.61759999999998
0.249,-2.613544030801733,1.4164750511708393,1.6845272406988547,0.3155481469155116,0.125918821257144,2.2528979045876127,-1.5155043644106931,-2.026753670434045,-37.255228,-5.950614099999999,42.503802,96.551314,-22.445103000000007,-32.536103000000004,67.636622,100.514946,-49.314420000000005,-11.756618,85.21750699999998,31.83516000000001,-4.628233999999999,-2.0415541,29.159412,79.62255
0.25,-2.6356498822221512,1.3075506955643357,1.5695897053525671,0.30460207907135384,0.22592252295369664,2.3420637071398684,-1.5145050137661689,-2.057971854571935,-37.258,-6.039624999999999,42.355500000000006,96.5725,-22.014750000000006,-32.30375,67.8665,100.3215,-49.257000000000005,-11.7485,85.16375,31.950000000000006,-4.740499999999999,-2.045425,29.22,79.62749999999998
0.251,-2.6577557336425697,1.198626339957832,1.4546521700062796,0.29365601122719603,0.32592622465024934,2.431229509692124,-1.5135056631216444,-2.089190038709825,-37.260772,-6.128635899999999,42.207198000000005,96.593686,-21.584397,-32.071397000000005,68.096378,100.128054,-49.19958,-11.740382,85.109993,32.06484000000001,-4.852765999999999,-2.0492959,29.280588,79.63245
0.252,-2.6798615850629885,1.0897019843513283,1.339714634659992,0.28270994338303823,0.42592992634680193,2.5203953122443794,-1.51250631247712,-2.120408222847716,-37.263544,-6.217646799999999,42.058896,96.614872,-21.15404400000001,-31.839044,68.326256,99.934608,-49.14216,-11.732264,85.05623600000001,32.179680000000005,-4.965031999999999,-2.0531668,29.341176,79.6374
0.253,-2.701967436483407,0.9807776287448247,1.2247770993137044,0.2717638755388805,0.5259336280433545,2.609561114796634,-1.5115069618325956,-2.1516264069856055,-37.274823,-6.2791345,41.91270900000001,96.596907,-20.719179000000004,-31.575107,68.523845,99.69355100000001,-49.062368000000006,-11.728893,84.985982,32.313320000000004,-5.079459999999999,-2.0539451,29.407827,79.62778
0.254,-2.7240732879038254,0.871853273138321,1.1098395639674168,0.2608178076947227,0.6259373297399073,2.6987269173488904,-1.5105076111880713,-2.182844591123496,-37.295514,-6.310171,41.768862000000006,96.535626,-20.279322000000004,-31.276226000000005,68.68571,99.399818,-48.957824,-11.730774,84.89747600000001,32.467760000000006,-5.196279999999998,-2.0513018,29.481186,79.60204
0.255,-2.746179139324244,0.7629289175318172,0.9949020286211294,0.24987173985056488,0.7259410314364598,2.7878927199011456,-1.5095082605435468,-2.2140627752613864,-37.316205,-6.3412075,41.625015,96.47434500000001,-19.839465000000004,-30.977345000000003,68.84757499999999,99.106085,-48.853280000000005,-11.732655,84.80897,32.62220000000001,-5.313099999999998,-2.0486585,29.554545,79.5763
0.256,-2.767763238352765,0.6529352903698413,0.881212781440488,0.23597439458433617,0.8286810001307262,2.87382777182174,-1.5082351563928542,-2.2320166643625434,-37.336896,-6.372243999999999,41.481168,96.413064,-19.399608000000004,-30.678464000000005,69.00944,98.812352,-48.748736,-11.734536,84.720464,32.77664000000001,-5.4299199999999965,-2.0460152,29.627904,79.55056
0.257,-2.7892880473367536,0.5428201550765616,0.7676653851877614,0.22174167688378124,0.9317319082565512,2.959395692988736,-1.5069309438891878,-2.2484632472095263,-37.357587,-6.403280499999999,41.337321,96.351783,-18.959751000000004,-30.379583000000004,69.17130499999999,98.518619,-48.644192,-11.736417,84.63195800000001,32.93108000000001,-5.546739999999996,-2.0433719000000004,29.701263,79.52482
0.258,-2.810812856320741,0.43270501978328174,0.6541179889350348,0.20750895918322632,1.0347828163823756,3.044963614155732,-1.5056267313855212,-2.2649098300565087,-37.378278,-6.434316999999999,41.193474,96.290502,-18.519894000000004,-30.080702,69.33317,98.224886,-48.539648,-11.738298,84.543452,33.08552000000001,-5.663559999999995,-2.0407286,29.774622,79.49907999999998
0.259,-2.8323376653047294,0.3225898844900019,0.5405705926823081,0.19327624148267136,1.1378337245082006,3.130531535322728,-1.5043225188818548,-2.281356412903492,-37.398969,-6.465353499999999,41.049627,96.22922100000001,-18.080037000000004,-29.781821000000004,69.495035,97.93115300000001,-48.435104,-11.740179,84.454946,33.23996000000001,-5.780379999999995,-2.0380853,29.847981,79.47333999999998
0.26,-2.853862474288717,0.21247474919672213,0.4270231964295814,0.1790435237821164,1.2408846326340253,3.216099456489724,-1.5030183063781883,-2.297802995750475,-37.41966,-6.496389999999999,40.90578,96.16794,-17.640180000000004,-29.48294,69.6569,97.63742,-48.33056,-11.74206,84.36643999999998,33.394400000000005,-5.897199999999994,-2.035442,29.92134,79.44759999999998
0.261,-2.8753872832727057,0.1023596139034424,0.31347580017685484,0.16481080608156143,1.34393554075985,3.30166737765672,-1.501714093874522,-2.3142495785974577,-37.440351,-6.527426499999999,40.761933,96.106659,-17.200323000000004,-29.184059000000005,69.818765,97.343687,-48.226016,-11.743941,84.277934,33.548840000000006,-6.014019999999992,-2.0327987,29.994699,79.42185999999998
0.262,-2.8969120922566938,-0.007755521389837483,0.1999284039241281,0.15057808838100653,1.4469864488856747,3.3872352988237164,-1.5004098813708555,-2.3306961614444406,-37.461042,-6.558462999999999,40.618086,96.04537800000001,-16.760466000000008,-28.885178000000003,69.98062999999999,97.04995400000001,-48.121472,-11.745822,84.189428,33.70328000000001,-6.130839999999992,-2.0301554000000004,30.068058,79.39611999999998
0.263,-2.918436901240681,-0.11787065668311723,0.08638100767140156,0.13634537068045155,1.5500373570114996,3.472803219990712,-1.499105668867189,-2.3471427442914234,-37.484101,-6.575224899999999,40.476163,95.961379,-16.326751000000005,-28.564245000000007,70.114893,96.724512,-47.99199,-11.75144,84.08530799999998,33.87770000000001,-6.246216999999992,-2.0262985,30.148447,79.36113
0.264,-2.939961710224669,-0.22798579197639712,-0.02716638858132514,0.12211265297989662,1.6530882651373244,3.5583711411577084,-1.4978014563635231,-2.3635893271384063,-37.511128,-6.5680672,40.337464,95.839312,-15.903328000000004,-28.206360000000004,70.20290399999999,96.345936,-47.82072,-11.76332,83.955024,34.08560000000001,-6.359175999999993,-2.020408,30.240616,79.31063999999998
0.265,-2.9614865192086577,-0.3381009272696768,-0.14071378483405184,0.10787993527934168,1.756139173263149,3.643939062324705,-1.4964972438598567,-2.3800359099853887,-37.538155,-6.5609095,40.198765,95.717245,-15.479905000000004,-27.848475000000004,70.290915,95.96736000000001,-47.64945,-11.7752,83.82474,34.29350000000001,-6.472134999999993,-2.0145175,30.332785,79.26014999999998
0.266,-2.986071131622831,-0.4365115943159306,-0.26677624692186697,0.09730482627726035,1.8480295072138164,3.727151319988645,-1.4959042071042488,-2.399375194115604,-37.565182,-6.5537518,40.060066,95.595178,-15.056482000000006,-27.490590000000005,70.37892599999999,95.588784,-47.47818,-11.78708,83.694456,34.501400000000004,-6.585093999999994,-2.008627,30.424954,79.20966
0.267,-3.0120056573150276,-0.5297585253708508,-0.3983600615839846,0.0883433681715641,1.9349960584401509,3.8093243143424145,-1.4956249243551372,-2.4199906699884206,-37.592209,-6.5465941,39.921367,95.473111,-14.633059000000005,-27.132705000000005,70.466937,95.210208,-47.30691,-11.79896,83.564172,34.709300000000006,-6.698052999999994,-2.0027365,30.517123,79.15917
0.268,-3.037940183007224,-0.623005456425771,-0.5299438762461022,0.07938191006586783,2.0219626096664847,3.891497308696183,-1.4953456416060256,-2.440606145861237,-37.619236,-6.5394364,39.782668,95.351044,-14.209636000000003,-26.774820000000005,70.554948,94.831632,-47.13564,-11.81084,83.43388799999998,34.91720000000001,-6.8110119999999945,-1.996846,30.609292,79.10868
0.269,-3.06387470869942,-0.7162523874806912,-0.66152769090822,0.07042045196017155,2.10892916089282,3.973670303049953,-1.495066358856914,-2.461221621734054,-37.646263,-6.5322787,39.643969000000006,95.228977,-13.786213000000004,-26.416935000000002,70.642959,94.453056,-46.96437,-11.82272,83.303604,35.1251,-6.923970999999995,-1.9909555,30.701461,79.05818999999998
0.27,-3.0898092343916166,-0.8094993185356114,-0.7931115055703376,0.06145899385447528,2.195895712119154,4.0558432974037215,-1.4947870761078024,-2.481837097606871,-37.67329,-6.525121,39.50527,95.10691000000001,-13.362790000000004,-26.05905,70.73097,94.07448,-46.7931,-11.8346,83.17332,35.333000000000006,-7.0369299999999955,-1.9850650000000003,30.79363,79.0077
0.271,-3.1157437600838134,-0.9027462495905315,-0.9246953202324552,0.05249753574877901,2.282862263345488,4.1380162917574905,-1.4945077933586908,-2.502452573479688,-37.700317,-6.5179633,39.366571,94.984843,-12.939367000000004,-25.701165000000003,70.818981,93.695904,-46.62183,-11.84648,83.043036,35.5409,-7.149888999999996,-1.9791745,30.885799,78.95721
0.272,-3.1416782857760097,-0.9959931806454515,-1.0562791348945728,0.043536077643082725,2.369828814571823,4.22018928611126,-1.4942285106095792,-2.523068049352504,-37.727344,-6.5108056,39.227872,94.862776,-12.515944000000005,-25.343280000000004,70.906992,93.317328,-46.45056,-11.85836,82.91275199999998,35.7488,-7.262847999999996,-1.973284,30.977968,78.90672
0.273,-3.167612811468206,-1.0892401117003718,-1.1878629495566904,0.03457461953738647,2.4567953657981567,4.3023622804650286,-1.4939492278604676,-2.5436835252253207,-37.751995,-6.5007184,39.091522,94.73512000000001,-12.103645000000004,-24.974406000000005,70.97437500000001,92.91591,-46.257825,-11.87267,82.77304499999998,35.969660000000005,-7.372053999999997,-1.9673665,31.073998,78.85245
0.274,-3.1935473371604024,-1.182487042755292,-1.319446764218808,0.025613161431690193,2.543761917024492,4.384535274818798,-1.4936699451113562,-2.5642990010981377,-37.77031,-6.482819200000001,38.961436000000006,94.59256,-11.721010000000003,-24.576228000000004,70.98675,92.45358,-46.00785,-11.89346,82.60821,36.22508,-7.471251999999997,-1.961377,31.180324,78.7881
0.275,-3.2194818628525987,-1.2757339738102123,-1.4510305788809257,0.016651703325993916,2.630728468250826,4.4667082691725675,-1.4933906623622448,-2.5849144769709542,-37.788625,-6.46492,38.83135000000001,94.45,-11.338375000000006,-24.17805000000001,70.999125,91.99125,-45.757875000000006,-11.91425,82.443375,36.4805,-7.570449999999997,-1.9553875,31.28665,78.72375000000001
